(STVECCHIO)
(T1 D=3.175 CR=0 - ZMIN=-10 - Fresa cilindrica)
G90 G94
G17
G21
(When using Fusion for Personal Use, the feedrate of rapid)
(moves is reduced to match the feedrate of cutting moves,)
(which can increase machining time. Unrestricted rapid moves)
(are available with a Fusion Subscription.)
G28 G91 Z0
G90

(Contornatura 2D1)
M0
(MANUAL TOOL CHANGE TO T1)
S9000 M3
G17 G90 G94
G54
G0 X-1.251 Y-1.825
Z15
G1 Z5 F800
Z0.635 F320
Z-4.683
X-1.245 Y-1.819 Z-4.753 F640
X-1.228 Y-1.804 Z-4.82
X-1.199 Y-1.78 Z-4.88
X-1.16 Y-1.747 Z-4.931
X-1.115 Y-1.708 Z-4.969
X-1.063 Y-1.665 Z-4.992
X-1.01 Y-1.619 Z-5
X-0.768 Y-1.413
G3 X-0.732 Y-0.965 I-0.206 J0.242
G1 X-0.744 Y-0.951 F800
X-0.912 Y-0.782
X-1.099 Y-0.626
X-1.318 Y-0.469
X-1.825 Y-0.152
X-2.001 Y-0.075
X-2.261 Y0.037
X-2.744 Y0.24
X-3.206 Y0.419
X-3.429 Y0.499
X-3.663 Y0.577
X-4.178 Y0.734
X-4.702 Y0.877
X-5.811 Y1.152
X-6.814 Y1.385
X-6.872 Y1.399
X-7.371 Y1.535
X-7.44 Y1.556
X-7.93 Y1.714
X-7.994 Y1.736
X-8.223 Y1.82
X-8.269 Y1.838
X-8.485 Y1.925
X-8.548 Y1.952
X-8.957 Y2.139
X-9.021 Y2.17
X-9.43 Y2.379
X-9.458 Y2.393
X-9.673 Y2.509
X-9.68 Y2.513
X-9.909 Y2.637
G2 X-10.297 Y2.932 I0.757 J1.395
G1 X-10.543 Y3.189
X-10.646 Y3.307
X-10.753 Y3.444
X-10.812 Y3.523
X-10.865 Y3.606
X-10.953 Y3.751
X-11.013 Y3.86
X-11.064 Y3.973
X-11.128 Y4.129
X-11.164 Y4.227
X-11.193 Y4.328
X-11.236 Y4.492
X-11.265 Y4.626
X-11.294 Y4.799
X-11.304 Y4.864
X-11.327 Y5.046
G2 X-11.324 Y5.467 I1.575 J0.2
G1 X-11.272 Y5.84
X-11.257 Y5.93
X-11.236 Y6.019
X-11.191 Y6.195
X-11.157 Y6.305
X-11.116 Y6.413
X-11.047 Y6.577
G2 X-10.916 Y6.823 I1.462 J-0.618
G1 X-10.82 Y6.972
X-10.758 Y7.06
X-10.691 Y7.143
X-10.575 Y7.278
X-10.52 Y7.339
X-10.461 Y7.397
X-10.199 Y7.644
G2 X-9.862 Y7.887 I1.088 J-1.156
G1 X-9.522 Y8.069
X-9.478 Y8.092
X-9.159 Y8.25
X-9.063 Y8.294
X-8.747 Y8.426
X-8.605 Y8.477
X-8.272 Y8.58
X-8.193 Y8.602
X-8.114 Y8.62
X-7.761 Y8.69
X-7.633 Y8.71
X-7.272 Y8.752
X-7.168 Y8.761
X-6.433 Y8.797
X-6.29
X-5.602 Y8.769
X-5.493 Y8.761
X-5.156 Y8.723
X-5.024 Y8.703
X-4.695 Y8.638
X-4.611 Y8.62
X-4.529 Y8.596
X-4.221 Y8.501
X-4.145 Y8.475
X-4.07 Y8.445
X-3.78 Y8.321
X-3.677 Y8.273
X-3.385 Y8.123
X-3.337 Y8.097
X-3.023 Y7.922
G2 X-2.628 Y7.609 I-0.774 J-1.386
G1 X-2.399 Y7.36
X-2.36 Y7.316
X-2.158 Y7.079
X-2.081 Y6.981
X-1.906 Y6.74
X-1.834 Y6.633
X-1.756 Y6.505
X-1.708 Y6.419
X-1.636 Y6.283
X-1.575 Y6.153
X-1.495 Y5.96
X-0.519 Y6.003
X-0.549 Y6.098
X-0.619 Y6.271
X-0.701 Y6.436
X-0.799 Y6.604
X-0.917 Y6.779
X-1.057 Y6.965
X-1.217 Y7.162
X-1.396 Y7.368
X-1.672 Y7.672
X-1.83 Y7.77
X-2.147 Y7.964
X-2.439 Y8.135
X-2.711 Y8.284
X-2.967 Y8.413
X-3.215 Y8.522
X-3.463 Y8.616
X-3.72 Y8.696
X-3.995 Y8.764
X-4.285 Y8.819
X-4.593 Y8.863
X-4.909 Y8.896
X-5.619 Y8.941
X-6.31 Y8.965
X-7.228 Y8.928
X-7.654 Y8.892
X-8.057 Y8.837
X-8.439 Y8.758
X-8.828 Y8.652
X-9.258 Y8.517
X-9.487 Y8.44
X-9.636 Y8.39
X-9.888 Y8.263
X-10.194 Y8.1
X-10.449 Y7.945
X-10.672 Y7.783
X-10.748 Y7.719
X-10.828 Y7.644
X-11.035 Y7.423
X-11.252 Y7.163
X-11.421 Y6.948
X-11.536 Y6.744
X-11.682 Y6.463
X-11.794 Y6.218
X-11.871 Y6.004
X-11.926 Y5.785
X-11.968 Y5.524
X-12.002 Y5.212
X-12.018 Y4.999
X-11.973 Y4.594
X-11.899 Y4.1
X-11.859 Y3.908
X-11.811 Y3.726
X-11.758 Y3.565
X-11.699 Y3.422
X-11.628 Y3.282
X-11.538 Y3.134
X-11.428 Y2.975
X-11.305 Y2.814
X-10.978 Y2.431
X-10.732 Y2.164
X-10.61 Y2.082
X-10.353 Y1.913
X-10.117 Y1.762
X-9.906 Y1.632
X-9.463 Y1.385
X-9.261 Y1.285
X-9.035 Y1.185
X-8.794 Y1.087
X-8.55 Y0.999
X-8.002 Y0.824
X-7.427 Y0.665
X-6.822 Y0.509
X-5.122 Y0.079
X-5.096 Y0.072
X-4.895 Y0.017
X-4.887 Y0.015
X-4.696 Y-0.038
X-4.685 Y-0.041
X-4.319 Y-0.146
X-4.306 Y-0.15
X-3.936 Y-0.259
X-3.931 Y-0.26
X-3.735 Y-0.319
X-3.734
X-3.526 Y-0.382
X-3.408 Y-0.422
X-3.001 Y-0.579
X-2.923 Y-0.612
X-2.725 Y-0.701
X-2.633 Y-0.746
X-2.443 Y-0.847
X-2.329 Y-0.914
X-2.156 Y-1.025
X-2.053 Y-1.097
X-1.894 Y-1.218
X-1.824 Y-1.275
X-1.666 Y-1.409
X-1.633 Y-1.438
X-1.465 Y-1.59
G2 X-1.199 Y-1.901 I-1.064 J-1.179
G1 X-1.017 Y-2.179
X-0.948 Y-2.296
X-0.873 Y-2.436
X-0.836 Y-2.509
X-0.803 Y-2.584
X-0.743 Y-2.731
X-0.709 Y-2.822
X-0.68 Y-2.915
X-0.638 Y-3.069
X-0.604 Y-3.221
X-0.577 Y-3.381
X-0.561 Y-3.506
X-0.531 Y-3.834
G2 X-0.54 Y-4.195 I-1.581 J-0.142
G1 X-0.581 Y-4.489
X-0.591 Y-4.555
X-0.642 Y-4.83
X-0.673 Y-4.968
X-0.745 Y-5.227
X-0.792 Y-5.372
X-0.84 Y-5.496
X-0.887 Y-5.608
X-0.945 Y-5.73
X-0.987 Y-5.813
X-1.034 Y-5.893
X-1.179 Y-6.125
X-1.233 Y-6.206
X-1.292 Y-6.283
X-1.467 Y-6.499
X-1.549 Y-6.593
X-1.744 Y-6.799
X-1.787 Y-6.842
X-1.993 Y-7.042
G2 X-2.286 Y-7.268 I-1.109 J1.136
G1 X-2.469 Y-7.378
X-2.48 Y-7.385
X-2.655 Y-7.487
X-2.698 Y-7.512
X-3.032 Y-7.694
X-3.138 Y-7.747
X-3.47 Y-7.898
X-3.583 Y-7.944
X-3.756 Y-8.007
X-3.843 Y-8.036
X-4.023 Y-8.09
X-4.113 Y-8.114
X-4.301 Y-8.158
X-4.382 Y-8.175
X-4.573 Y-8.21
X-4.671 Y-8.225
X-5.06 Y-8.271
X-5.151 Y-8.28
X-5.547 Y-8.303
X-5.591 Y-8.306
X-5.99 Y-8.318
X-6.124 Y-8.317
X-6.523 Y-8.296
X-6.571 Y-8.293
X-6.966 Y-8.261
X-7.063 Y-8.25
X-7.45 Y-8.193
X-7.555 Y-8.175
X-7.745 Y-8.134
X-7.831 Y-8.113
X-8.017 Y-8.062
X-8.112 Y-8.033
X-8.291 Y-7.972
X-8.381 Y-7.938
X-8.554 Y-7.867
X-8.665 Y-7.816
X-9 Y-7.648
X-9.102 Y-7.592
X-9.435 Y-7.392
X-9.482 Y-7.363
X-9.831 Y-7.136
G2 X-10.158 Y-6.854 I0.864 J1.332
G1 X-10.308 Y-6.685
X-10.316 Y-6.675
X-10.457 Y-6.513
X-10.488 Y-6.476
X-10.745 Y-6.161
X-10.815 Y-6.069
X-11.039 Y-5.749
X-11.104 Y-5.649
X-11.204 Y-5.48
X-11.249 Y-5.4
X-11.341 Y-5.222
X-11.382 Y-5.138
X-11.465 Y-4.952
X-11.497 Y-4.875
X-11.571 Y-4.683
X-11.597 Y-4.609
X-12.426 Y-4.689
X-12.355 Y-4.924
X-12.265 Y-5.178
X-12.164 Y-5.414
X-12.053 Y-5.635
X-11.926 Y-5.85
X-11.781 Y-6.068
X-11.615 Y-6.292
X-11.427 Y-6.528
X-11.215 Y-6.777
X-10.981 Y-7.044
X-10.871 Y-7.167
X-10.704 Y-7.273
X-10.378 Y-7.476
X-10.076 Y-7.657
X-9.794 Y-7.815
X-9.526 Y-7.953
X-9.267 Y-8.07
X-9.009 Y-8.171
X-8.743 Y-8.257
X-8.46 Y-8.329
X-8.161 Y-8.389
X-7.844 Y-8.437
X-7.518 Y-8.473
X-6.788 Y-8.525
X-6.078 Y-8.554
X-5.052 Y-8.518
X-4.571 Y-8.48
X-4.099 Y-8.419
X-3.893 Y-8.382
X-3.69 Y-8.339
X-3.24 Y-8.223
X-2.761 Y-8.078
X-2.505 Y-7.996
X-2.336 Y-7.94
X-2.06 Y-7.802
X-1.725 Y-7.622
X-1.427 Y-7.439
X-1.319 Y-7.364
X-1.212 Y-7.281
X-1.112 Y-7.194
X-1.02 Y-7.106
X-0.791 Y-6.854
X-0.554 Y-6.562
X-0.365 Y-6.315
X-0.228 Y-6.064
X-0.062 Y-5.739
X0.067 Y-5.449
X0.166 Y-5.17
X0.195 Y-5.062
X0.222 Y-4.939
X0.274 Y-4.612
X0.311 Y-4.251
X0.336 Y-3.937
X0.322 Y-3.633
X0.297 Y-3.273
X0.259 Y-2.958
X0.205 Y-2.684
X0.131 Y-2.431
X0.026 Y-2.161
X-0.117 Y-1.847
X-0.238 Y-1.598
X-0.372 Y-1.413
X-0.567 Y-1.159
X-0.732 Y-0.965
G3 X-1.18 Y-0.929 I-0.242 J-0.206 F640
G1 X-1.421 Y-1.135
X-1.475 Y-1.181 Z-4.992
X-1.526 Y-1.225 Z-4.969
X-1.572 Y-1.264 Z-4.931
X-1.61 Y-1.296 Z-4.88
X-1.639 Y-1.321 Z-4.82
X-1.657 Y-1.336 Z-4.753
X-1.663 Y-1.341 Z-4.683
Z5 F800
X-1.348 Y-1.694
Z-4.365 F320
Z-9.683
X-1.343 Y-1.689 Z-9.753 F640
X-1.326 Y-1.672 Z-9.82
X-1.299 Y-1.645 Z-9.88
X-1.264 Y-1.61 Z-9.931
X-1.221 Y-1.568 Z-9.969
X-1.173 Y-1.52 Z-9.992
X-1.123 Y-1.471 Z-10
X-0.898 Y-1.247
G3 X-0.897 Y-0.798 I-0.224 J0.225
G1 X-0.912 Y-0.782 F800
X-1.099 Y-0.626
X-1.318 Y-0.469
X-1.825 Y-0.152
X-2.001 Y-0.075
X-2.261 Y0.037
X-2.744 Y0.24
X-3.206 Y0.419
X-3.429 Y0.499
X-3.663 Y0.577
X-4.178 Y0.734
X-4.702 Y0.877
X-5.811 Y1.152
X-6.814 Y1.385
X-6.872 Y1.399
X-7.371 Y1.535
X-7.44 Y1.556
X-7.93 Y1.714
X-7.994 Y1.736
X-8.223 Y1.82
X-8.269 Y1.838
X-8.485 Y1.925
X-8.548 Y1.952
X-8.957 Y2.139
X-9.021 Y2.17
X-9.43 Y2.379
X-9.458 Y2.393
X-9.673 Y2.509
X-9.68 Y2.513
X-9.909 Y2.637
G2 X-10.297 Y2.932 I0.757 J1.395
G1 X-10.543 Y3.189
X-10.646 Y3.307
X-10.753 Y3.444
X-10.812 Y3.523
X-10.865 Y3.606
X-10.953 Y3.751
X-11.013 Y3.86
X-11.064 Y3.973
X-11.128 Y4.129
X-11.164 Y4.227
X-11.193 Y4.328
X-11.236 Y4.492
X-11.265 Y4.626
X-11.294 Y4.799
X-11.304 Y4.864
X-11.327 Y5.046
G2 X-11.324 Y5.467 I1.575 J0.2
G1 X-11.272 Y5.84
X-11.257 Y5.93
X-11.236 Y6.019
X-11.191 Y6.195
X-11.157 Y6.305
X-11.116 Y6.413
X-11.047 Y6.577
G2 X-10.916 Y6.823 I1.462 J-0.618
G1 X-10.82 Y6.972
X-10.758 Y7.06
X-10.691 Y7.143
X-10.575 Y7.278
X-10.52 Y7.339
X-10.461 Y7.397
X-10.199 Y7.644
G2 X-9.862 Y7.887 I1.088 J-1.156
G1 X-9.522 Y8.069
X-9.478 Y8.092
X-9.159 Y8.25
X-9.063 Y8.294
X-8.747 Y8.426
X-8.605 Y8.477
X-8.272 Y8.58
X-8.193 Y8.602
X-8.114 Y8.62
X-7.761 Y8.69
X-7.633 Y8.71
X-7.272 Y8.752
X-7.168 Y8.761
X-6.433 Y8.797
X-6.29
X-5.602 Y8.769
X-5.493 Y8.761
X-5.156 Y8.723
X-5.024 Y8.703
X-4.695 Y8.638
X-4.611 Y8.62
X-4.529 Y8.596
X-4.221 Y8.501
X-4.145 Y8.475
X-4.07 Y8.445
X-3.78 Y8.321
X-3.677 Y8.273
X-3.385 Y8.123
X-3.337 Y8.097
X-3.023 Y7.922
G2 X-2.628 Y7.609 I-0.774 J-1.386
G1 X-2.399 Y7.36
X-2.36 Y7.316
X-2.158 Y7.079
X-2.081 Y6.981
X-1.906 Y6.74
X-1.834 Y6.633
X-1.756 Y6.505
X-1.708 Y6.419
X-1.636 Y6.283
X-1.575 Y6.153
X-1.495 Y5.96
X-0.519 Y6.003
X-0.549 Y6.098
X-0.619 Y6.271
X-0.701 Y6.436
X-0.799 Y6.604
X-0.917 Y6.779
X-1.057 Y6.965
X-1.217 Y7.162
X-1.396 Y7.368
X-1.672 Y7.672
X-1.83 Y7.77
X-2.147 Y7.964
X-2.439 Y8.135
X-2.711 Y8.284
X-2.967 Y8.413
X-3.215 Y8.522
X-3.463 Y8.616
X-3.72 Y8.696
X-3.995 Y8.764
X-4.285 Y8.819
X-4.593 Y8.863
X-4.909 Y8.896
X-5.619 Y8.941
X-6.31 Y8.965
X-7.228 Y8.928
X-7.654 Y8.892
X-8.057 Y8.837
X-8.439 Y8.758
X-8.828 Y8.652
X-9.258 Y8.517
X-9.487 Y8.44
X-9.636 Y8.39
X-9.888 Y8.263
X-10.194 Y8.1
X-10.449 Y7.945
X-10.672 Y7.783
X-10.748 Y7.719
X-10.828 Y7.644
X-11.035 Y7.423
X-11.252 Y7.163
X-11.421 Y6.948
X-11.536 Y6.744
X-11.682 Y6.463
X-11.794 Y6.218
X-11.871 Y6.004
X-11.926 Y5.785
X-11.968 Y5.524
X-12.002 Y5.212
X-12.018 Y4.999
X-11.973 Y4.594
X-11.899 Y4.1
X-11.859 Y3.908
X-11.811 Y3.726
X-11.758 Y3.565
X-11.699 Y3.422
X-11.628 Y3.282
X-11.538 Y3.134
X-11.428 Y2.975
X-11.305 Y2.814
X-10.978 Y2.431
X-10.732 Y2.164
X-10.61 Y2.082
X-10.353 Y1.913
X-10.117 Y1.762
X-9.906 Y1.632
X-9.463 Y1.385
X-9.261 Y1.285
X-9.035 Y1.185
X-8.794 Y1.087
X-8.55 Y0.999
X-8.002 Y0.824
X-7.427 Y0.665
X-6.822 Y0.509
X-5.122 Y0.079
X-5.096 Y0.072
X-4.895 Y0.017
X-4.887 Y0.015
X-4.696 Y-0.038
X-4.685 Y-0.041
X-4.319 Y-0.146
X-4.306 Y-0.15
X-3.936 Y-0.259
X-3.931 Y-0.26
X-3.735 Y-0.319
X-3.734
X-3.526 Y-0.382
X-3.408 Y-0.422
X-3.001 Y-0.579
X-2.923 Y-0.612
X-2.725 Y-0.701
X-2.633 Y-0.746
X-2.443 Y-0.847
X-2.329 Y-0.914
X-2.156 Y-1.025
X-2.053 Y-1.097
X-1.894 Y-1.218
X-1.824 Y-1.275
X-1.666 Y-1.409
X-1.633 Y-1.438
X-1.465 Y-1.59
G2 X-1.199 Y-1.901 I-1.064 J-1.179
G1 X-1.017 Y-2.179
X-0.948 Y-2.296
X-0.873 Y-2.436
X-0.836 Y-2.509
X-0.803 Y-2.584
X-0.743 Y-2.731
X-0.709 Y-2.822
X-0.68 Y-2.915
X-0.638 Y-3.069
X-0.604 Y-3.221
X-0.577 Y-3.381
X-0.561 Y-3.506
X-0.531 Y-3.834
G2 X-0.54 Y-4.195 I-1.581 J-0.142
G1 X-0.581 Y-4.489
X-0.591 Y-4.555
X-0.642 Y-4.83
X-0.673 Y-4.968
X-0.745 Y-5.227
X-0.792 Y-5.372
X-0.84 Y-5.496
X-0.887 Y-5.608
X-0.945 Y-5.73
X-0.987 Y-5.813
X-1.034 Y-5.893
X-1.179 Y-6.125
X-1.233 Y-6.206
X-1.292 Y-6.283
X-1.467 Y-6.499
X-1.549 Y-6.593
X-1.744 Y-6.799
X-1.787 Y-6.842
X-1.993 Y-7.042
G2 X-2.286 Y-7.268 I-1.109 J1.136
G1 X-2.469 Y-7.378
X-2.48 Y-7.385
X-2.655 Y-7.487
X-2.698 Y-7.512
X-3.032 Y-7.694
X-3.138 Y-7.747
X-3.47 Y-7.898
X-3.583 Y-7.944
X-3.756 Y-8.007
X-3.843 Y-8.036
X-4.023 Y-8.09
X-4.113 Y-8.114
X-4.301 Y-8.158
X-4.382 Y-8.175
X-4.573 Y-8.21
X-4.671 Y-8.225
X-5.06 Y-8.271
X-5.151 Y-8.28
X-5.547 Y-8.303
X-5.591 Y-8.306
X-5.99 Y-8.318
X-6.124 Y-8.317
X-6.523 Y-8.296
X-6.571 Y-8.293
X-6.966 Y-8.261
X-7.063 Y-8.25
X-7.45 Y-8.193
X-7.555 Y-8.175
X-7.745 Y-8.134
X-7.831 Y-8.113
X-8.017 Y-8.062
X-8.112 Y-8.033
X-8.291 Y-7.972
X-8.381 Y-7.938
X-8.554 Y-7.867
X-8.665 Y-7.816
X-9 Y-7.648
X-9.102 Y-7.592
X-9.435 Y-7.392
X-9.482 Y-7.363
X-9.831 Y-7.136
G2 X-10.158 Y-6.854 I0.864 J1.332
G1 X-10.308 Y-6.685
X-10.316 Y-6.675
X-10.457 Y-6.513
X-10.488 Y-6.476
X-10.745 Y-6.161
X-10.815 Y-6.069
X-11.039 Y-5.749
X-11.104 Y-5.649
X-11.204 Y-5.48
X-11.249 Y-5.4
X-11.341 Y-5.222
X-11.382 Y-5.138
X-11.465 Y-4.952
X-11.497 Y-4.875
X-11.571 Y-4.683
X-11.597 Y-4.609
X-12.426 Y-4.689
X-12.355 Y-4.924
X-12.265 Y-5.178
X-12.164 Y-5.414
X-12.053 Y-5.635
X-11.926 Y-5.85
X-11.781 Y-6.068
X-11.615 Y-6.292
X-11.427 Y-6.528
X-11.215 Y-6.777
X-10.981 Y-7.044
X-10.871 Y-7.167
X-10.704 Y-7.273
X-10.378 Y-7.476
X-10.076 Y-7.657
X-9.794 Y-7.815
X-9.526 Y-7.953
X-9.267 Y-8.07
X-9.009 Y-8.171
X-8.743 Y-8.257
X-8.46 Y-8.329
X-8.161 Y-8.389
X-7.844 Y-8.437
X-7.518 Y-8.473
X-6.788 Y-8.525
X-6.078 Y-8.554
X-5.052 Y-8.518
X-4.571 Y-8.48
X-4.099 Y-8.419
X-3.893 Y-8.382
X-3.69 Y-8.339
X-3.24 Y-8.223
X-2.761 Y-8.078
X-2.505 Y-7.996
X-2.336 Y-7.94
X-2.06 Y-7.802
X-1.725 Y-7.622
X-1.427 Y-7.439
X-1.319 Y-7.364
X-1.212 Y-7.281
X-1.112 Y-7.194
X-1.02 Y-7.106
X-0.791 Y-6.854
X-0.554 Y-6.562
X-0.365 Y-6.315
X-0.228 Y-6.064
X-0.062 Y-5.739
X0.067 Y-5.449
X0.166 Y-5.17
X0.195 Y-5.062
X0.222 Y-4.939
X0.274 Y-4.612
X0.311 Y-4.251
X0.336 Y-3.937
X0.322 Y-3.633
X0.297 Y-3.273
X0.259 Y-2.958
X0.205 Y-2.684
X0.131 Y-2.431
X0.026 Y-2.161
X-0.117 Y-1.847
X-0.238 Y-1.598
X-0.372 Y-1.413
X-0.567 Y-1.159
X-0.744 Y-0.951
X-0.897 Y-0.798
G3 X-1.346 Y-0.796 I-0.225 J-0.224 F640
G1 X-1.571 Y-1.02
X-1.621 Y-1.07 Z-9.992
X-1.669 Y-1.117 Z-9.969
X-1.711 Y-1.16 Z-9.931
X-1.747 Y-1.195 Z-9.88
X-1.774 Y-1.222 Z-9.82
X-1.79 Y-1.238 Z-9.753
X-1.796 Y-1.244 Z-9.683
Z5 F800
X11.477 Y7.755
Z0.635 F320
Z-4.683
X11.484 Y7.752 Z-4.753 F640
X11.505 Y7.741 Z-4.82
X11.538 Y7.723 Z-4.88
X11.582 Y7.699 Z-4.931
X11.635 Y7.67 Z-4.969
X11.694 Y7.638 Z-4.992
X11.756 Y7.605 Z-5
X12.036 Y7.454
G3 X12.466 Y7.583 I0.151 J0.279
G2 X13.863 Y8.416 I1.397 J-0.754 F800
G1 X18.197
Y8.625
X5.478
Y8.416
X9.825
G2 X11.412 Y6.829 I0 J-1.588
G1 Y-8.2
X12.276
Y6.829
G2 X12.466 Y7.583 I1.588 J0
G3 X12.337 Y8.013 I-0.279 J0.151 F640
G1 X12.058 Y8.164
X11.996 Y8.197 Z-4.992
X11.937 Y8.229 Z-4.969
X11.884 Y8.258 Z-4.931
X11.839 Y8.281 Z-4.88
X11.806 Y8.299 Z-4.82
X11.785 Y8.311 Z-4.753
X11.778 Y8.314 Z-4.683
Z5 F800
X11.477 Y7.755
Z-4.365 F320
Z-9.683
X11.484 Y7.752 Z-9.753 F640
X11.505 Y7.741 Z-9.82
X11.538 Y7.723 Z-9.88
X11.582 Y7.699 Z-9.931
X11.635 Y7.67 Z-9.969
X11.694 Y7.638 Z-9.992
X11.756 Y7.605 Z-10
X12.036 Y7.454
G3 X12.466 Y7.583 I0.151 J0.279
G2 X13.863 Y8.416 I1.397 J-0.754 F800
G1 X18.197
Y8.625
X5.478
Y8.416
X9.825
G2 X11.412 Y6.829 I0 J-1.588
G1 Y-8.2
X12.276
Y6.829
G2 X12.466 Y7.583 I1.588 J0
G3 X12.337 Y8.013 I-0.279 J0.151 F640
G1 X12.058 Y8.164
X11.996 Y8.197 Z-9.992
X11.937 Y8.229 Z-9.969
X11.884 Y8.258 Z-9.931
X11.839 Y8.281 Z-9.88
X11.806 Y8.299 Z-9.82
X11.785 Y8.311 Z-9.753
X11.778 Y8.314 Z-9.683
Z5 F800
X-17.972 Y15.04
Z0.635 F320
Z-4.683
G19 G2 Y14.722 Z-5 J-0.318 K0 F640
G1 Y14.405
G17 G3 X-17.655 Y14.087 I0.318 J0
G1 X17.655 F800
G2 X24.242 Y7.5 I0 J-6.587
G1 Y-7.5
G2 X17.655 Y-14.087 I-6.587 J0
G1 X-17.655
G2 X-24.242 Y-7.5 I0 J6.587
G1 Y7.5
G2 X-17.655 Y14.087 I6.587 J0
G3 X-17.337 Y14.405 I0 J0.318 F640
G1 Y14.722
G19 G3 Y15.04 Z-4.683 J0 K0.318
G1 Z5 F800
X-17.972
Z-4.365 F320
Z-9.683
G2 Y14.722 Z-10 J-0.318 K0 F640
G1 Y14.405
G17 G3 X-17.655 Y14.087 I0.318 J0
G1 X17.655 F800
G2 X24.242 Y7.5 I0 J-6.587
G1 Y-7.5
G2 X17.655 Y-14.087 I-6.587 J0
G1 X-17.655
G2 X-24.242 Y-7.5 I0 J6.587
G1 Y7.5
G2 X-17.655 Y14.087 I6.587 J0
G3 X-17.337 Y14.405 I0 J0.318 F640
G1 Y14.722
G19 G3 Y15.04 Z-9.683 J0 K0.318
G1 Z5 F800
X-17.695 Y7.182
Z0.635 F320
Z-4.683
G18 G2 X-17.377 Z-5 I0.318 K0 F640
G1 X-17.06
G17 G3 X-16.742 Y7.5 I0 J0.318
X-18.567 Y7.5 I-0.913 J0 F800
X-16.742 Y7.5 I0.913 J0
X-17.06 Y7.818 I-0.318 J0 F640
G1 X-17.377
G18 G3 X-17.695 Z-4.683 I0 K0.318
G1 Z5 F800
Y7.182
Z-4.365 F320
Z-9.683
G2 X-17.377 Z-10 I0.318 K0 F640
G1 X-17.06
G17 G3 X-16.742 Y7.5 I0 J0.318
X-18.567 Y7.5 I-0.913 J0 F800
X-16.742 Y7.5 I0.913 J0
X-17.06 Y7.818 I-0.318 J0 F640
G1 X-17.377
G18 G3 X-17.695 Z-9.683 I0 K0.318
G1 Z15 F800
G17
G28 G91 Z0
G90
G28 G91 X0 Y0
G90
M5
M30
