(G-CODE GENERATED BY FLATCAM v8.991 - www.flatcam.org - Version Date: 2019/12/27)

(Name: drill_1_16.xln_cnc)
(Type: G-code from Excellon)
(Units: MM)

(Created on Friday, 19 July 2024 at 16:45)

(Feedrate: 100.0 mm/min)
(Feedrate rapids 1500.0 mm/min)

(Z_Cut: -2.0 mm)
(Z_Move: 2.0 mm)
(Z Toolchange: 15.0 mm)
(X,Y Toolchange: 0.0000, 0.0000 mm)
(Z Start: None mm)
(Z End: 0.5 mm)
(Steps per circle: 64)
(Preprocessor Excellon: default)

(X range:    4.1430 ...    5.0570  mm)
(Y range:    5.3930 ...   24.0870  mm)

(Spindle Speed: 9000.0 RPM)
G21
G90
G94




G01 F100.00
G00 Z2.0000

M03 S9000.0
G00 X4.6000 Y5.8500
G01 Z-2.0000
G01 Z0
G00 Z2.0000
G00 X4.6000 Y8.3900
G01 Z-2.0000
G01 Z0
G00 Z2.0000
G00 X4.6000 Y10.9300
G01 Z-2.0000
G01 Z0
G00 Z2.0000
G00 X4.6000 Y13.4700
G01 Z-2.0000
G01 Z0
G00 Z2.0000
G00 X4.6000 Y16.0100
G01 Z-2.0000
G01 Z0
G00 Z2.0000
G00 X4.6000 Y18.5500
G01 Z-2.0000
G01 Z0
G00 Z2.0000
G00 X4.6000 Y21.0900
G01 Z-2.0000
G01 Z0
G00 Z2.0000
G00 X4.6000 Y23.6300
G01 Z-2.0000
G01 Z0
G00 Z2.0000
M05
G00 Z0.50
G00 X0.0 Y0.0

