(G-CODE GENERATED BY FLATCAM v8.991 - www.flatcam.org - Version Date: 2019/12/27)

(Name: NCC-0.5mm)
(Type: G-code from Geometry)
(Units: MM)

(Created on Friday, 16 August 2024 at 21:54)

(TOOL DIAMETER: 0.5 mm)
(Feedrate: 50.0 mm/min)
(Feedrate_Z: 60.0 mm/min)
(Feedrate rapids 1500.0 mm/min)

(Z_Cut: -0.15 mm)
(Z_Move: 2.0 mm)
(Z Toolchange: 15.0 mm)
(X,Y Toolchange: 0.0000, 0.0000 mm)
(Z Start: None mm)
(Z End: 15.0 mm)
(Steps per circle: 64)
(Preprocessor Geometry: default)

(X range:    2.5025 ...   23.9500  mm)
(Y range:    4.5500 ...   18.7500  mm)

(Spindle Speed: 9000 RPM)
G21
G90
G94




G01 F50.00
G00 Z2.0000

M03 S9000
G00 X2.5025 Y4.9500
G01 F60.00
G01 Z-0.1500
G01 F50.00
G01 X3.5525 Y4.9500
G00 Z2.0000
G00 X3.1377 Y5.2500
G01 F60.00
G01 Z-0.1500
G01 F50.00
G01 X2.5025 Y5.2500
G01 X2.5025 Y5.5500
G01 X2.9758 Y5.5500
G00 Z2.0000
G00 X2.9272 Y5.8500
G01 F60.00
G01 Z-0.1500
G01 F50.00
G01 X2.5025 Y5.8500
G01 X2.5025 Y6.1500
G01 X2.9758 Y6.1500
G00 Z2.0000
G00 X3.1377 Y6.4500
G01 F60.00
G01 Z-0.1500
G01 F50.00
G01 X2.5025 Y6.4500
G01 X3.1377 Y6.4500
G01 X3.0964 Y6.3942
G01 X3.0888 Y6.3835
G01 X3.0468 Y6.3140
G01 X3.0380 Y6.2979
G01 X3.0054 Y6.2292
G01 X3.0002 Y6.2175
G01 X2.9960 Y6.2065
G01 X2.9687 Y6.1294
G01 X2.9654 Y6.1173
G01 X2.9484 Y6.0496
G01 X2.9456 Y6.0372
G01 X2.9436 Y6.0255
G01 X2.9319 Y5.9446
G01 X2.9310 Y5.9320
G01 X2.9275 Y5.8623
G01 X2.9272 Y5.8500
G01 X2.9275 Y5.8377
G01 X2.9310 Y5.7680
G01 X2.9319 Y5.7554
G01 X2.9436 Y5.6745
G01 X2.9469 Y5.6566
G01 X2.9654 Y5.5827
G01 X2.9687 Y5.5706
G01 X2.9960 Y5.4935
G01 X3.0002 Y5.4825
G01 X3.0054 Y5.4708
G01 X3.0353 Y5.4077
G01 X3.0409 Y5.3965
G01 X3.0827 Y5.3262
G01 X3.0888 Y5.3165
G01 X3.0964 Y5.3058
G01 X3.1380 Y5.2497
G01 X3.1463 Y5.2390
G01 X3.1535 Y5.2307
G01 X3.2004 Y5.1790
G01 X3.2089 Y5.1701
G01 X3.2178 Y5.1616
G01 X3.2695 Y5.1147
G01 X3.2790 Y5.1065
G01 X3.3446 Y5.0576
G01 X3.3590 Y5.0476
G01 X3.4248 Y5.0080
G01 X3.4357 Y5.0019
G01 X3.4465 Y4.9965
G01 X3.5096 Y4.9666
G01 X3.5213 Y4.9614
G01 X3.5980 Y4.9337
G01 X3.6100 Y4.9298
G01 X3.6215 Y4.9266
G01 X3.7003 Y4.9071
G01 X3.7133 Y4.9048
G01 X3.7824 Y4.8946
G01 X3.7942 Y4.8931
G01 X3.8068 Y4.8922
G01 X3.8765 Y4.8887
G01 X3.8888 Y4.8884
G01 X5.3112 Y4.8884
G01 X5.3235 Y4.8887
G01 X5.3932 Y4.8922
G01 X5.4058 Y4.8931
G01 X5.4176 Y4.8946
G01 X5.4867 Y4.9048
G01 X5.4995 Y4.9071
G01 X5.5785 Y4.9266
G01 X5.5963 Y4.9318
G01 X5.6677 Y4.9572
G01 X5.6787 Y4.9614
G01 X5.6904 Y4.9666
G01 X5.7638 Y5.0016
G01 X5.7752 Y5.0080
G01 X5.8350 Y5.0439
G01 X5.8509 Y5.0543
G01 X5.9115 Y5.0992
G01 X5.9215 Y5.1070
G01 X5.9822 Y5.1616
G01 X5.9911 Y5.1701
G01 X5.9996 Y5.1790
G01 X6.0504 Y5.2351
G01 X6.0620 Y5.2497
G01 X6.1036 Y5.3058
G01 X6.1138 Y5.3205
G01 X6.1564 Y5.3917
G01 X6.1647 Y5.4077
G01 X6.1836 Y5.4475
G01 X6.7500 Y5.4475
G01 X6.7500 Y4.7025
G01 X2.5667 Y4.7025
G01 X2.5025 Y4.7667
G01 X2.5025 Y6.4500
G00 Z2.0000
G00 X5.6475 Y4.9500
G01 F60.00
G01 Z-0.1500
G01 F50.00
G01 X6.7500 Y4.9500
G01 X6.7500 Y5.2500
G01 X6.0623 Y5.2500
G00 Z2.0000
G00 X6.0623 Y6.4500
G01 F60.00
G01 Z-0.1500
G01 F50.00
G01 X6.7500 Y6.4500
G01 X6.7500 Y6.2525
G01 X6.1836 Y6.2525
G01 X6.1596 Y6.3026
G01 X6.1532 Y6.3140
G01 X6.1173 Y6.3738
G01 X6.1069 Y6.3897
G01 X6.0623 Y6.4500
G01 X6.7500 Y6.4500
G00 Z2.0000
G00 X10.9500 Y13.5975
G01 F60.00
G01 Z-0.1500
G01 F50.00
G01 X22.9333 Y13.5975
G01 X23.2333 Y13.2975
G01 X22.4708 Y13.2975
G00 Z2.0000
G00 X22.7717 Y12.9975
G01 F60.00
G01 Z-0.1500
G01 F50.00
G01 X23.5125 Y12.9975
G01 X23.5125 Y12.6975
G01 X23.0213 Y12.6975
G00 Z2.0000
G00 X23.0475 Y12.3975
G01 F60.00
G01 Z-0.1500
G01 F50.00
G01 X23.5125 Y12.3975
G01 X23.5114 Y12.0975
G01 X23.0486 Y12.0975
G00 Z2.0000
G00 X23.1950 Y11.7975
G01 F60.00
G01 Z-0.1500
G01 F50.00
G01 X23.3650 Y11.7975
G01 X23.3650 Y11.4975
G01 X23.1950 Y11.4975
G01 X23.1950 Y11.1975
G01 X23.3650 Y11.1975
G01 X23.3650 Y10.8975
G01 X23.1950 Y10.8975
G01 X23.1950 Y10.5975
G01 X23.3650 Y10.5975
G01 X23.3650 Y10.2975
G01 X23.1950 Y10.2975
G01 X23.1950 Y9.9975
G01 X23.3650 Y9.9975
G01 X23.3650 Y9.6975
G01 X23.1950 Y9.6975
G00 Z2.0000
G00 X23.1643 Y9.5500
G01 F60.00
G01 Z-0.1500
G01 F50.00
G01 X23.1704 Y9.5618
G01 X23.1773 Y9.5775
G01 X23.1832 Y9.5942
G01 X23.1867 Y9.6062
G01 X23.1905 Y9.6228
G01 X23.1933 Y9.6407
G01 X23.1945 Y9.6542
G01 X23.1950 Y9.6700
G01 X23.1948 Y11.8791
G01 X23.1940 Y11.8926
G01 X23.1915 Y11.9116
G01 X23.1881 Y11.9283
G01 X23.1832 Y11.9458
G01 X23.1773 Y11.9625
G01 X23.1704 Y11.9782
G01 X23.1609 Y11.9960
G01 X23.1508 Y12.0119
G01 X23.1400 Y12.0265
G01 X23.1284 Y12.0399
G01 X23.1194 Y12.0491
G01 X23.1054 Y12.0617
G01 X23.0907 Y12.0731
G01 X23.0803 Y12.0802
G01 X23.0642 Y12.0897
G01 X23.0475 Y12.0980
G01 X23.0474 Y12.5611
G01 X23.0464 Y12.5822
G01 X23.0453 Y12.5971
G01 X23.0418 Y12.6214
G01 X23.0383 Y12.6404
G01 X23.0302 Y12.6715
G01 X23.0213 Y12.6976
G01 X23.0175 Y12.7075
G01 X23.0119 Y12.7202
G01 X22.9993 Y12.7459
G01 X22.9837 Y12.7723
G01 X22.9726 Y12.7886
G01 X22.9554 Y12.8111
G01 X22.9339 Y12.8352
G01 X22.4846 Y13.2846
G01 X22.4646 Y13.3031
G01 X22.4513 Y13.3144
G01 X22.4291 Y13.3309
G01 X22.4189 Y13.3377
G01 X22.3939 Y13.3527
G01 X22.3788 Y13.3605
G01 X22.3552 Y13.3714
G01 X22.3426 Y13.3763
G01 X22.3219 Y13.3835
G01 X22.3102 Y13.3871
G01 X22.2905 Y13.3921
G01 X22.2796 Y13.3945
G01 X22.2664 Y13.3968
G01 X22.2380 Y13.4007
G01 X22.2123 Y13.4022
G01 X22.2000 Y13.4025
G01 X10.9500 Y13.4025
G01 X10.9500 Y13.5975
G01 X22.9333 Y13.5975
G01 X23.5125 Y13.0183
G01 X23.5125 Y12.0980
G01 X23.4958 Y12.0897
G01 X23.4797 Y12.0802
G01 X23.4693 Y12.0731
G01 X23.4546 Y12.0617
G01 X23.4406 Y12.0491
G01 X23.4316 Y12.0399
G01 X23.4200 Y12.0265
G01 X23.4092 Y12.0119
G01 X23.3991 Y11.9960
G01 X23.3896 Y11.9782
G01 X23.3827 Y11.9625
G01 X23.3768 Y11.9458
G01 X23.3719 Y11.9283
G01 X23.3685 Y11.9116
G01 X23.3660 Y11.8926
G01 X23.3652 Y11.8791
G01 X23.3650 Y9.6700
G01 X23.3655 Y9.6542
G01 X23.3667 Y9.6407
G01 X23.3695 Y9.6228
G01 X23.3733 Y9.6062
G01 X23.3768 Y9.5942
G01 X23.3827 Y9.5775
G01 X23.3896 Y9.5618
G01 X23.3957 Y9.5500
G01 X23.1643 Y9.5500
G00 Z2.0000
G00 X21.9250 Y9.6975
G01 F60.00
G01 Z-0.1500
G01 F50.00
G01 X22.0950 Y9.6975
G01 X22.0950 Y9.9975
G01 X21.9250 Y9.9975
G01 X21.9250 Y10.2975
G01 X22.0950 Y10.2975
G01 X22.0950 Y10.5975
G01 X21.9250 Y10.5975
G01 X21.9250 Y10.8975
G01 X22.0950 Y10.8975
G01 X22.0950 Y11.1975
G01 X21.9250 Y11.1975
G01 X21.9250 Y11.4975
G01 X22.0950 Y11.4975
G01 X22.0950 Y11.7975
G01 X21.9250 Y11.7975
G00 Z2.0000
G00 X21.7786 Y12.0975
G01 F60.00
G01 Z-0.1500
G01 F50.00
G01 X22.2414 Y12.0975
G01 X22.2333 Y12.3975
G01 X20.0500 Y12.3975
G01 X20.5086 Y12.0975
G01 X20.9714 Y12.0975
G00 Z2.0000
G00 X20.8250 Y11.7975
G01 F60.00
G01 Z-0.1500
G01 F50.00
G01 X20.6550 Y11.7975
G01 X20.6550 Y11.4975
G01 X20.8250 Y11.4975
G01 X20.8250 Y11.1975
G01 X20.6550 Y11.1975
G01 X20.6550 Y10.8975
G01 X20.8250 Y10.8975
G01 X20.8250 Y10.5975
G01 X20.6550 Y10.5975
G01 X20.6550 Y10.2975
G01 X20.8250 Y10.2975
G01 X20.8250 Y9.9975
G01 X20.6550 Y9.9975
G01 X20.6550 Y9.6975
G01 X20.8250 Y9.6975
G00 Z2.0000
G00 X20.8943 Y9.3975
G01 F60.00
G01 Z-0.1500
G01 F50.00
G01 X20.5075 Y9.3975
G01 X20.5943 Y9.0975
G01 X20.4010 Y9.0975
G01 X20.2944 Y8.7975
G01 X20.1017 Y8.7975
G01 X19.9944 Y8.4975
G01 X19.8017 Y8.4975
G01 X19.6944 Y8.1975
G01 X19.5017 Y8.1975
G01 X19.3944 Y7.8975
G01 X19.2017 Y7.8975
G01 X19.0944 Y7.5975
G01 X18.9017 Y7.5975
G01 X18.7944 Y7.2975
G01 X18.6017 Y7.2975
G01 X18.4944 Y6.9975
G01 X18.3017 Y6.9975
G01 X18.1944 Y6.6975
G01 X18.0017 Y6.6975
G01 X17.8944 Y6.3975
G01 X17.7017 Y6.3975
G01 X17.5944 Y6.0975
G01 X17.4017 Y6.0975
G01 X17.2944 Y5.7975
G01 X17.1017 Y5.7975
G01 X16.9944 Y5.4975
G01 X16.7792 Y5.4975
G01 X16.6944 Y5.1975
G01 X16.0500 Y5.1975
G01 X16.1994 Y4.7025
G01 X20.9502 Y9.4534
G01 X20.9344 Y9.4633
G01 X20.9243 Y9.4705
G01 X20.9098 Y9.4823
G01 X20.9006 Y9.4909
G01 X20.8916 Y9.5001
G01 X20.8800 Y9.5135
G01 X20.8692 Y9.5281
G01 X20.8623 Y9.5386
G01 X20.8558 Y9.5499
G01 X20.8472 Y9.5670
G01 X20.8407 Y9.5828
G01 X20.8368 Y9.5942
G01 X20.8333 Y9.6062
G01 X20.8295 Y9.6228
G01 X20.8267 Y9.6407
G01 X20.8255 Y9.6542
G01 X20.8250 Y9.6700
G01 X20.8250 Y11.8700
G01 X20.8255 Y11.8858
G01 X20.8276 Y11.9060
G01 X20.8306 Y11.9228
G01 X20.8350 Y11.9399
G01 X20.8407 Y11.9572
G01 X20.8472 Y11.9730
G01 X20.8558 Y11.9901
G01 X20.8657 Y12.0067
G01 X20.8764 Y12.0218
G01 X20.8877 Y12.0355
G01 X20.9006 Y12.0491
G01 X20.9146 Y12.0617
G01 X20.9293 Y12.0731
G01 X20.9397 Y12.0802
G01 X20.9558 Y12.0897
G01 X20.9723 Y12.0979
G01 X20.9835 Y12.1027
G01 X20.9946 Y12.1067
G01 X21.0055 Y12.1101
G01 X21.0219 Y12.1143
G01 X21.0329 Y12.1164
G01 X21.0442 Y12.1181
G01 X21.0558 Y12.1193
G01 X21.0683 Y12.1199
G01 X21.6750 Y12.1200
G01 X21.6884 Y12.1196
G01 X21.7058 Y12.1181
G01 X21.7226 Y12.1154
G01 X21.7390 Y12.1117
G01 X21.7554 Y12.1067
G01 X21.7665 Y12.1027
G01 X21.7832 Y12.0954
G01 X21.7996 Y12.0867
G01 X21.8156 Y12.0767
G01 X21.8257 Y12.0695
G01 X21.8402 Y12.0577
G01 X21.8494 Y12.0491
G01 X21.8584 Y12.0399
G01 X21.8700 Y12.0265
G01 X21.8808 Y12.0119
G01 X21.8877 Y12.0014
G01 X21.8942 Y11.9901
G01 X21.9028 Y11.9730
G01 X21.9093 Y11.9572
G01 X21.9132 Y11.9458
G01 X21.9167 Y11.9338
G01 X21.9194 Y11.9228
G01 X21.9215 Y11.9116
G01 X21.9233 Y11.8993
G01 X21.9245 Y11.8858
G01 X21.9250 Y11.8700
G01 X21.9250 Y9.6700
G01 X21.9245 Y9.6542
G01 X21.9233 Y9.6407
G01 X21.9205 Y9.6228
G01 X21.9167 Y9.6062
G01 X21.9132 Y9.5942
G01 X21.9073 Y9.5775
G01 X21.9004 Y9.5618
G01 X21.8943 Y9.5500
G01 X22.1257 Y9.5500
G01 X22.1196 Y9.5618
G01 X22.1127 Y9.5775
G01 X22.1068 Y9.5942
G01 X22.1033 Y9.6062
G01 X22.0995 Y9.6228
G01 X22.0967 Y9.6407
G01 X22.0955 Y9.6542
G01 X22.0950 Y9.6700
G01 X22.0952 Y11.8791
G01 X22.0960 Y11.8926
G01 X22.0985 Y11.9116
G01 X22.1019 Y11.9283
G01 X22.1068 Y11.9458
G01 X22.1127 Y11.9625
G01 X22.1196 Y11.9782
G01 X22.1291 Y11.9960
G01 X22.1392 Y12.0119
G01 X22.1500 Y12.0265
G01 X22.1616 Y12.0399
G01 X22.1706 Y12.0491
G01 X22.1846 Y12.0617
G01 X22.1993 Y12.0731
G01 X22.2097 Y12.0802
G01 X22.2258 Y12.0897
G01 X22.2425 Y12.0980
G01 X22.2425 Y12.3883
G01 X22.0333 Y12.5975
G01 X20.0500 Y12.5975
G01 X20.0500 Y12.1200
G01 X20.4117 Y12.1199
G01 X20.4300 Y12.1187
G01 X20.4416 Y12.1173
G01 X20.4526 Y12.1154
G01 X20.4635 Y12.1131
G01 X20.4745 Y12.1101
G01 X20.4908 Y12.1048
G01 X20.5077 Y12.0979
G01 X20.5242 Y12.0897
G01 X20.5403 Y12.0802
G01 X20.5507 Y12.0731
G01 X20.5654 Y12.0617
G01 X20.5748 Y12.0535
G01 X20.5884 Y12.0399
G01 X20.6000 Y12.0265
G01 X20.6108 Y12.0119
G01 X20.6209 Y11.9960
G01 X20.6274 Y11.9842
G01 X20.6351 Y11.9678
G01 X20.6412 Y11.9518
G01 X20.6467 Y11.9338
G01 X20.6505 Y11.9172
G01 X20.6533 Y11.8993
G01 X20.6545 Y11.8858
G01 X20.6550 Y11.8700
G01 X20.6550 Y9.6700
G01 X20.6545 Y9.6542
G01 X20.6533 Y9.6407
G01 X20.6505 Y9.6228
G01 X20.6467 Y9.6062
G01 X20.6412 Y9.5882
G01 X20.6351 Y9.5722
G01 X20.6274 Y9.5558
G01 X20.6209 Y9.5440
G01 X20.6108 Y9.5281
G01 X20.6000 Y9.5135
G01 X20.5884 Y9.5001
G01 X20.5794 Y9.4909
G01 X20.5654 Y9.4783
G01 X20.5507 Y9.4669
G01 X20.5403 Y9.4598
G01 X20.5242 Y9.4503
G01 X20.5075 Y9.4420
G01 X20.5075 Y9.3700
G01 X20.5072 Y9.3577
G01 X20.5053 Y9.3279
G01 X20.5004 Y9.2947
G01 X20.4983 Y9.2846
G01 X20.4919 Y9.2592
G01 X20.4863 Y9.2415
G01 X20.4794 Y9.2225
G01 X20.4754 Y9.2126
G01 X20.4625 Y9.1851
G01 X20.4567 Y9.1743
G01 X20.4437 Y9.1527
G01 X20.4326 Y9.1364
G01 X20.4154 Y9.1139
G01 X20.3981 Y9.0943
G01 X20.3896 Y9.0854
G01 X16.8696 Y5.5654
G01 X16.8607 Y5.5569
G01 X16.8418 Y5.5401
G01 X16.8307 Y5.5313
G01 X16.8141 Y5.5191
G01 X16.7982 Y5.5088
G01 X16.7722 Y5.4937
G01 X16.7402 Y5.4786
G01 X16.7276 Y5.4737
G01 X16.7069 Y5.4665
G01 X16.6900 Y5.4616
G01 X16.6646 Y5.4555
G01 X16.6310 Y5.4502
G01 X16.6122 Y5.4486
G01 X16.5850 Y5.4475
G01 X16.0500 Y5.4475
G01 X16.0500 Y4.7025
G01 X16.1994 Y4.7025
G01 X16.3944 Y4.8975
G01 X16.0500 Y4.8975
G00 Z2.0000
G00 X17.2036 Y4.5683
G01 F60.00
G01 Z-0.1500
G01 F50.00
G01 X17.9500 Y4.5683
G01 X17.9500 Y4.8683
G01 X17.5036 Y4.8683
G01 X17.8036 Y5.1683
G01 X17.9500 Y5.1683
G01 X17.9500 Y5.3147
G01 X17.9500 Y4.5500
G01 X17.1853 Y4.5500
G01 X17.9500 Y5.3147
G00 Z2.0000
G00 X18.7852 Y6.1500
G01 F60.00
G01 Z-0.1500
G01 F50.00
G01 X19.4500 Y6.8148
G01 X19.4500 Y6.1500
G01 X18.7852 Y6.1500
G01 X19.0036 Y6.3683
G01 X19.4500 Y6.3683
G01 X19.4500 Y6.6683
G01 X19.3036 Y6.6683
G00 Z2.0000
G00 X18.3500 Y8.1975
G01 F60.00
G01 Z-0.1500
G01 F50.00
G01 X18.3633 Y8.1975
G01 X18.8158 Y8.6500
G01 X18.3500 Y8.6500
G01 X18.3500 Y8.1842
G01 X18.8158 Y8.6500
G01 X18.6633 Y8.4975
G01 X18.3500 Y8.4975
G00 Z2.0000
G00 X17.4158 Y7.2500
G01 F60.00
G01 Z-0.1500
G01 F50.00
G01 X17.0500 Y7.2500
G01 X17.1158 Y6.9500
G01 X17.0500 Y6.9500
G01 X17.0500 Y6.8842
G01 X17.4158 Y7.2500
G01 X17.0500 Y7.2500
G01 X17.0500 Y6.8842
G00 Z2.0000
G00 X20.0500 Y14.5500
G01 F60.00
G01 Z-0.1500
G01 F50.00
G01 X23.9500 Y14.5500
G01 X23.9500 Y14.2500
G01 X23.4192 Y14.2500
G01 X23.7192 Y13.9500
G01 X23.9500 Y13.9500
G00 Z2.0000
G00 X23.3658 Y14.8500
G01 F60.00
G01 Z-0.1500
G01 F50.00
G01 X23.1942 Y14.8500
G00 Z2.0000
G00 X23.1950 Y15.1500
G01 F60.00
G01 Z-0.1500
G01 F50.00
G01 X23.3650 Y15.1500
G01 X23.3650 Y15.4500
G01 X23.1950 Y15.4500
G01 X23.1950 Y15.7500
G01 X23.3650 Y15.7500
G01 X23.3650 Y16.0500
G01 X23.1950 Y16.0500
G01 X23.1950 Y16.3500
G01 X23.3650 Y16.3500
G01 X23.3650 Y16.6500
G01 X23.1950 Y16.6500
G01 X23.1950 Y16.9500
G01 X23.3650 Y16.9500
G00 Z2.0000
G00 X23.4415 Y17.2500
G01 F60.00
G01 Z-0.1500
G01 F50.00
G01 X23.1185 Y17.2500
G01 X23.0475 Y17.5500
G01 X23.5125 Y17.5500
G01 X23.5125 Y17.8500
G01 X23.0475 Y17.8500
G01 X23.0475 Y18.1500
G01 X23.5125 Y18.1500
G01 X23.5125 Y18.4500
G01 X23.0475 Y18.4500
G01 X23.0475 Y18.7500
G01 X23.5125 Y18.7500
G00 Z2.0000
G00 X22.2425 Y18.7500
G01 F60.00
G01 Z-0.1500
G01 F50.00
G01 X21.5500 Y18.7500
G01 X21.5500 Y18.4500
G01 X22.2425 Y18.4500
G01 X22.2425 Y18.1500
G01 X21.5500 Y18.1500
G00 Z2.0000
G00 X21.7734 Y17.8500
G01 F60.00
G01 Z-0.1500
G01 F50.00
G01 X22.2425 Y17.8500
G01 X22.2425 Y17.5500
G01 X21.8025 Y17.5500
G01 X21.8485 Y17.2500
G01 X22.1715 Y17.2500
G00 Z2.0000
G00 X22.0950 Y16.9500
G01 F60.00
G01 Z-0.1500
G01 F50.00
G01 X21.9250 Y16.9500
G01 X21.9250 Y16.6500
G01 X22.0950 Y16.6500
G01 X22.0950 Y16.3500
G01 X21.9250 Y16.3500
G01 X21.9250 Y16.0500
G01 X22.0950 Y16.0500
G01 X22.0950 Y15.7500
G01 X21.9250 Y15.7500
G01 X21.9250 Y15.4500
G01 X22.0950 Y15.4500
G01 X22.0950 Y15.1500
G01 X21.9250 Y15.1500
G00 Z2.0000
G00 X21.9242 Y14.8500
G01 F60.00
G01 Z-0.1500
G01 F50.00
G01 X22.0958 Y14.8500
G00 Z2.0000
G00 X20.8258 Y14.8500
G01 F60.00
G01 Z-0.1500
G01 F50.00
G01 X20.6542 Y14.8500
G00 Z2.0000
G00 X20.6550 Y15.1500
G01 F60.00
G01 Z-0.1500
G01 F50.00
G01 X20.8250 Y15.1500
G01 X20.8250 Y15.4500
G01 X20.6550 Y15.4500
G01 X20.6550 Y15.7500
G01 X20.8250 Y15.7500
G01 X20.8250 Y16.0500
G01 X20.6550 Y16.0500
G01 X20.6550 Y16.3500
G01 X20.8250 Y16.3500
G01 X20.8250 Y16.6500
G01 X20.6550 Y16.6500
G01 X20.6550 Y16.8500
G01 X20.8250 Y16.8500
G01 X20.8250 Y14.8700
G01 X20.8255 Y14.8542
G01 X20.8267 Y14.8407
G01 X20.8285 Y14.8284
G01 X20.8319 Y14.8117
G01 X20.8368 Y14.7942
G01 X20.8407 Y14.7828
G01 X20.8472 Y14.7670
G01 X20.8526 Y14.7558
G01 X20.8591 Y14.7440
G01 X20.8657 Y14.7333
G01 X20.8728 Y14.7230
G01 X20.8838 Y14.7089
G01 X20.8961 Y14.6954
G01 X20.9052 Y14.6865
G01 X20.9146 Y14.6783
G01 X20.9293 Y14.6669
G01 X20.9397 Y14.6598
G01 X20.9504 Y14.6533
G01 X20.9613 Y14.6474
G01 X20.9779 Y14.6396
G01 X20.9892 Y14.6352
G01 X21.0055 Y14.6299
G01 X21.0165 Y14.6269
G01 X21.0329 Y14.6236
G01 X21.0442 Y14.6219
G01 X21.0558 Y14.6207
G01 X21.0750 Y14.6200
G01 X21.6750 Y14.6200
G01 X21.6942 Y14.6207
G01 X21.7116 Y14.6227
G01 X21.7281 Y14.6257
G01 X21.7445 Y14.6299
G01 X21.7608 Y14.6352
G01 X21.7777 Y14.6421
G01 X21.7942 Y14.6503
G01 X21.8103 Y14.6598
G01 X21.8257 Y14.6705
G01 X21.8402 Y14.6823
G01 X21.8539 Y14.6954
G01 X21.8662 Y14.7089
G01 X21.8772 Y14.7230
G01 X21.8877 Y14.7386
G01 X21.8942 Y14.7499
G01 X21.9028 Y14.7670
G01 X21.9093 Y14.7828
G01 X21.9132 Y14.7942
G01 X21.9167 Y14.8062
G01 X21.9194 Y14.8172
G01 X21.9215 Y14.8284
G01 X21.9233 Y14.8407
G01 X21.9245 Y14.8542
G01 X21.9250 Y14.8700
G01 X21.9250 Y17.0700
G01 X21.9242 Y17.0900
G01 X21.9223 Y17.1066
G01 X21.9200 Y17.1198
G01 X21.9170 Y17.1327
G01 X21.9133 Y17.1455
G01 X21.9093 Y17.1572
G01 X21.9028 Y17.1730
G01 X21.8947 Y17.1892
G01 X21.8885 Y17.2000
G01 X21.8802 Y17.2128
G01 X21.8727 Y17.2230
G01 X21.8606 Y17.2375
G01 X21.8518 Y17.2468
G01 X21.8425 Y17.2556
G01 X21.8280 Y17.2677
G01 X21.8178 Y17.2752
G01 X21.8025 Y17.2850
G01 X21.8025 Y17.7000
G01 X21.8022 Y17.7123
G01 X21.8011 Y17.7323
G01 X21.8002 Y17.7426
G01 X21.7968 Y17.7664
G01 X21.7944 Y17.7804
G01 X21.7856 Y17.8153
G01 X21.7763 Y17.8426
G01 X21.7720 Y17.8536
G01 X21.7669 Y17.8652
G01 X21.7584 Y17.8830
G01 X21.7527 Y17.8939
G01 X21.7362 Y17.9213
G01 X21.7276 Y17.9336
G01 X21.7122 Y17.9540
G01 X21.7031 Y17.9646
G01 X21.6846 Y17.9846
G01 X21.5500 Y18.1192
G01 X21.5500 Y18.7500
G01 X22.2425 Y18.7500
G01 X22.2425 Y17.2980
G01 X22.2258 Y17.2897
G01 X22.2086 Y17.2795
G01 X22.1971 Y17.2715
G01 X22.1822 Y17.2597
G01 X22.1682 Y17.2468
G01 X22.1553 Y17.2328
G01 X22.1435 Y17.2179
G01 X22.1355 Y17.2064
G01 X22.1283 Y17.1946
G01 X22.1196 Y17.1782
G01 X22.1127 Y17.1625
G01 X22.1067 Y17.1455
G01 X22.1014 Y17.1263
G01 X22.0988 Y17.1132
G01 X22.0963 Y17.0956
G01 X22.0952 Y17.0789
G01 X22.0950 Y14.8700
G01 X22.0955 Y14.8542
G01 X22.0967 Y14.8407
G01 X22.0985 Y14.8284
G01 X22.1006 Y14.8172
G01 X22.1033 Y14.8062
G01 X22.1068 Y14.7942
G01 X22.1127 Y14.7775
G01 X22.1196 Y14.7618
G01 X22.1291 Y14.7440
G01 X22.1392 Y14.7281
G01 X22.1464 Y14.7182
G01 X22.1538 Y14.7089
G01 X22.1661 Y14.6954
G01 X22.1798 Y14.6823
G01 X22.1943 Y14.6705
G01 X22.2097 Y14.6598
G01 X22.2258 Y14.6503
G01 X22.2368 Y14.6446
G01 X22.2479 Y14.6396
G01 X22.2646 Y14.6333
G01 X22.2810 Y14.6283
G01 X22.2919 Y14.6257
G01 X22.3029 Y14.6236
G01 X22.3200 Y14.6213
G01 X22.3316 Y14.6204
G01 X22.3450 Y14.6200
G01 X22.9450 Y14.6200
G01 X22.9584 Y14.6204
G01 X22.9758 Y14.6219
G01 X22.9871 Y14.6236
G01 X22.9981 Y14.6257
G01 X23.0090 Y14.6283
G01 X23.0200 Y14.6315
G01 X23.0308 Y14.6352
G01 X23.0421 Y14.6396
G01 X23.0532 Y14.6446
G01 X23.0642 Y14.6503
G01 X23.0750 Y14.6565
G01 X23.0856 Y14.6633
G01 X23.0957 Y14.6705
G01 X23.1054 Y14.6783
G01 X23.1148 Y14.6865
G01 X23.1239 Y14.6954
G01 X23.1323 Y14.7045
G01 X23.1400 Y14.7135
G01 X23.1508 Y14.7281
G01 X23.1609 Y14.7440
G01 X23.1704 Y14.7618
G01 X23.1751 Y14.7722
G01 X23.1793 Y14.7828
G01 X23.1850 Y14.8001
G01 X23.1881 Y14.8117
G01 X23.1905 Y14.8228
G01 X23.1933 Y14.8407
G01 X23.1948 Y14.8609
G01 X23.1948 Y17.0789
G01 X23.1937 Y17.0956
G01 X23.1912 Y17.1132
G01 X23.1886 Y17.1263
G01 X23.1833 Y17.1455
G01 X23.1773 Y17.1625
G01 X23.1704 Y17.1782
G01 X23.1617 Y17.1946
G01 X23.1545 Y17.2064
G01 X23.1465 Y17.2179
G01 X23.1347 Y17.2328
G01 X23.1218 Y17.2468
G01 X23.1078 Y17.2597
G01 X23.0929 Y17.2715
G01 X23.0814 Y17.2795
G01 X23.0642 Y17.2897
G01 X23.0475 Y17.2980
G01 X23.0475 Y18.7500
G01 X23.5125 Y18.7500
G01 X23.5125 Y17.2980
G01 X23.4958 Y17.2897
G01 X23.4786 Y17.2795
G01 X23.4671 Y17.2715
G01 X23.4522 Y17.2597
G01 X23.4382 Y17.2468
G01 X23.4253 Y17.2328
G01 X23.4135 Y17.2179
G01 X23.4055 Y17.2064
G01 X23.3983 Y17.1946
G01 X23.3896 Y17.1782
G01 X23.3827 Y17.1625
G01 X23.3767 Y17.1455
G01 X23.3714 Y17.1263
G01 X23.3688 Y17.1132
G01 X23.3663 Y17.0956
G01 X23.3652 Y17.0789
G01 X23.3650 Y14.8700
G01 X23.3660 Y14.8474
G01 X23.3685 Y14.8284
G01 X23.3719 Y14.8117
G01 X23.3768 Y14.7942
G01 X23.3827 Y14.7775
G01 X23.3896 Y14.7618
G01 X23.3991 Y14.7440
G01 X23.4057 Y14.7333
G01 X23.4164 Y14.7182
G01 X23.4277 Y14.7045
G01 X23.4406 Y14.6909
G01 X23.4498 Y14.6823
G01 X23.4643 Y14.6705
G01 X23.4744 Y14.6633
G01 X23.4904 Y14.6533
G01 X23.5068 Y14.6446
G01 X23.5235 Y14.6373
G01 X23.5400 Y14.6315
G01 X23.5510 Y14.6283
G01 X23.5619 Y14.6257
G01 X23.5729 Y14.6236
G01 X23.5842 Y14.6219
G01 X23.6016 Y14.6204
G01 X23.6150 Y14.6200
G01 X23.9500 Y14.6200
G01 X23.9500 Y13.7192
G01 X23.3846 Y14.2846
G01 X23.3607 Y14.3066
G01 X23.3457 Y14.3187
G01 X23.3244 Y14.3341
G01 X23.3132 Y14.3412
G01 X23.2939 Y14.3527
G01 X23.2788 Y14.3605
G01 X23.2552 Y14.3714
G01 X23.2426 Y14.3763
G01 X23.2219 Y14.3835
G01 X23.2102 Y14.3871
G01 X23.1905 Y14.3921
G01 X23.1731 Y14.3958
G01 X23.1516 Y14.3990
G01 X23.1380 Y14.4007
G01 X23.1123 Y14.4022
G01 X23.1000 Y14.4025
G01 X20.0500 Y14.4025
G01 X20.0500 Y14.6200
G01 X20.4117 Y14.6201
G01 X20.4300 Y14.6213
G01 X20.4471 Y14.6236
G01 X20.4635 Y14.6269
G01 X20.4800 Y14.6315
G01 X20.4965 Y14.6373
G01 X20.5132 Y14.6446
G01 X20.5296 Y14.6533
G01 X20.5403 Y14.6598
G01 X20.5507 Y14.6669
G01 X20.5654 Y14.6783
G01 X20.5794 Y14.6909
G01 X20.5884 Y14.7001
G01 X20.6000 Y14.7135
G01 X20.6072 Y14.7230
G01 X20.6177 Y14.7386
G01 X20.6242 Y14.7499
G01 X20.6304 Y14.7618
G01 X20.6373 Y14.7775
G01 X20.6432 Y14.7942
G01 X20.6481 Y14.8117
G01 X20.6515 Y14.8284
G01 X20.6533 Y14.8407
G01 X20.6545 Y14.8542
G01 X20.6550 Y14.8700
G01 X20.6550 Y16.8500
G00 Z2.0000
M05
G00 Z2.0000
G00 Z15.00
G00 X0.0 Y0.0

