(G-CODE GENERATED BY FLATCAM v8.991 - www.flatcam.org - Version Date: 2019/12/27)

(Name: NCC-1mm.gbr_ncc_cnc)
(Type: G-code from Geometry)
(Units: MM)

(Created on Friday, 19 July 2024 at 16:43)

(TOOL DIAMETER: 1.0 mm)
(Feedrate: 120.0 mm/min)
(Feedrate_Z: 60.0 mm/min)
(Feedrate rapids 1500.0 mm/min)

(Z_Cut: -0.15 mm)
(Z_Move: 2.0 mm)
(Z Toolchange: 15.0 mm)
(X,Y Toolchange: 0.0000, 0.0000 mm)
(Z Start: None mm)
(Z End: 15.0 mm)
(Steps per circle: 64)
(Preprocessor Geometry: default)

(X range:    0.5000 ...   26.5000  mm)
(Y range:    2.5000 ...   26.5000  mm)

(Spindle Speed: 9000 RPM)
G21
G90
G94




G01 F120.00
G00 Z2.0000

M03 S9000
G4 P1.0
G00 X0.5000 Y3.1000
G01 F60.00
G01 Z-0.1500
G01 F120.00
G01 X26.5000 Y3.1000
G01 X26.5000 Y3.7000
G01 X16.6224 Y3.7000
G00 Z2.0000
G00 X17.2888 Y4.3000
G01 F60.00
G01 Z-0.1500
G01 F120.00
G01 X26.5000 Y4.3000
G01 X26.5000 Y4.9000
G01 X17.8888 Y4.9000
G01 X18.4888 Y5.5000
G01 X26.5000 Y5.5000
G01 X26.5000 Y6.1000
G01 X19.0888 Y6.1000
G01 X19.6888 Y6.7000
G01 X26.5000 Y6.7000
G01 X26.5000 Y7.3000
G01 X20.2888 Y7.3000
G01 X20.8888 Y7.9000
G01 X26.5000 Y7.9000
G01 X26.5000 Y8.5000
G01 X21.4887 Y8.5000
G00 Z2.0000
G00 X21.9930 Y9.1000
G01 F60.00
G01 Z-0.1500
G01 F120.00
G01 X26.5000 Y9.1000
G01 X26.5000 Y9.7000
G01 X24.7150 Y9.7000
G01 X24.7150 Y10.3000
G01 X26.5000 Y10.3000
G01 X26.5000 Y10.9000
G01 X24.7150 Y10.9000
G01 X24.7150 Y11.5000
G01 X26.5000 Y11.5000
G01 X26.5000 Y12.1000
G01 X24.6589 Y12.1000
G01 X24.5675 Y12.7000
G01 X26.5000 Y12.7000
G01 X26.5000 Y13.3000
G01 X24.5572 Y13.3000
G00 Z2.0000
G00 X24.1227 Y13.9000
G01 F60.00
G01 Z-0.1500
G01 F120.00
G01 X26.5000 Y13.9000
G01 X26.5000 Y14.5000
G01 X24.5513 Y14.5000
G00 Z2.0000
G00 X24.7150 Y15.1000
G01 F60.00
G01 Z-0.1500
G01 F120.00
G01 X26.5000 Y15.1000
G01 X26.5000 Y15.7000
G01 X24.7150 Y15.7000
G01 X24.7150 Y16.3000
G01 X26.5000 Y16.3000
G01 X26.5000 Y16.9000
G01 X24.7150 Y16.9000
G00 Z2.0000
G00 X24.5675 Y17.5000
G01 F60.00
G01 Z-0.1500
G01 F120.00
G01 X26.5000 Y17.5000
G01 X26.5000 Y18.1000
G01 X24.5675 Y18.1000
G01 X24.5675 Y18.7000
G01 X26.5000 Y18.7000
G01 X26.5000 Y19.3000
G01 X24.5675 Y19.3000
G01 X24.5675 Y19.9000
G01 X26.5000 Y19.9000
G01 X26.5000 Y20.5000
G01 X24.5675 Y20.5000
G01 X24.5675 Y21.1000
G01 X26.5000 Y21.1000
G01 X26.5000 Y21.7000
G01 X24.5675 Y21.7000
G01 X24.5675 Y22.3000
G01 X26.5000 Y22.3000
G01 X26.5000 Y22.9000
G01 X24.5309 Y22.9000
G00 Z2.0000
G00 X24.0227 Y23.5000
G01 F60.00
G01 Z-0.1500
G01 F120.00
G01 X26.5000 Y23.5000
G01 X26.5000 Y24.1000
G01 X23.4225 Y24.1000
G00 Z2.0000
G00 X22.7773 Y22.9000
G01 F60.00
G01 Z-0.1500
G01 F120.00
G01 X6.2771 Y22.9000
G00 Z2.0000
G00 X5.3551 Y22.3000
G01 F60.00
G01 Z-0.1500
G01 F120.00
G01 X23.2625 Y22.3000
G01 X23.2625 Y21.7000
G01 X21.0412 Y21.7000
G00 Z2.0000
G00 X21.7227 Y21.1000
G01 F60.00
G01 Z-0.1500
G01 F120.00
G01 X23.2625 Y21.1000
G01 X23.2625 Y20.5000
G01 X22.3227 Y20.5000
G01 X22.9227 Y19.9000
G01 X23.2625 Y19.9000
G00 Z2.0000
G00 X21.6773 Y19.3000
G01 F60.00
G01 Z-0.1500
G01 F120.00
G01 X6.2623 Y19.3000
G00 Z2.0000
G00 X5.5383 Y19.9000
G01 F60.00
G01 Z-0.1500
G01 F120.00
G01 X21.0773 Y19.9000
G01 X21.3227 Y18.7000
G01 X21.9925 Y18.7000
G01 X21.9925 Y18.1000
G01 X21.9154 Y18.1000
G00 Z2.0000
G00 X20.6773 Y17.5000
G01 F60.00
G01 Z-0.1500
G01 F120.00
G01 X20.6601 Y17.5000
G00 Z2.0000
G00 X19.5499 Y17.5000
G01 F60.00
G01 Z-0.1500
G01 F120.00
G01 X5.9144 Y17.5000
G01 X6.1321 Y16.9000
G01 X19.3050 Y16.9000
G00 Z2.0000
G00 X19.3050 Y15.1000
G01 F60.00
G01 Z-0.1500
G01 F120.00
G01 X6.1100 Y15.1000
G01 X5.9477 Y14.5000
G01 X7.6809 Y14.5000
G00 Z2.0000
G00 X8.3227 Y13.3000
G01 F60.00
G01 Z-0.1500
G01 F120.00
G01 X10.0773 Y13.3000
G01 X9.4773 Y12.7000
G01 X6.2465 Y12.7000
G00 Z2.0000
G00 X5.6230 Y12.1000
G01 F60.00
G01 Z-0.1500
G01 F120.00
G01 X8.8773 Y12.1000
G00 Z2.0000
G00 X9.5227 Y10.9000
G01 F60.00
G01 Z-0.1500
G01 F120.00
G01 X19.3050 Y10.9000
G01 X19.3050 Y10.3000
G01 X8.8562 Y10.3000
G00 Z2.0000
G00 X10.1227 Y11.5000
G01 F60.00
G01 Z-0.1500
G01 F120.00
G01 X19.3050 Y11.5000
G00 Z2.0000
G00 X19.3611 Y12.1000
G01 F60.00
G01 Z-0.1500
G01 F120.00
G01 X10.7227 Y12.1000
G00 Z2.0000
G00 X6.2920 Y9.1000
G01 F60.00
G01 Z-0.1500
G01 F120.00
G01 X18.9123 Y9.1000
G01 X19.3050 Y9.7000
G01 X0.5000 Y9.7000
G01 X0.5000 Y9.1000
G01 X2.9080 Y9.1000
G01 X2.8549 Y10.3000
G01 X0.5000 Y10.3000
G01 X0.5000 Y10.9000
G01 X2.6781 Y10.9000
G00 Z2.0000
G00 X2.8197 Y11.5000
G01 F60.00
G01 Z-0.1500
G01 F120.00
G01 X0.5000 Y11.5000
G01 X0.5000 Y12.1000
G01 X3.5770 Y12.1000
G00 Z2.0000
G00 X2.9534 Y12.7000
G01 F60.00
G01 Z-0.1500
G01 F120.00
G01 X0.5000 Y12.7000
G01 X0.5000 Y13.3000
G01 X2.6901 Y13.3000
G00 Z2.0000
G00 X2.7568 Y13.9000
G01 F60.00
G01 Z-0.1500
G01 F120.00
G01 X0.5000 Y13.9000
G01 X0.5000 Y14.5000
G01 X3.2523 Y14.5000
G01 X3.0900 Y15.1000
G01 X0.5000 Y15.1000
G01 X0.5000 Y15.7000
G01 X2.7183 Y15.7000
G00 Z2.0000
G00 X2.7133 Y16.3000
G01 F60.00
G01 Z-0.1500
G01 F120.00
G01 X0.5000 Y16.3000
G01 X0.5000 Y16.9000
G01 X3.0679 Y16.9000
G01 X3.2856 Y17.5000
G01 X0.5000 Y17.5000
G01 X0.5000 Y18.1000
G01 X2.7641 Y18.1000
G00 Z2.0000
G00 X2.6871 Y18.7000
G01 F60.00
G01 Z-0.1500
G01 F120.00
G01 X0.5000 Y18.7000
G01 X0.5000 Y19.3000
G01 X2.9377 Y19.3000
G00 Z2.0000
G00 X3.6618 Y19.9000
G01 F60.00
G01 Z-0.1500
G01 F120.00
G01 X0.5000 Y19.9000
G01 X0.5000 Y20.5000
G01 X2.8310 Y20.5000
G00 Z2.0000
G00 X2.6774 Y21.1000
G01 F60.00
G01 Z-0.1500
G01 F120.00
G01 X0.5000 Y21.1000
G01 X0.5000 Y21.7000
G01 X2.8429 Y21.7000
G00 Z2.0000
G00 X3.8449 Y22.3000
G01 F60.00
G01 Z-0.1500
G01 F120.00
G01 X0.5000 Y22.3000
G01 X0.5000 Y22.9000
G01 X2.9229 Y22.9000
G00 Z2.0000
G00 X2.6843 Y23.5000
G01 F60.00
G01 Z-0.1500
G01 F120.00
G01 X0.5000 Y23.5000
G01 X0.5000 Y24.1000
G01 X2.7722 Y24.1000
G00 Z2.0000
G00 X3.3206 Y24.7000
G01 F60.00
G01 Z-0.1500
G01 F120.00
G01 X0.5000 Y24.7000
G01 X0.5000 Y25.3000
G01 X26.5000 Y25.3000
G01 X26.5000 Y25.9000
G01 X0.5000 Y25.9000
G01 X0.5000 Y26.5000
G01 X26.5000 Y26.5000
G01 X26.5000 Y2.5000
G01 X0.5000 Y2.5000
G01 X0.5000 Y26.5000
G01 X26.5000 Y26.5000
G01 X26.5000 Y24.7000
G01 X5.8795 Y24.7000
G00 Z2.0000
G00 X6.5177 Y8.5000
G01 F60.00
G01 Z-0.1500
G01 F120.00
G01 X18.3123 Y8.5000
G01 X17.7123 Y7.9000
G01 X6.4187 Y7.9000
G00 Z2.0000
G00 X5.8383 Y7.3000
G01 F60.00
G01 Z-0.1500
G01 F120.00
G01 X17.1123 Y7.3000
G01 X16.5123 Y6.7000
G01 X6.1744 Y6.7000
G00 Z2.0000
G00 X6.1238 Y4.9525
G01 F60.00
G01 Z-0.1500
G01 F120.00
G01 X6.1591 Y4.9847
G01 X6.1765 Y5.0021
G01 X6.2396 Y5.0717
G01 X6.2552 Y5.0906
G01 X6.3044 Y5.1568
G01 X6.3175 Y5.1753
G01 X6.3316 Y5.1975
G01 X16.3409 Y5.1975
G01 X16.0958 Y4.9525
G01 X6.1238 Y4.9525
G00 Z2.0000
G00 X2.7525 Y5.4321
G01 F60.00
G01 Z-0.1500
G01 F120.00
G01 X2.7647 Y5.3982
G01 X2.7741 Y5.3756
G01 X2.8148 Y5.2896
G01 X2.8205 Y5.2785
G01 X2.8324 Y5.2575
G01 X2.8683 Y5.1976
G01 X2.8804 Y5.1784
G01 X2.8956 Y5.1568
G01 X2.9372 Y5.1007
G01 X2.9454 Y5.0900
G01 X2.9610 Y5.0710
G01 X3.0235 Y5.0021
G01 X3.0409 Y4.9847
G01 X3.0762 Y4.9525
G01 X2.7525 Y4.9525
G01 X2.7525 Y5.4321
G00 Z2.0000
G00 X2.7525 Y6.7000
G01 F60.00
G01 Z-0.1500
G01 F120.00
G01 X3.0256 Y6.7000
G01 X2.7525 Y7.3000
G01 X3.3617 Y7.3000
G00 Z2.0000
G00 X1.4475 Y7.3000
G01 F60.00
G01 Z-0.1500
G01 F120.00
G01 X0.5000 Y7.3000
G01 X0.5000 Y7.9000
G01 X1.4475 Y7.9000
G00 Z2.0000
G00 X1.5206 Y8.5000
G01 F60.00
G01 Z-0.1500
G01 F120.00
G01 X0.5000 Y8.5000
G01 X0.5000 Y6.7000
G01 X1.4475 Y6.7000
G01 X1.4475 Y6.1000
G01 X0.5000 Y6.1000
G01 X0.5000 Y5.5000
G01 X1.4475 Y5.5000
G01 X1.4475 Y4.9000
G01 X0.5000 Y4.9000
G01 X0.5000 Y4.3000
G01 X1.5206 Y4.3000
G00 Z2.0000
G00 X1.4884 Y4.3732
G01 F60.00
G01 Z-0.1500
G01 F120.00
G01 X1.4976 Y4.3493
G01 X1.5071 Y4.3279
G01 X1.5187 Y4.3038
G01 X1.5243 Y4.2929
G01 X1.5367 Y4.2711
G01 X1.5508 Y4.2477
G01 X1.5645 Y4.2273
G01 X1.5882 Y4.1953
G01 X1.6038 Y4.1764
G01 X1.6217 Y4.1564
G01 X1.6386 Y4.1386
G01 X1.9386 Y3.8386
G01 X1.9478 Y3.8297
G01 X1.9675 Y3.8117
G01 X1.9865 Y3.7953
G01 X2.0054 Y3.7805
G01 X2.0348 Y3.7593
G01 X2.0464 Y3.7517
G01 X2.0711 Y3.7367
G01 X2.0928 Y3.7244
G01 X2.1143 Y3.7135
G01 X2.1395 Y3.7018
G01 X2.1622 Y3.6924
G01 X2.1873 Y3.6833
G01 X2.2112 Y3.6754
G01 X2.2342 Y3.6691
G01 X2.2709 Y3.6604
G01 X2.2969 Y3.6559
G01 X2.3235 Y3.6521
G01 X2.3479 Y3.6496
G01 X2.3755 Y3.6481
G01 X2.4000 Y3.6475
G01 X16.3661 Y3.6475
G01 X16.4056 Y3.6489
G01 X16.4317 Y3.6508
G01 X16.4692 Y3.6559
G01 X16.4956 Y3.6605
G01 X16.5173 Y3.6654
G01 X16.5422 Y3.6718
G01 X16.5657 Y3.6788
G01 X16.5788 Y3.6833
G01 X16.6055 Y3.6931
G01 X16.6181 Y3.6981
G01 X16.6382 Y3.7071
G01 X16.6687 Y3.7219
G01 X16.6820 Y3.7291
G01 X16.7079 Y3.7444
G01 X16.7191 Y3.7513
G01 X16.7395 Y3.7650
G01 X16.7607 Y3.7805
G01 X16.7829 Y3.7980
G01 X16.7986 Y3.8117
G01 X16.8183 Y3.8297
G01 X16.8275 Y3.8386
G01 X21.8364 Y8.8476
G01 X21.8449 Y8.8564
G01 X21.8633 Y8.8765
G01 X21.8794 Y8.8951
G01 X21.8945 Y8.9144
G01 X21.9106 Y8.9364
G01 X21.9175 Y8.9465
G01 X21.9306 Y8.9672
G01 X21.9491 Y8.9990
G01 X21.9615 Y9.0234
G01 X21.9750 Y9.0526
G01 X21.9824 Y9.0707
G01 X21.9957 Y9.1079
G01 X22.0029 Y9.1317
G01 X22.0124 Y9.1697
G01 X22.0162 Y9.1882
G01 X22.0227 Y9.2302
G01 X22.0254 Y9.2573
G01 X22.0269 Y9.2843
G01 X22.0435 Y9.2711
G01 X22.0639 Y9.2565
G01 X22.0744 Y9.2496
G01 X22.0957 Y9.2366
G01 X22.1175 Y9.2247
G01 X22.1286 Y9.2192
G01 X22.1508 Y9.2093
G01 X22.1620 Y9.2047
G01 X22.1734 Y9.2004
G01 X22.1950 Y9.1930
G01 X22.2169 Y9.1867
G01 X22.2388 Y9.1814
G01 X22.2607 Y9.1772
G01 X22.2833 Y9.1738
G01 X22.2949 Y9.1725
G01 X22.3183 Y9.1707
G01 X22.3450 Y9.1700
G01 X22.9450 Y9.1700
G01 X22.9717 Y9.1707
G01 X22.9834 Y9.1715
G01 X23.0067 Y9.1738
G01 X23.0183 Y9.1754
G01 X23.0402 Y9.1792
G01 X23.0620 Y9.1839
G01 X23.0841 Y9.1897
G01 X23.1058 Y9.1966
G01 X23.1166 Y9.2004
G01 X23.1280 Y9.2047
G01 X23.1503 Y9.2141
G01 X23.1725 Y9.2247
G01 X23.1835 Y9.2305
G01 X23.2050 Y9.2429
G01 X23.2156 Y9.2496
G01 X23.2261 Y9.2565
G01 X23.2465 Y9.2711
G01 X23.2659 Y9.2865
G01 X23.2800 Y9.2989
G01 X23.3037 Y9.2787
G01 X23.3235 Y9.2637
G01 X23.3339 Y9.2565
G01 X23.3444 Y9.2496
G01 X23.3657 Y9.2366
G01 X23.3875 Y9.2247
G01 X23.3986 Y9.2192
G01 X23.4208 Y9.2093
G01 X23.4320 Y9.2047
G01 X23.4434 Y9.2004
G01 X23.4650 Y9.1930
G01 X23.4759 Y9.1897
G01 X23.4980 Y9.1839
G01 X23.5198 Y9.1792
G01 X23.5417 Y9.1754
G01 X23.5533 Y9.1738
G01 X23.5766 Y9.1715
G01 X23.6016 Y9.1702
G01 X23.6150 Y9.1700
G01 X24.2150 Y9.1700
G01 X24.2284 Y9.1702
G01 X24.2534 Y9.1715
G01 X24.2767 Y9.1738
G01 X24.2993 Y9.1772
G01 X24.3212 Y9.1814
G01 X24.3431 Y9.1867
G01 X24.3650 Y9.1930
G01 X24.3866 Y9.2004
G01 X24.4092 Y9.2093
G01 X24.4314 Y9.2192
G01 X24.4425 Y9.2247
G01 X24.4643 Y9.2366
G01 X24.4856 Y9.2496
G01 X24.4961 Y9.2565
G01 X24.5165 Y9.2711
G01 X24.5359 Y9.2865
G01 X24.5545 Y9.3030
G01 X24.5729 Y9.3208
G01 X24.5897 Y9.3389
G01 X24.5974 Y9.3479
G01 X24.6123 Y9.3664
G01 X24.6266 Y9.3862
G01 X24.6404 Y9.4073
G01 X24.6535 Y9.4298
G01 X24.6658 Y9.4536
G01 X24.6752 Y9.4745
G01 X24.6836 Y9.4957
G01 X24.6875 Y9.5064
G01 X24.6951 Y9.5303
G01 X24.6984 Y9.5423
G01 X24.7037 Y9.5644
G01 X24.7080 Y9.5868
G01 X24.7116 Y9.6114
G01 X24.7140 Y9.6383
G01 X24.7150 Y9.6700
G01 X24.7150 Y11.8700
G01 X24.7147 Y11.8882
G01 X24.7140 Y11.9017
G01 X24.7116 Y11.9286
G01 X24.7080 Y11.9532
G01 X24.7037 Y11.9756
G01 X24.6984 Y11.9977
G01 X24.6914 Y12.0217
G01 X24.6836 Y12.0443
G01 X24.6752 Y12.0655
G01 X24.6658 Y12.0864
G01 X24.6535 Y12.1102
G01 X24.6404 Y12.1327
G01 X24.6266 Y12.1538
G01 X24.6123 Y12.1736
G01 X24.5974 Y12.1921
G01 X24.5817 Y12.2099
G01 X24.5675 Y12.2246
G01 X24.5675 Y13.1850
G01 X24.5669 Y13.2095
G01 X24.5652 Y13.2393
G01 X24.5627 Y13.2638
G01 X24.5562 Y13.3058
G01 X24.5520 Y13.3261
G01 X24.5459 Y13.3508
G01 X24.5396 Y13.3738
G01 X24.5358 Y13.3858
G01 X24.5266 Y13.4118
G01 X24.5191 Y13.4316
G01 X24.5150 Y13.4414
G01 X24.5015 Y13.4707
G01 X24.4955 Y13.4829
G01 X24.4838 Y13.5045
G01 X24.4706 Y13.5268
G01 X24.4606 Y13.5428
G01 X24.4522 Y13.5553
G01 X24.4345 Y13.5796
G01 X24.4251 Y13.5918
G01 X24.4108 Y13.6091
G01 X24.3933 Y13.6286
G01 X24.3764 Y13.6464
G01 X23.6527 Y14.3700
G01 X24.2150 Y14.3700
G01 X24.2417 Y14.3707
G01 X24.2651 Y14.3725
G01 X24.2883 Y14.3754
G01 X24.3102 Y14.3792
G01 X24.3320 Y14.3839
G01 X24.3541 Y14.3897
G01 X24.3758 Y14.3966
G01 X24.3980 Y14.4047
G01 X24.4092 Y14.4093
G01 X24.4314 Y14.4192
G01 X24.4425 Y14.4247
G01 X24.4643 Y14.4366
G01 X24.4750 Y14.4429
G01 X24.4961 Y14.4565
G01 X24.5065 Y14.4637
G01 X24.5263 Y14.4787
G01 X24.5453 Y14.4946
G01 X24.5545 Y14.5030
G01 X24.5729 Y14.5208
G01 X24.5817 Y14.5301
G01 X24.5974 Y14.5479
G01 X24.6123 Y14.5664
G01 X24.6194 Y14.5759
G01 X24.6266 Y14.5862
G01 X24.6404 Y14.6073
G01 X24.6535 Y14.6298
G01 X24.6598 Y14.6416
G01 X24.6706 Y14.6640
G01 X24.6752 Y14.6745
G01 X24.6836 Y14.6957
G01 X24.6914 Y14.7183
G01 X24.6951 Y14.7303
G01 X24.6984 Y14.7423
G01 X24.7037 Y14.7644
G01 X24.7080 Y14.7868
G01 X24.7098 Y14.7980
G01 X24.7130 Y14.8249
G01 X24.7147 Y14.8518
G01 X24.7150 Y14.8700
G01 X24.7150 Y17.0700
G01 X24.7142 Y17.0990
G01 X24.7124 Y17.1212
G01 X24.7096 Y17.1433
G01 X24.7050 Y17.1695
G01 X24.6990 Y17.1955
G01 X24.6955 Y17.2083
G01 X24.6875 Y17.2336
G01 X24.6795 Y17.2550
G01 X24.6706 Y17.2760
G01 X24.6603 Y17.2975
G01 X24.6484 Y17.3193
G01 X24.6340 Y17.3429
G01 X24.6255 Y17.3555
G01 X24.6105 Y17.3759
G01 X24.5945 Y17.3956
G01 X24.5775 Y17.4144
G01 X24.5675 Y17.4246
G01 X24.5673 Y22.6973
G01 X24.5655 Y22.7347
G01 X24.5637 Y22.7552
G01 X24.5613 Y22.7733
G01 X24.5562 Y22.8058
G01 X24.5520 Y22.8261
G01 X24.5432 Y22.8611
G01 X24.5362 Y22.8846
G01 X24.5266 Y22.9118
G01 X24.5182 Y22.9338
G01 X24.5079 Y22.9571
G01 X24.4974 Y22.9791
G01 X24.4859 Y23.0009
G01 X24.4657 Y23.0349
G01 X24.4522 Y23.0553
G01 X24.4345 Y23.0796
G01 X24.4215 Y23.0963
G01 X24.4033 Y23.1175
G01 X24.3849 Y23.1376
G01 X24.3764 Y23.1464
G01 X23.4314 Y24.0914
G01 X23.4136 Y24.1083
G01 X23.3920 Y24.1276
G01 X23.3730 Y24.1431
G01 X23.3526 Y24.1584
G01 X23.3278 Y24.1756
G01 X23.3118 Y24.1856
G01 X23.2859 Y24.2009
G01 X23.2726 Y24.2081
G01 X23.2421 Y24.2229
G01 X23.2188 Y24.2332
G01 X23.1968 Y24.2416
G01 X23.1696 Y24.2512
G01 X23.1461 Y24.2582
G01 X23.1111 Y24.2670
G01 X23.0908 Y24.2712
G01 X23.0583 Y24.2763
G01 X23.0402 Y24.2787
G01 X23.0197 Y24.2805
G01 X22.9945 Y24.2819
G01 X22.9700 Y24.2825
G01 X6.3316 Y24.2825
G01 X6.3175 Y24.3047
G01 X6.3044 Y24.3232
G01 X6.2628 Y24.3793
G01 X6.2454 Y24.4015
G01 X6.2317 Y24.4172
G01 X6.1848 Y24.4689
G01 X6.1723 Y24.4822
G01 X6.1577 Y24.4966
G01 X6.0984 Y24.5505
G01 X6.0829 Y24.5640
G01 X6.0605 Y24.5816
G01 X6.0044 Y24.6232
G01 X5.9921 Y24.6320
G01 X5.9717 Y24.6455
G01 X5.8900 Y24.6943
G01 X5.8698 Y24.7050
G01 X5.7973 Y24.7394
G01 X5.7799 Y24.7472
G01 X5.7660 Y24.7529
G01 X5.6749 Y24.7856
G01 X5.6514 Y24.7927
G01 X5.6392 Y24.7959
G01 X5.5715 Y24.8129
G01 X5.5507 Y24.8176
G01 X5.5234 Y24.8225
G01 X5.4543 Y24.8327
G01 X5.4352 Y24.8352
G01 X5.4203 Y24.8366
G01 X5.3235 Y24.8414
G01 X3.8888 Y24.8416
G01 X3.8643 Y24.8410
G01 X3.7945 Y24.8375
G01 X3.7797 Y24.8366
G01 X3.7552 Y24.8340
G01 X3.6766 Y24.8225
G01 X3.6490 Y24.8176
G01 X3.6285 Y24.8129
G01 X3.5608 Y24.7959
G01 X3.5377 Y24.7896
G01 X3.5138 Y24.7817
G01 X3.4481 Y24.7582
G01 X3.4185 Y24.7465
G01 X3.3391 Y24.7093
G01 X3.3171 Y24.6982
G01 X3.2963 Y24.6864
G01 X3.2364 Y24.6505
G01 X3.2183 Y24.6391
G01 X3.1956 Y24.6232
G01 X3.1395 Y24.5816
G01 X3.1178 Y24.5646
G01 X3.1016 Y24.5505
G01 X3.0499 Y24.5036
G01 X3.0349 Y24.4895
G01 X3.0152 Y24.4689
G01 X2.9683 Y24.4172
G01 X2.9558 Y24.4028
G01 X2.9372 Y24.3793
G01 X2.8956 Y24.3232
G01 X2.8804 Y24.3016
G01 X2.8683 Y24.2824
G01 X2.8253 Y24.2103
G01 X2.8138 Y24.1886
G01 X2.7794 Y24.1161
G01 X2.7696 Y24.0940
G01 X2.7606 Y24.0707
G01 X2.7371 Y24.0050
G01 X2.7285 Y23.9786
G01 X2.7229 Y23.9580
G01 X2.7054 Y23.8883
G01 X2.7001 Y23.8643
G01 X2.6963 Y23.8422
G01 X2.6860 Y23.7725
G01 X2.6844 Y23.7603
G01 X2.6820 Y23.7362
G01 X2.6778 Y23.6545
G01 X2.6772 Y23.6300
G01 X2.6778 Y23.6055
G01 X2.6813 Y23.5357
G01 X2.6832 Y23.5096
G01 X2.6861 Y23.4869
G01 X2.6967 Y23.4156
G01 X2.7010 Y23.3914
G01 X2.7059 Y23.3697
G01 X2.7229 Y23.3020
G01 X2.7291 Y23.2794
G01 X2.7371 Y23.2550
G01 X2.7606 Y23.1893
G01 X2.7704 Y23.1641
G01 X2.7794 Y23.1439
G01 X2.8093 Y23.0808
G01 X2.8195 Y23.0604
G01 X2.8324 Y23.0375
G01 X2.8683 Y22.9776
G01 X2.8804 Y22.9584
G01 X2.8956 Y22.9368
G01 X2.9372 Y22.8807
G01 X2.9558 Y22.8572
G01 X2.9683 Y22.8428
G01 X3.0152 Y22.7911
G01 X3.0349 Y22.7705
G01 X3.0499 Y22.7564
G01 X3.1016 Y22.7095
G01 X3.1178 Y22.6954
G01 X3.1395 Y22.6784
G01 X3.2073 Y22.6283
G01 X3.2278 Y22.6148
G01 X3.2963 Y22.5736
G01 X3.3190 Y22.5608
G01 X3.3396 Y22.5505
G01 X3.4080 Y22.5182
G01 X3.4288 Y22.5092
G01 X3.4481 Y22.5018
G01 X3.5138 Y22.4783
G01 X3.5377 Y22.4704
G01 X3.5608 Y22.4641
G01 X3.6285 Y22.4471
G01 X3.6490 Y22.4424
G01 X3.6766 Y22.4375
G01 X3.7552 Y22.4260
G01 X3.7797 Y22.4234
G01 X3.8643 Y22.4190
G01 X3.8888 Y22.4184
G01 X5.3112 Y22.4184
G01 X5.3357 Y22.4190
G01 X5.4055 Y22.4225
G01 X5.4352 Y22.4248
G01 X5.4543 Y22.4273
G01 X5.5234 Y22.4375
G01 X5.5403 Y22.4403
G01 X5.5611 Y22.4446
G01 X5.6392 Y22.4641
G01 X5.6635 Y22.4708
G01 X5.6862 Y22.4783
G01 X5.7519 Y22.5018
G01 X5.7815 Y22.5135
G01 X5.8609 Y22.5507
G01 X5.8829 Y22.5618
G01 X5.9037 Y22.5736
G01 X5.9636 Y22.6095
G01 X5.9817 Y22.6209
G01 X5.9932 Y22.6287
G01 X6.0605 Y22.6784
G01 X6.0829 Y22.6960
G01 X6.0984 Y22.7095
G01 X6.1501 Y22.7564
G01 X6.1723 Y22.7778
G01 X6.1848 Y22.7911
G01 X6.2317 Y22.8428
G01 X6.2454 Y22.8585
G01 X6.2543 Y22.8695
G01 X6.3111 Y22.9460
G01 X6.3247 Y22.9663
G01 X6.3316 Y22.9775
G01 X22.6997 Y22.9775
G01 X23.2625 Y22.4147
G01 X23.2625 Y19.4652
G01 X23.2525 Y19.4929
G01 X23.2482 Y19.5038
G01 X23.2379 Y19.5271
G01 X23.2231 Y19.5576
G01 X23.2159 Y19.5709
G01 X23.2006 Y19.5968
G01 X23.1906 Y19.6128
G01 X23.1822 Y19.6253
G01 X23.1581 Y19.6580
G01 X23.1426 Y19.6770
G01 X23.1149 Y19.7076
G01 X21.2626 Y21.5599
G01 X21.2425 Y21.5783
G01 X21.2213 Y21.5965
G01 X21.2046 Y21.6095
G01 X21.1803 Y21.6272
G01 X21.1599 Y21.6407
G01 X21.1389 Y21.6533
G01 X21.1126 Y21.6681
G01 X21.0957 Y21.6765
G01 X21.0697 Y21.6885
G01 X21.0479 Y21.6975
G01 X21.0227 Y21.7067
G01 X20.9963 Y21.7153
G01 X20.9758 Y21.7209
G01 X20.9410 Y21.7292
G01 X20.9308 Y21.7312
G01 X20.8983 Y21.7363
G01 X20.8802 Y21.7387
G01 X20.8597 Y21.7405
G01 X20.8345 Y21.7419
G01 X20.8100 Y21.7425
G01 X6.3316 Y21.7425
G01 X6.3247 Y21.7537
G01 X6.3111 Y21.7740
G01 X6.2543 Y21.8505
G01 X6.2454 Y21.8615
G01 X6.2317 Y21.8772
G01 X6.1848 Y21.9289
G01 X6.1723 Y21.9422
G01 X6.1501 Y21.9636
G01 X6.0984 Y22.0105
G01 X6.0750 Y22.0305
G01 X6.0605 Y22.0416
G01 X6.0044 Y22.0832
G01 X5.9921 Y22.0920
G01 X5.9717 Y22.1055
G01 X5.9006 Y22.1482
G01 X5.8791 Y22.1602
G01 X5.8604 Y22.1695
G01 X5.7973 Y22.1994
G01 X5.7799 Y22.2072
G01 X5.7519 Y22.2182
G01 X5.6862 Y22.2417
G01 X5.6635 Y22.2492
G01 X5.6514 Y22.2527
G01 X5.5715 Y22.2729
G01 X5.5507 Y22.2776
G01 X5.5234 Y22.2825
G01 X5.4543 Y22.2927
G01 X5.4352 Y22.2952
G01 X5.4055 Y22.2975
G01 X5.3357 Y22.3010
G01 X5.3112 Y22.3016
G01 X3.8888 Y22.3016
G01 X3.8643 Y22.3010
G01 X3.7797 Y22.2966
G01 X3.7552 Y22.2940
G01 X3.6766 Y22.2825
G01 X3.6593 Y22.2796
G01 X3.6387 Y22.2753
G01 X3.5608 Y22.2559
G01 X3.5377 Y22.2496
G01 X3.5138 Y22.2417
G01 X3.4481 Y22.2182
G01 X3.4282 Y22.2106
G01 X3.4027 Y22.1994
G01 X3.3391 Y22.1693
G01 X3.3171 Y22.1582
G01 X3.2963 Y22.1464
G01 X3.2364 Y22.1105
G01 X3.2183 Y22.0991
G01 X3.2068 Y22.0913
G01 X3.1395 Y22.0416
G01 X3.1178 Y22.0246
G01 X3.1016 Y22.0105
G01 X3.0499 Y21.9636
G01 X3.0349 Y21.9495
G01 X3.0152 Y21.9289
G01 X2.9620 Y21.8701
G01 X2.9463 Y21.8512
G01 X2.8956 Y21.7832
G01 X2.8804 Y21.7616
G01 X2.8683 Y21.7424
G01 X2.8253 Y21.6703
G01 X2.8138 Y21.6486
G01 X2.7794 Y21.5761
G01 X2.7696 Y21.5540
G01 X2.7606 Y21.5307
G01 X2.7371 Y21.4650
G01 X2.7285 Y21.4386
G01 X2.7229 Y21.4180
G01 X2.7026 Y21.3363
G01 X2.6981 Y21.3132
G01 X2.6860 Y21.2325
G01 X2.6830 Y21.2081
G01 X2.6813 Y21.1843
G01 X2.6778 Y21.1145
G01 X2.6772 Y21.0900
G01 X2.6778 Y21.0655
G01 X2.6813 Y20.9957
G01 X2.6832 Y20.9696
G01 X2.6861 Y20.9469
G01 X2.6987 Y20.8635
G01 X2.7033 Y20.8405
G01 X2.7229 Y20.7620
G01 X2.7291 Y20.7394
G01 X2.7371 Y20.7150
G01 X2.7606 Y20.6493
G01 X2.7654 Y20.6366
G01 X2.7748 Y20.6140
G01 X2.8093 Y20.5408
G01 X2.8195 Y20.5204
G01 X2.8324 Y20.4975
G01 X2.8683 Y20.4376
G01 X2.8804 Y20.4184
G01 X2.8956 Y20.3968
G01 X2.9372 Y20.3407
G01 X2.9558 Y20.3172
G01 X2.9683 Y20.3028
G01 X3.0152 Y20.2511
G01 X3.0349 Y20.2305
G01 X3.0499 Y20.2164
G01 X3.1016 Y20.1695
G01 X3.1178 Y20.1554
G01 X3.1395 Y20.1384
G01 X3.1956 Y20.0968
G01 X3.2193 Y20.0802
G01 X3.2364 Y20.0695
G01 X3.2976 Y20.0328
G01 X3.3190 Y20.0208
G01 X3.3396 Y20.0105
G01 X3.4027 Y19.9806
G01 X3.4193 Y19.9732
G01 X3.4481 Y19.9618
G01 X3.5138 Y19.9383
G01 X3.5377 Y19.9304
G01 X3.5608 Y19.9241
G01 X3.6285 Y19.9071
G01 X3.6593 Y19.9004
G01 X3.7457 Y19.8873
G01 X3.7648 Y19.8848
G01 X3.7945 Y19.8825
G01 X3.8643 Y19.8790
G01 X3.8888 Y19.8784
G01 X5.3112 Y19.8784
G01 X5.3357 Y19.8790
G01 X5.4055 Y19.8825
G01 X5.4352 Y19.8848
G01 X5.4543 Y19.8873
G01 X5.5234 Y19.8975
G01 X5.5507 Y19.9024
G01 X5.5715 Y19.9071
G01 X5.6392 Y19.9241
G01 X5.6635 Y19.9308
G01 X5.6862 Y19.9383
G01 X5.7519 Y19.9618
G01 X5.7815 Y19.9735
G01 X5.8609 Y20.0107
G01 X5.8829 Y20.0218
G01 X5.9037 Y20.0336
G01 X5.9636 Y20.0695
G01 X5.9817 Y20.0809
G01 X5.9932 Y20.0887
G01 X6.0605 Y20.1384
G01 X6.0829 Y20.1560
G01 X6.0984 Y20.1695
G01 X6.1501 Y20.2164
G01 X6.1723 Y20.2378
G01 X6.1848 Y20.2511
G01 X6.2317 Y20.3028
G01 X6.2454 Y20.3185
G01 X6.2543 Y20.3295
G01 X6.3111 Y20.4060
G01 X6.3247 Y20.4263
G01 X6.3316 Y20.4375
G01 X20.5397 Y20.4375
G01 X21.9925 Y18.9847
G01 X21.9925 Y17.9728
G01 X21.9824 Y17.9941
G01 X21.9709 Y18.0159
G01 X21.9507 Y18.0499
G01 X21.9372 Y18.0703
G01 X21.9195 Y18.0946
G01 X21.9065 Y18.1113
G01 X21.8883 Y18.1325
G01 X21.8699 Y18.1526
G01 X21.0114 Y19.0114
G01 X21.0026 Y19.0199
G01 X20.9825 Y19.0383
G01 X20.9613 Y19.0565
G01 X20.9446 Y19.0695
G01 X20.9203 Y19.0872
G01 X20.8999 Y19.1007
G01 X20.8789 Y19.1133
G01 X20.8526 Y19.1281
G01 X20.8357 Y19.1365
G01 X20.8097 Y19.1485
G01 X20.7879 Y19.1575
G01 X20.7627 Y19.1667
G01 X20.7363 Y19.1753
G01 X20.7158 Y19.1809
G01 X20.6911 Y19.1870
G01 X20.6708 Y19.1912
G01 X20.6383 Y19.1963
G01 X20.6100 Y19.1997
G01 X20.5745 Y19.2019
G01 X20.5500 Y19.2025
G01 X6.3316 Y19.2025
G01 X6.3247 Y19.2137
G01 X6.3111 Y19.2340
G01 X6.2543 Y19.3105
G01 X6.2454 Y19.3215
G01 X6.2317 Y19.3372
G01 X6.1848 Y19.3889
G01 X6.1723 Y19.4022
G01 X6.1501 Y19.4236
G01 X6.0984 Y19.4705
G01 X6.0750 Y19.4905
G01 X6.0605 Y19.5016
G01 X6.0044 Y19.5432
G01 X5.9921 Y19.5520
G01 X5.9717 Y19.5655
G01 X5.9006 Y19.6082
G01 X5.8791 Y19.6202
G01 X5.8604 Y19.6295
G01 X5.7973 Y19.6594
G01 X5.7799 Y19.6672
G01 X5.7519 Y19.6782
G01 X5.6862 Y19.7017
G01 X5.6635 Y19.7092
G01 X5.6514 Y19.7127
G01 X5.5715 Y19.7329
G01 X5.5507 Y19.7376
G01 X5.5234 Y19.7425
G01 X5.4543 Y19.7527
G01 X5.4352 Y19.7552
G01 X5.4055 Y19.7575
G01 X5.3357 Y19.7610
G01 X5.3112 Y19.7616
G01 X3.8888 Y19.7616
G01 X3.8643 Y19.7610
G01 X3.7797 Y19.7566
G01 X3.7648 Y19.7552
G01 X3.7457 Y19.7527
G01 X3.6766 Y19.7425
G01 X3.6490 Y19.7376
G01 X3.6285 Y19.7329
G01 X3.5492 Y19.7129
G01 X3.5257 Y19.7058
G01 X3.5138 Y19.7017
G01 X3.4481 Y19.6782
G01 X3.4282 Y19.6706
G01 X3.4027 Y19.6594
G01 X3.3391 Y19.6293
G01 X3.3281 Y19.6239
G01 X3.3067 Y19.6124
G01 X3.2364 Y19.5705
G01 X3.2183 Y19.5591
G01 X3.1956 Y19.5432
G01 X3.1395 Y19.5016
G01 X3.1178 Y19.4846
G01 X3.1016 Y19.4705
G01 X3.0499 Y19.4236
G01 X3.0277 Y19.4022
G01 X3.0152 Y19.3889
G01 X2.9683 Y19.3372
G01 X2.9558 Y19.3228
G01 X2.9372 Y19.2993
G01 X2.8956 Y19.2432
G01 X2.8804 Y19.2216
G01 X2.8683 Y19.2024
G01 X2.8324 Y19.1425
G01 X2.8186 Y19.1178
G01 X2.8093 Y19.0992
G01 X2.7794 Y19.0361
G01 X2.7696 Y19.0140
G01 X2.7606 Y18.9907
G01 X2.7326 Y18.9119
G01 X2.7256 Y18.8884
G01 X2.7059 Y18.8103
G01 X2.7026 Y18.7963
G01 X2.6981 Y18.7732
G01 X2.6860 Y18.6925
G01 X2.6830 Y18.6681
G01 X2.6813 Y18.6443
G01 X2.6778 Y18.5745
G01 X2.6772 Y18.5500
G01 X2.6778 Y18.5255
G01 X2.6813 Y18.4557
G01 X2.6821 Y18.4426
G01 X2.6845 Y18.4182
G01 X2.6963 Y18.3378
G01 X2.7010 Y18.3114
G01 X2.7059 Y18.2897
G01 X2.7229 Y18.2220
G01 X2.7291 Y18.1994
G01 X2.7371 Y18.1750
G01 X2.7654 Y18.0966
G01 X2.7748 Y18.0740
G01 X2.8093 Y18.0008
G01 X2.8195 Y17.9804
G01 X2.8324 Y17.9575
G01 X2.8743 Y17.8879
G01 X2.8879 Y17.8675
G01 X2.9372 Y17.8007
G01 X2.9558 Y17.7772
G01 X2.9683 Y17.7628
G01 X3.0152 Y17.7111
G01 X3.0277 Y17.6978
G01 X3.0499 Y17.6764
G01 X3.1016 Y17.6295
G01 X3.1178 Y17.6154
G01 X3.1395 Y17.5984
G01 X3.1956 Y17.5568
G01 X3.2073 Y17.5483
G01 X3.2278 Y17.5348
G01 X3.2976 Y17.4928
G01 X3.3190 Y17.4808
G01 X3.3396 Y17.4705
G01 X3.4027 Y17.4406
G01 X3.4193 Y17.4332
G01 X3.4481 Y17.4218
G01 X3.5138 Y17.3983
G01 X3.5377 Y17.3904
G01 X3.5608 Y17.3841
G01 X3.6285 Y17.3671
G01 X3.6490 Y17.3624
G01 X3.6766 Y17.3575
G01 X3.7552 Y17.3460
G01 X3.7797 Y17.3434
G01 X3.7945 Y17.3425
G01 X3.8643 Y17.3390
G01 X3.8888 Y17.3384
G01 X5.3112 Y17.3384
G01 X5.3357 Y17.3390
G01 X5.4055 Y17.3425
G01 X5.4352 Y17.3448
G01 X5.4543 Y17.3473
G01 X5.5234 Y17.3575
G01 X5.5507 Y17.3624
G01 X5.5715 Y17.3671
G01 X5.6392 Y17.3841
G01 X5.6635 Y17.3908
G01 X5.6862 Y17.3983
G01 X5.7519 Y17.4218
G01 X5.7815 Y17.4335
G01 X5.8609 Y17.4707
G01 X5.8829 Y17.4818
G01 X5.9037 Y17.4936
G01 X5.9636 Y17.5295
G01 X5.9817 Y17.5409
G01 X5.9932 Y17.5487
G01 X6.0605 Y17.5984
G01 X6.0829 Y17.6160
G01 X6.0984 Y17.6295
G01 X6.1501 Y17.6764
G01 X6.1723 Y17.6978
G01 X6.1848 Y17.7111
G01 X6.2317 Y17.7628
G01 X6.2454 Y17.7785
G01 X6.2543 Y17.7895
G01 X6.3111 Y17.8660
G01 X6.3247 Y17.8863
G01 X6.3316 Y17.8975
G01 X20.2797 Y17.8975
G01 X20.7150 Y17.4622
G01 X20.6905 Y17.4805
G01 X20.6779 Y17.4890
G01 X20.6543 Y17.5034
G01 X20.6325 Y17.5153
G01 X20.6214 Y17.5208
G01 X20.6005 Y17.5302
G01 X20.5793 Y17.5386
G01 X20.5560 Y17.5467
G01 X20.5433 Y17.5505
G01 X20.5175 Y17.5572
G01 X20.5045 Y17.5600
G01 X20.4914 Y17.5625
G01 X20.4672 Y17.5661
G01 X20.4451 Y17.5684
G01 X20.4228 Y17.5697
G01 X20.4050 Y17.5700
G01 X19.8050 Y17.5700
G01 X19.7872 Y17.5697
G01 X19.7649 Y17.5684
G01 X19.7317 Y17.5646
G01 X19.7055 Y17.5600
G01 X19.6795 Y17.5540
G01 X19.6540 Y17.5467
G01 X19.6307 Y17.5386
G01 X19.6095 Y17.5302
G01 X19.5990 Y17.5256
G01 X19.5775 Y17.5153
G01 X19.5557 Y17.5034
G01 X19.5321 Y17.4890
G01 X19.5195 Y17.4805
G01 X19.4991 Y17.4655
G01 X19.4794 Y17.4495
G01 X19.4606 Y17.4325
G01 X19.4425 Y17.4144
G01 X19.4255 Y17.3956
G01 X19.4095 Y17.3759
G01 X19.3945 Y17.3555
G01 X19.3860 Y17.3429
G01 X19.3716 Y17.3193
G01 X19.3597 Y17.2975
G01 X19.3494 Y17.2760
G01 X19.3405 Y17.2550
G01 X19.3325 Y17.2336
G01 X19.3245 Y17.2083
G01 X19.3178 Y17.1825
G01 X19.3150 Y17.1695
G01 X19.3104 Y17.1433
G01 X19.3076 Y17.1212
G01 X19.3053 Y17.0878
G01 X19.3050 Y17.0700
G01 X19.3050 Y16.6625
G01 X6.3316 Y16.6625
G01 X6.3247 Y16.6737
G01 X6.3111 Y16.6940
G01 X6.2543 Y16.7705
G01 X6.2454 Y16.7815
G01 X6.2317 Y16.7972
G01 X6.1848 Y16.8489
G01 X6.1723 Y16.8622
G01 X6.1501 Y16.8836
G01 X6.0984 Y16.9305
G01 X6.0750 Y16.9505
G01 X6.0605 Y16.9616
G01 X6.0044 Y17.0032
G01 X5.9921 Y17.0120
G01 X5.9717 Y17.0255
G01 X5.9006 Y17.0682
G01 X5.8791 Y17.0802
G01 X5.8604 Y17.0895
G01 X5.7973 Y17.1194
G01 X5.7799 Y17.1272
G01 X5.7519 Y17.1382
G01 X5.6862 Y17.1617
G01 X5.6635 Y17.1692
G01 X5.6514 Y17.1727
G01 X5.5715 Y17.1929
G01 X5.5507 Y17.1976
G01 X5.5234 Y17.2025
G01 X5.4543 Y17.2127
G01 X5.4352 Y17.2152
G01 X5.4055 Y17.2175
G01 X5.3357 Y17.2210
G01 X5.3112 Y17.2216
G01 X3.8888 Y17.2216
G01 X3.8643 Y17.2210
G01 X3.7797 Y17.2166
G01 X3.7552 Y17.2140
G01 X3.6766 Y17.2025
G01 X3.6593 Y17.1996
G01 X3.6387 Y17.1953
G01 X3.5608 Y17.1759
G01 X3.5377 Y17.1696
G01 X3.5138 Y17.1617
G01 X3.4481 Y17.1382
G01 X3.4282 Y17.1306
G01 X3.4027 Y17.1194
G01 X3.3391 Y17.0893
G01 X3.3171 Y17.0782
G01 X3.2963 Y17.0664
G01 X3.2364 Y17.0305
G01 X3.2183 Y17.0191
G01 X3.2068 Y17.0113
G01 X3.1395 Y16.9616
G01 X3.1178 Y16.9446
G01 X3.1016 Y16.9305
G01 X3.0499 Y16.8836
G01 X3.0349 Y16.8695
G01 X3.0152 Y16.8489
G01 X2.9620 Y16.7901
G01 X2.9463 Y16.7712
G01 X2.8956 Y16.7032
G01 X2.8804 Y16.6816
G01 X2.8683 Y16.6624
G01 X2.8324 Y16.6025
G01 X2.8186 Y16.5778
G01 X2.8093 Y16.5592
G01 X2.7744 Y16.4852
G01 X2.7650 Y16.4624
G01 X2.7371 Y16.3850
G01 X2.7285 Y16.3586
G01 X2.7229 Y16.3380
G01 X2.7054 Y16.2683
G01 X2.7001 Y16.2443
G01 X2.6963 Y16.2222
G01 X2.6860 Y16.1525
G01 X2.6844 Y16.1403
G01 X2.6820 Y16.1162
G01 X2.6778 Y16.0345
G01 X2.6772 Y16.0100
G01 X2.6778 Y15.9855
G01 X2.6821 Y15.9031
G01 X2.6845 Y15.8787
G01 X2.6963 Y15.7978
G01 X2.7005 Y15.7736
G01 X2.7059 Y15.7497
G01 X2.7229 Y15.6820
G01 X2.7292 Y15.6589
G01 X2.7371 Y15.6350
G01 X2.7647 Y15.5582
G01 X2.7741 Y15.5356
G01 X2.8093 Y15.4608
G01 X2.8157 Y15.4476
G01 X2.8274 Y15.4260
G01 X2.8684 Y15.3575
G01 X2.8815 Y15.3368
G01 X2.8956 Y15.3168
G01 X2.9445 Y15.2511
G01 X2.9601 Y15.2321
G01 X3.0152 Y15.1711
G01 X3.0321 Y15.1533
G01 X3.0499 Y15.1364
G01 X3.1016 Y15.0895
G01 X3.1207 Y15.0731
G01 X3.1395 Y15.0584
G01 X3.2043 Y15.0105
G01 X3.2246 Y14.9968
G01 X3.2364 Y14.9895
G01 X3.2963 Y14.9536
G01 X3.3181 Y14.9413
G01 X3.3396 Y14.9305
G01 X3.4027 Y14.9006
G01 X3.4261 Y14.8903
G01 X3.4481 Y14.8818
G01 X3.5138 Y14.8583
G01 X3.5377 Y14.8504
G01 X3.5608 Y14.8441
G01 X3.6285 Y14.8271
G01 X3.6506 Y14.8221
G01 X3.6766 Y14.8175
G01 X3.7457 Y14.8073
G01 X3.7597 Y14.8054
G01 X3.7841 Y14.8031
G01 X3.8643 Y14.7990
G01 X3.8888 Y14.7984
G01 X5.3112 Y14.7984
G01 X5.3357 Y14.7990
G01 X5.4055 Y14.8025
G01 X5.4262 Y14.8039
G01 X5.4543 Y14.8073
G01 X5.5234 Y14.8175
G01 X5.5489 Y14.8220
G01 X5.5715 Y14.8271
G01 X5.6392 Y14.8441
G01 X5.6635 Y14.8508
G01 X5.6862 Y14.8583
G01 X5.7519 Y14.8818
G01 X5.7739 Y14.8903
G01 X5.7973 Y14.9006
G01 X5.8604 Y14.9305
G01 X5.8810 Y14.9408
G01 X5.9037 Y14.9536
G01 X5.9636 Y14.9895
G01 X5.9859 Y15.0037
G01 X6.0044 Y15.0168
G01 X6.0605 Y15.0584
G01 X6.0805 Y15.0740
G01 X6.0984 Y15.0895
G01 X6.1501 Y15.1364
G01 X6.1679 Y15.1533
G01 X6.1848 Y15.1711
G01 X6.2317 Y15.2228
G01 X6.2490 Y15.2430
G01 X6.2628 Y15.2607
G01 X6.3054 Y15.3182
G01 X6.3196 Y15.3384
G01 X6.3316 Y15.3575
G01 X19.3050 Y15.3575
G01 X19.3050 Y14.8700
G01 X19.3060 Y14.8383
G01 X19.3084 Y14.8114
G01 X19.3120 Y14.7868
G01 X19.3163 Y14.7644
G01 X19.3216 Y14.7423
G01 X19.3286 Y14.7183
G01 X19.3364 Y14.6957
G01 X19.3448 Y14.6745
G01 X19.3548 Y14.6525
G01 X8.1000 Y14.6525
G01 X8.0822 Y14.6522
G01 X8.0605 Y14.6511
G01 X8.0398 Y14.6497
G01 X8.0257 Y14.6482
G01 X7.9969 Y14.6441
G01 X7.9705 Y14.6395
G01 X7.9488 Y14.6346
G01 X7.9227 Y14.6279
G01 X7.8992 Y14.6208
G01 X7.8873 Y14.6167
G01 X7.8513 Y14.6032
G01 X7.8279 Y14.5929
G01 X7.8021 Y14.5805
G01 X7.7805 Y14.5688
G01 X7.7582 Y14.5556
G01 X7.7470 Y14.5487
G01 X7.7266 Y14.5350
G01 X7.7054 Y14.5195
G01 X7.6876 Y14.5056
G01 X7.6675 Y14.4883
G01 X7.6478 Y14.4703
G01 X7.2297 Y14.0525
G01 X6.3734 Y14.0525
G01 X6.3317 Y14.1224
G01 X6.3247 Y14.1337
G01 X6.3111 Y14.1540
G01 X6.2545 Y14.2302
G01 X6.2468 Y14.2397
G01 X6.2317 Y14.2572
G01 X6.1848 Y14.3089
G01 X6.1679 Y14.3267
G01 X6.1501 Y14.3436
G01 X6.0984 Y14.3905
G01 X6.0805 Y14.4060
G01 X6.0706 Y14.4140
G01 X5.9952 Y14.4699
G01 X5.9749 Y14.4835
G01 X5.9636 Y14.4905
G01 X5.9037 Y14.5264
G01 X5.8810 Y14.5392
G01 X5.8604 Y14.5495
G01 X5.7973 Y14.5794
G01 X5.7739 Y14.5897
G01 X5.7519 Y14.5982
G01 X5.6862 Y14.6217
G01 X5.6635 Y14.6292
G01 X5.6514 Y14.6327
G01 X5.5603 Y14.6556
G01 X5.5362 Y14.6604
G01 X5.5234 Y14.6625
G01 X5.4543 Y14.6727
G01 X5.4262 Y14.6761
G01 X5.4055 Y14.6775
G01 X5.3357 Y14.6810
G01 X5.3112 Y14.6816
G01 X3.8888 Y14.6816
G01 X3.8643 Y14.6810
G01 X3.7841 Y14.6769
G01 X3.7597 Y14.6746
G01 X3.7457 Y14.6727
G01 X3.6766 Y14.6625
G01 X3.6506 Y14.6579
G01 X3.6285 Y14.6529
G01 X3.5608 Y14.6359
G01 X3.5377 Y14.6296
G01 X3.5138 Y14.6217
G01 X3.4481 Y14.5982
G01 X3.4261 Y14.5897
G01 X3.4027 Y14.5794
G01 X3.3396 Y14.5495
G01 X3.3181 Y14.5387
G01 X3.3071 Y14.5327
G01 X3.2364 Y14.4905
G01 X3.2130 Y14.4756
G01 X3.1956 Y14.4632
G01 X3.1395 Y14.4216
G01 X3.1207 Y14.4069
G01 X3.1016 Y14.3905
G01 X3.0499 Y14.3436
G01 X3.0321 Y14.3267
G01 X3.0152 Y14.3089
G01 X2.9683 Y14.2572
G01 X2.9521 Y14.2384
G01 X2.9372 Y14.2193
G01 X2.8956 Y14.1632
G01 X2.8804 Y14.1416
G01 X2.8683 Y14.1224
G01 X2.8276 Y14.0542
G01 X2.8153 Y14.0315
G01 X2.8093 Y14.0192
G01 X2.7794 Y13.9561
G01 X2.7691 Y13.9327
G01 X2.7606 Y13.9107
G01 X2.7371 Y13.8450
G01 X2.7292 Y13.8211
G01 X2.7229 Y13.7980
G01 X2.7059 Y13.7303
G01 X2.7005 Y13.7064
G01 X2.6963 Y13.6822
G01 X2.6861 Y13.6131
G01 X2.6832 Y13.5895
G01 X2.6813 Y13.5643
G01 X2.6774 Y13.4823
G01 X2.6774 Y13.4577
G01 X2.6778 Y13.4455
G01 X2.6813 Y13.3757
G01 X2.6832 Y13.3505
G01 X2.6861 Y13.3269
G01 X2.6963 Y13.2578
G01 X2.7005 Y13.2336
G01 X2.7059 Y13.2097
G01 X2.7229 Y13.1420
G01 X2.7292 Y13.1189
G01 X2.7371 Y13.0950
G01 X2.7606 Y13.0293
G01 X2.7691 Y13.0073
G01 X2.7794 Y12.9839
G01 X2.8093 Y12.9208
G01 X2.8157 Y12.9076
G01 X2.8274 Y12.8860
G01 X2.8684 Y12.8175
G01 X2.8815 Y12.7968
G01 X2.8956 Y12.7768
G01 X2.9372 Y12.7207
G01 X2.9521 Y12.7016
G01 X2.9683 Y12.6828
G01 X3.0152 Y12.6311
G01 X3.0321 Y12.6133
G01 X3.0499 Y12.5964
G01 X3.1016 Y12.5495
G01 X3.1110 Y12.5412
G01 X3.1300 Y12.5256
G01 X3.1956 Y12.4768
G01 X3.2130 Y12.4644
G01 X3.2364 Y12.4495
G01 X3.2963 Y12.4136
G01 X3.3181 Y12.4013
G01 X3.3396 Y12.3905
G01 X3.4027 Y12.3606
G01 X3.4261 Y12.3503
G01 X3.4481 Y12.3418
G01 X3.5138 Y12.3183
G01 X3.5377 Y12.3104
G01 X3.5608 Y12.3041
G01 X3.6285 Y12.2871
G01 X3.6506 Y12.2821
G01 X3.6766 Y12.2775
G01 X3.7457 Y12.2673
G01 X3.7738 Y12.2639
G01 X3.7945 Y12.2625
G01 X3.8643 Y12.2590
G01 X3.8888 Y12.2584
G01 X5.3112 Y12.2584
G01 X5.3357 Y12.2590
G01 X5.4055 Y12.2625
G01 X5.4262 Y12.2639
G01 X5.4543 Y12.2673
G01 X5.5362 Y12.2796
G01 X5.5489 Y12.2820
G01 X5.5715 Y12.2871
G01 X5.6392 Y12.3041
G01 X5.6635 Y12.3108
G01 X5.6862 Y12.3183
G01 X5.7519 Y12.3418
G01 X5.7739 Y12.3503
G01 X5.7973 Y12.3606
G01 X5.8604 Y12.3905
G01 X5.8810 Y12.4008
G01 X5.9037 Y12.4136
G01 X5.9749 Y12.4565
G01 X5.9859 Y12.4637
G01 X6.0044 Y12.4768
G01 X6.0605 Y12.5184
G01 X6.0805 Y12.5340
G01 X6.0984 Y12.5495
G01 X6.1591 Y12.6047
G01 X6.1765 Y12.6221
G01 X6.1848 Y12.6311
G01 X6.2405 Y12.6928
G01 X6.2560 Y12.7118
G01 X6.2827 Y12.7475
G01 X7.5000 Y12.7475
G01 X7.5182 Y12.7479
G01 X7.5499 Y12.7495
G01 X7.5743 Y12.7518
G01 X7.6031 Y12.7559
G01 X7.6287 Y12.7603
G01 X7.6658 Y12.7691
G01 X7.6900 Y12.7758
G01 X7.7127 Y12.7833
G01 X7.7378 Y12.7924
G01 X7.7605 Y12.8018
G01 X7.7857 Y12.8135
G01 X7.8062 Y12.8239
G01 X7.8289 Y12.8367
G01 X7.8530 Y12.8513
G01 X7.8734 Y12.8650
G01 X7.9047 Y12.8882
G01 X7.9236 Y12.9038
G01 X7.9436 Y12.9217
G01 X7.9614 Y12.9386
G01 X8.3703 Y13.3475
G01 X10.1248 Y13.3475
G01 X8.3297 Y11.5525
G01 X6.3496 Y11.5525
G01 X6.3247 Y11.5937
G01 X6.3111 Y11.6140
G01 X6.2545 Y11.6902
G01 X6.2468 Y11.6997
G01 X6.2317 Y11.7172
G01 X6.1765 Y11.7779
G01 X6.1591 Y11.7953
G01 X6.1501 Y11.8036
G01 X6.0984 Y11.8505
G01 X6.0805 Y11.8660
G01 X6.0605 Y11.8816
G01 X6.0044 Y11.9232
G01 X5.9859 Y11.9363
G01 X5.9749 Y11.9435
G01 X5.8924 Y11.9930
G01 X5.8810 Y11.9992
G01 X5.8604 Y12.0095
G01 X5.7973 Y12.0394
G01 X5.7739 Y12.0497
G01 X5.7519 Y12.0582
G01 X5.6862 Y12.0817
G01 X5.6635 Y12.0892
G01 X5.6514 Y12.0927
G01 X5.5715 Y12.1129
G01 X5.5489 Y12.1180
G01 X5.5234 Y12.1225
G01 X5.4543 Y12.1327
G01 X5.4262 Y12.1361
G01 X5.4055 Y12.1375
G01 X5.3357 Y12.1410
G01 X5.3112 Y12.1416
G01 X3.8888 Y12.1416
G01 X3.8643 Y12.1410
G01 X3.7841 Y12.1369
G01 X3.7597 Y12.1346
G01 X3.7457 Y12.1327
G01 X3.6766 Y12.1225
G01 X3.6506 Y12.1179
G01 X3.6285 Y12.1129
G01 X3.5608 Y12.0959
G01 X3.5377 Y12.0896
G01 X3.5138 Y12.0817
G01 X3.4481 Y12.0582
G01 X3.4261 Y12.0497
G01 X3.4027 Y12.0394
G01 X3.3396 Y12.0095
G01 X3.3181 Y11.9987
G01 X3.2963 Y11.9864
G01 X3.2364 Y11.9505
G01 X3.2130 Y11.9356
G01 X3.1956 Y11.9232
G01 X3.1395 Y11.8816
G01 X3.1207 Y11.8669
G01 X3.1016 Y11.8505
G01 X3.0499 Y11.8036
G01 X3.0321 Y11.7867
G01 X3.0152 Y11.7689
G01 X2.9601 Y11.7079
G01 X2.9521 Y11.6984
G01 X2.9372 Y11.6793
G01 X2.8956 Y11.6232
G01 X2.8804 Y11.6016
G01 X2.8683 Y11.5824
G01 X2.8276 Y11.5142
G01 X2.8153 Y11.4915
G01 X2.8093 Y11.4792
G01 X2.7741 Y11.4044
G01 X2.7647 Y11.3818
G01 X2.7371 Y11.3050
G01 X2.7292 Y11.2811
G01 X2.7229 Y11.2580
G01 X2.7059 Y11.1903
G01 X2.7005 Y11.1664
G01 X2.6983 Y11.1543
G01 X2.6861 Y11.0731
G01 X2.6832 Y11.0495
G01 X2.6813 Y11.0243
G01 X2.6778 Y10.9545
G01 X2.6772 Y10.9300
G01 X2.6778 Y10.9055
G01 X2.6813 Y10.8357
G01 X2.6832 Y10.8105
G01 X2.6861 Y10.7869
G01 X2.6963 Y10.7178
G01 X2.6983 Y10.7057
G01 X2.7031 Y10.6816
G01 X2.7229 Y10.6020
G01 X2.7292 Y10.5789
G01 X2.7371 Y10.5550
G01 X2.7647 Y10.4782
G01 X2.7741 Y10.4556
G01 X2.7794 Y10.4439
G01 X2.8093 Y10.3808
G01 X2.8226 Y10.3547
G01 X2.8324 Y10.3375
G01 X2.8684 Y10.2775
G01 X2.8815 Y10.2568
G01 X2.8956 Y10.2368
G01 X2.9372 Y10.1807
G01 X2.9521 Y10.1616
G01 X2.9683 Y10.1428
G01 X3.0152 Y10.0911
G01 X3.0321 Y10.0733
G01 X3.0409 Y10.0647
G01 X3.1016 Y10.0095
G01 X3.1207 Y9.9931
G01 X3.1395 Y9.9784
G01 X3.2043 Y9.9305
G01 X3.2246 Y9.9168
G01 X3.2364 Y9.9095
G01 X3.2963 Y9.8736
G01 X3.3181 Y9.8613
G01 X3.3396 Y9.8505
G01 X3.4027 Y9.8206
G01 X3.4144 Y9.8153
G01 X3.4370 Y9.8059
G01 X3.5257 Y9.7742
G01 X3.5377 Y9.7704
G01 X3.5608 Y9.7641
G01 X3.6395 Y9.7445
G01 X3.6636 Y9.7396
G01 X3.6766 Y9.7375
G01 X3.7597 Y9.7254
G01 X3.7841 Y9.7231
G01 X3.8643 Y9.7190
G01 X3.8888 Y9.7184
G01 X5.3112 Y9.7184
G01 X5.3357 Y9.7190
G01 X5.4055 Y9.7225
G01 X5.4262 Y9.7239
G01 X5.4543 Y9.7273
G01 X5.5234 Y9.7375
G01 X5.5489 Y9.7420
G01 X5.5715 Y9.7471
G01 X5.6392 Y9.7641
G01 X5.6635 Y9.7708
G01 X5.6862 Y9.7783
G01 X5.7519 Y9.8018
G01 X5.7739 Y9.8103
G01 X5.7856 Y9.8153
G01 X5.8708 Y9.8555
G01 X5.8924 Y9.8670
G01 X5.9037 Y9.8736
G01 X5.9749 Y9.9165
G01 X5.9859 Y9.9237
G01 X6.0044 Y9.9368
G01 X6.0605 Y9.9784
G01 X6.0805 Y9.9940
G01 X6.0984 Y10.0095
G01 X6.1501 Y10.0564
G01 X6.1679 Y10.0733
G01 X6.1765 Y10.0821
G01 X6.2405 Y10.1528
G01 X6.2490 Y10.1630
G01 X6.2628 Y10.1807
G01 X6.3121 Y10.2475
G01 X8.6000 Y10.2475
G01 X8.6245 Y10.2481
G01 X8.6602 Y10.2503
G01 X8.6743 Y10.2518
G01 X8.7031 Y10.2559
G01 X8.7295 Y10.2605
G01 X8.7512 Y10.2654
G01 X8.7773 Y10.2721
G01 X8.8008 Y10.2792
G01 X8.8378 Y10.2924
G01 X8.8605 Y10.3018
G01 X8.8979 Y10.3195
G01 X8.9100 Y10.3259
G01 X8.9289 Y10.3367
G01 X8.9530 Y10.3513
G01 X8.9641 Y10.3586
G01 X8.9946 Y10.3805
G01 X9.0124 Y10.3944
G01 X9.0226 Y10.4029
G01 X9.0522 Y10.4297
G01 X10.9703 Y12.3475
G01 X19.6568 Y12.3475
G01 X19.6442 Y12.3434
G01 X19.6220 Y12.3353
G01 X19.6108 Y12.3307
G01 X19.5886 Y12.3208
G01 X19.5775 Y12.3153
G01 X19.5557 Y12.3034
G01 X19.5344 Y12.2904
G01 X19.5239 Y12.2835
G01 X19.5035 Y12.2689
G01 X19.4937 Y12.2613
G01 X19.4747 Y12.2454
G01 X19.4562 Y12.2282
G01 X19.4471 Y12.2192
G01 X19.4383 Y12.2099
G01 X19.4226 Y12.1921
G01 X19.4077 Y12.1736
G01 X19.4006 Y12.1641
G01 X19.3934 Y12.1538
G01 X19.3796 Y12.1327
G01 X19.3665 Y12.1102
G01 X19.3602 Y12.0984
G01 X19.3542 Y12.0864
G01 X19.3448 Y12.0655
G01 X19.3364 Y12.0443
G01 X19.3325 Y12.0336
G01 X19.3286 Y12.0217
G01 X19.3216 Y11.9977
G01 X19.3163 Y11.9756
G01 X19.3140 Y11.9644
G01 X19.3102 Y11.9420
G01 X19.3084 Y11.9286
G01 X19.3060 Y11.9017
G01 X19.3050 Y11.8700
G01 X19.3050 Y9.6700
G01 X19.3060 Y9.6383
G01 X19.3070 Y9.6249
G01 X19.3102 Y9.5980
G01 X19.3140 Y9.5756
G01 X19.3188 Y9.5533
G01 X19.3249 Y9.5303
G01 X19.3291 Y9.5168
G01 X16.3147 Y6.5025
G01 X6.3316 Y6.5025
G01 X6.3247 Y6.5137
G01 X6.3111 Y6.5340
G01 X6.2552 Y6.6094
G01 X6.2472 Y6.6193
G01 X6.2317 Y6.6372
G01 X6.1765 Y6.6979
G01 X6.1591 Y6.7153
G01 X6.1501 Y6.7236
G01 X6.0984 Y6.7705
G01 X6.0805 Y6.7860
G01 X6.0605 Y6.8016
G01 X5.9952 Y6.8499
G01 X5.9749 Y6.8635
G01 X5.9636 Y6.8705
G01 X5.8924 Y6.9130
G01 X5.8810 Y6.9192
G01 X5.8604 Y6.9295
G01 X5.7856 Y6.9647
G01 X5.7739 Y6.9697
G01 X5.7519 Y6.9782
G01 X5.6862 Y7.0017
G01 X5.6635 Y7.0092
G01 X5.6392 Y7.0159
G01 X5.5603 Y7.0356
G01 X5.5362 Y7.0404
G01 X5.5234 Y7.0425
G01 X5.4543 Y7.0527
G01 X5.4307 Y7.0556
G01 X5.4055 Y7.0575
G01 X5.3203 Y7.0615
G01 X3.8797 Y7.0615
G01 X3.7945 Y7.0575
G01 X3.7693 Y7.0556
G01 X3.7457 Y7.0527
G01 X3.6766 Y7.0425
G01 X3.6636 Y7.0404
G01 X3.6395 Y7.0355
G01 X3.5608 Y7.0159
G01 X3.5377 Y7.0096
G01 X3.5138 Y7.0017
G01 X3.4481 Y6.9782
G01 X3.4261 Y6.9697
G01 X3.4027 Y6.9594
G01 X3.3396 Y6.9295
G01 X3.3181 Y6.9187
G01 X3.2963 Y6.9064
G01 X3.2364 Y6.8705
G01 X3.2246 Y6.8632
G01 X3.2043 Y6.8495
G01 X3.1395 Y6.8016
G01 X3.1207 Y6.7869
G01 X3.1016 Y6.7705
G01 X3.0499 Y6.7236
G01 X3.0321 Y6.7067
G01 X3.0152 Y6.6889
G01 X2.9610 Y6.6290
G01 X2.9454 Y6.6100
G01 X2.8956 Y6.5432
G01 X2.8804 Y6.5216
G01 X2.8683 Y6.5024
G01 X2.8263 Y6.4321
G01 X2.8148 Y6.4104
G01 X2.8093 Y6.3992
G01 X2.7741 Y6.3244
G01 X2.7647 Y6.3018
G01 X2.7525 Y6.2679
G01 X2.7525 Y7.7375
G01 X2.8684 Y7.7375
G01 X2.8804 Y7.7184
G01 X2.8956 Y7.6968
G01 X2.9372 Y7.6407
G01 X2.9539 Y7.6194
G01 X2.9683 Y7.6028
G01 X3.0152 Y7.5511
G01 X3.0321 Y7.5333
G01 X3.0409 Y7.5247
G01 X3.1110 Y7.4612
G01 X3.1207 Y7.4531
G01 X3.1395 Y7.4384
G01 X3.1956 Y7.3968
G01 X3.2130 Y7.3844
G01 X3.2364 Y7.3695
G01 X3.2963 Y7.3336
G01 X3.3181 Y7.3213
G01 X3.3396 Y7.3105
G01 X3.4144 Y7.2753
G01 X3.4370 Y7.2659
G01 X3.5138 Y7.2383
G01 X3.5377 Y7.2304
G01 X3.5608 Y7.2241
G01 X3.6285 Y7.2071
G01 X3.6506 Y7.2021
G01 X3.6766 Y7.1975
G01 X3.7457 Y7.1873
G01 X3.7693 Y7.1844
G01 X3.7945 Y7.1825
G01 X3.8797 Y7.1785
G01 X5.3112 Y7.1784
G01 X5.3357 Y7.1790
G01 X5.4055 Y7.1825
G01 X5.4307 Y7.1844
G01 X5.4543 Y7.1873
G01 X5.5234 Y7.1975
G01 X5.5489 Y7.2020
G01 X5.5715 Y7.2071
G01 X5.6392 Y7.2241
G01 X5.6635 Y7.2308
G01 X5.6862 Y7.2383
G01 X5.7630 Y7.2659
G01 X5.7856 Y7.2753
G01 X5.8604 Y7.3105
G01 X5.8810 Y7.3208
G01 X5.9037 Y7.3336
G01 X5.9749 Y7.3765
G01 X5.9952 Y7.3901
G01 X6.0605 Y7.4384
G01 X6.0805 Y7.4540
G01 X6.0984 Y7.4695
G01 X6.1501 Y7.5164
G01 X6.1679 Y7.5333
G01 X6.1848 Y7.5511
G01 X6.2396 Y7.6117
G01 X6.2552 Y7.6306
G01 X6.3044 Y7.6968
G01 X6.3175 Y7.7153
G01 X6.3317 Y7.7376
G01 X6.3731 Y7.8069
G01 X6.3847 Y7.8285
G01 X6.4206 Y7.9039
G01 X6.4309 Y7.9273
G01 X6.4394 Y7.9493
G01 X6.4629 Y8.0150
G01 X6.4708 Y8.0389
G01 X6.4771 Y8.0620
G01 X6.4941 Y8.1297
G01 X6.4990 Y8.1514
G01 X6.5037 Y8.1778
G01 X6.5155 Y8.2587
G01 X6.5179 Y8.2831
G01 X6.5187 Y8.2957
G01 X6.5226 Y8.3777
G01 X6.5226 Y8.4023
G01 X6.5187 Y8.4843
G01 X6.5179 Y8.4969
G01 X6.5155 Y8.5213
G01 X6.5037 Y8.6022
G01 X6.4990 Y8.6286
G01 X6.4941 Y8.6503
G01 X6.4771 Y8.7180
G01 X6.4708 Y8.7411
G01 X6.4629 Y8.7650
G01 X6.4394 Y8.8307
G01 X6.4309 Y8.8527
G01 X6.4206 Y8.8761
G01 X6.3907 Y8.9392
G01 X6.3847 Y8.9515
G01 X6.3731 Y8.9731
G01 X6.3317 Y9.0424
G01 X6.3175 Y9.0647
G01 X6.3044 Y9.0832
G01 X6.2620 Y9.1404
G01 X6.2468 Y9.1597
G01 X6.2317 Y9.1772
G01 X6.1848 Y9.2289
G01 X6.1679 Y9.2467
G01 X6.1501 Y9.2636
G01 X6.0984 Y9.3105
G01 X6.0805 Y9.3260
G01 X6.0605 Y9.3416
G01 X6.0044 Y9.3832
G01 X5.9859 Y9.3963
G01 X5.9749 Y9.4035
G01 X5.9037 Y9.4464
G01 X5.8810 Y9.4592
G01 X5.8604 Y9.4695
G01 X5.7856 Y9.5047
G01 X5.7739 Y9.5097
G01 X5.7519 Y9.5182
G01 X5.6862 Y9.5417
G01 X5.6635 Y9.5492
G01 X5.6392 Y9.5559
G01 X5.5715 Y9.5729
G01 X5.5489 Y9.5780
G01 X5.5362 Y9.5804
G01 X5.4403 Y9.5946
G01 X5.4159 Y9.5969
G01 X5.3294 Y9.6012
G01 X5.3112 Y9.6016
G01 X3.8888 Y9.6016
G01 X3.8706 Y9.6012
G01 X3.7945 Y9.5975
G01 X3.7738 Y9.5961
G01 X3.7457 Y9.5927
G01 X3.6766 Y9.5825
G01 X3.6636 Y9.5804
G01 X3.6395 Y9.5755
G01 X3.5492 Y9.5529
G01 X3.5257 Y9.5458
G01 X3.5138 Y9.5417
G01 X3.4481 Y9.5182
G01 X3.4261 Y9.5097
G01 X3.4027 Y9.4994
G01 X3.3288 Y9.4643
G01 X3.3071 Y9.4527
G01 X3.2963 Y9.4464
G01 X3.2246 Y9.4032
G01 X3.2043 Y9.3895
G01 X3.1395 Y9.3416
G01 X3.1207 Y9.3269
G01 X3.1110 Y9.3188
G01 X3.0499 Y9.2636
G01 X3.0321 Y9.2467
G01 X3.0152 Y9.2289
G01 X2.9601 Y9.1679
G01 X2.9445 Y9.1489
G01 X2.8879 Y9.0725
G01 X2.8804 Y9.0616
G01 X2.8684 Y9.0425
G01 X2.2900 Y9.0425
G01 X2.2655 Y9.0419
G01 X2.2298 Y9.0397
G01 X2.2017 Y9.0363
G01 X2.1739 Y9.0320
G01 X2.1609 Y9.0296
G01 X2.1242 Y9.0209
G01 X2.1012 Y9.0146
G01 X2.0773 Y9.0067
G01 X2.0413 Y8.9932
G01 X2.0179 Y8.9829
G01 X1.9935 Y8.9712
G01 X1.9828 Y8.9656
G01 X1.9719 Y8.9596
G01 X1.9482 Y8.9456
G01 X1.9364 Y8.9383
G01 X1.9161 Y8.9246
G01 X1.8859 Y8.9022
G01 X1.8669 Y8.8867
G01 X1.8575 Y8.8783
G01 X1.8378 Y8.8603
G01 X1.8286 Y8.8514
G01 X1.6386 Y8.6614
G01 X1.6217 Y8.6436
G01 X1.6029 Y8.6226
G01 X1.5873 Y8.6036
G01 X1.5640 Y8.5719
G01 X1.5506 Y8.5519
G01 X1.5313 Y8.5198
G01 X1.5193 Y8.4975
G01 X1.5020 Y8.4610
G01 X1.4926 Y8.4383
G01 X1.4833 Y8.4127
G01 X1.4757 Y8.3898
G01 X1.4691 Y8.3658
G01 X1.4626 Y8.3393
G01 X1.4601 Y8.3274
G01 X1.4578 Y8.3153
G01 X1.4537 Y8.2883
G01 X1.4506 Y8.2636
G01 X1.4496 Y8.2515
G01 X1.4481 Y8.2245
G01 X1.4475 Y8.2000
G01 X1.4475 Y4.6000
G01 X1.4481 Y4.5755
G01 X1.4496 Y4.5485
G01 X1.4506 Y4.5364
G01 X1.4537 Y4.5117
G01 X1.4577 Y4.4852
G01 X1.4625 Y4.4611
G01 X1.4724 Y4.4215
G01 X1.4796 Y4.3981
G01 X1.4884 Y4.3732
G00 Z2.0000
G00 X2.1438 Y3.7000
G01 F60.00
G01 Z-0.1500
G01 F120.00
G01 X0.5000 Y3.7000
G00 Z2.0000
G00 X20.7400 Y12.2411
G01 F60.00
G01 Z-0.1500
G01 F120.00
G01 X20.7163 Y12.2613
G01 X20.6965 Y12.2763
G01 X20.6756 Y12.2904
G01 X20.6543 Y12.3034
G01 X20.6325 Y12.3153
G01 X20.6103 Y12.3259
G01 X20.5992 Y12.3307
G01 X20.5766 Y12.3396
G01 X20.5532 Y12.3475
G01 X20.9268 Y12.3475
G01 X20.9034 Y12.3396
G01 X20.8920 Y12.3353
G01 X20.8697 Y12.3259
G01 X20.8475 Y12.3153
G01 X20.8257 Y12.3034
G01 X20.8044 Y12.2904
G01 X20.7835 Y12.2763
G01 X20.7637 Y12.2613
G01 X20.7400 Y12.2411
G00 Z2.0000
G00 X21.8232 Y12.3475
G01 F60.00
G01 Z-0.1500
G01 F120.00
G01 X21.9297 Y12.3475
G01 X21.9925 Y12.2847
G01 X21.9925 Y12.2562
G01 X21.9765 Y12.2689
G01 X21.9561 Y12.2835
G01 X21.9350 Y12.2971
G01 X21.9135 Y12.3095
G01 X21.8914 Y12.3208
G01 X21.8692 Y12.3307
G01 X21.8466 Y12.3396
G01 X21.8232 Y12.3475
G00 Z2.0000
G00 X22.8227 Y13.3000
G01 F60.00
G01 Z-0.1500
G01 F120.00
G01 X22.8773 Y13.3000
G01 X22.7752 Y13.3475
G01 X22.8297 Y13.3475
G01 X23.2625 Y12.9147
G01 X23.2625 Y12.7653
G01 X23.2530 Y12.7917
G01 X23.2450 Y12.8114
G01 X23.2379 Y12.8271
G01 X23.2255 Y12.8529
G01 X23.2138 Y12.8745
G01 X23.1957 Y12.9049
G01 X23.1822 Y12.9253
G01 X23.1645 Y12.9496
G01 X23.1480 Y12.9706
G01 X23.1233 Y12.9986
G01 X23.1064 Y13.0164
G01 X22.7752 Y13.3475
G00 Z2.0000
M05
G00 Z2.0000
G00 Z15.00
G00 X0.0 Y0.0

