(2 lavorazioni pcb)
(T1 D=0.8 CR=0 TAPER=118deg - ZMIN=-1.5 - foratura)
G90 G94
G17
G21
G28 G91 Z0
G90

(Foratura4)
M0
(MANUAL TOOL CHANGE TO T1)
S9000 M3
G17 G90 G94
G54
G0 X17.78 Y-19.04
Z8.1
G0 Z1.1
Z1
G1 Z-1.5 F50
G0 Z1.1
X15.24
Z1
G1 Z-1.5 F50
G0 Z1.1
X12.7
Z1
G1 Z-1.5 F50
G0 Z1.1
X10.16
Z1
G1 Z-1.5 F50
G0 Z1.1
X7.62
Z1
G1 Z-1.5 F50
G0 Z1.1
X5.08
Z1
G1 Z-1.5 F50
G0 Z1.1
X2.54
Z1
G1 Z-1.5 F50
G0 Z1.1
Y-2.53
Z1
G1 Z-1.5 F50
G0 Z1.1
X5.08
Z1
G1 Z-1.5 F50
G0 Z1.1
X7.62
Z1
G1 Z-1.5 F50
G0 Z1.1
X10.16
Z1
G1 Z-1.5 F50
G0 Z1.1
X12.7
Z1
G1 Z-1.5 F50
G0 Z1.1
X15.24
Z1
G1 Z-1.5 F50
G0 Z1.1
X17.78
Z1
G1 Z-1.5 F50
G0 Z1.1
Z8.1
G28 G91 Z0
G90
G28 G91 X0 Y0
G90
M5
M30
