(baglioni ceramiche)
(T1 D=1.5 CR=0 - ZMIN=-6 - Fresa cilindrica)
G90 G94
G17
G21
(When using Fusion 360 for Personal Use, the feedrate of)
(rapid moves is reduced to match the feedrate of cutting)
(moves, which can increase machining time. Unrestricted rapid)
(moves are available with a Fusion 360 Subscription.)
G28 G91 Z0
G90

(Contornatura 2D3)
M0
(MANUAL TOOL CHANGE TO T1)
S9000 M3
G17 G90 G94
G54
G0 X-8.285 Y-3.692
Z15
G1 Z5 F350
Z0.3 F175
Z-0.85
Y-3.685 Z-0.896 F262.5
Y-3.664 Z-0.938
Y-3.63 Z-0.971
Y-3.589 Z-0.993
Y-3.542 Z-1
Y-3.392
X-8.293 Y-3.346
X-8.314 Y-3.304
X-8.347 Y-3.271
X-8.389 Y-3.249
X-8.435 Y-3.242
X-14.75 F350
Y-15.871
X-1.25
Y-3.242
X-8.435
X-8.482 Y-3.249 F315
X-8.524 Y-3.271
X-8.557 Y-3.304
X-8.578 Y-3.346
X-8.585 Y-3.392
Y-3.542
Y-3.589 Z-0.993
Y-3.63 Z-0.971
Y-3.664 Z-0.938
Y-3.685 Z-0.896
Y-3.692 Z-0.85
Z5 F350
X-8.285
Z-0.7 F175
Z-1.85
Y-3.685 Z-1.896 F262.5
Y-3.664 Z-1.938
Y-3.63 Z-1.971
Y-3.589 Z-1.993
Y-3.542 Z-2
Y-3.392
X-8.293 Y-3.346
X-8.314 Y-3.304
X-8.347 Y-3.271
X-8.389 Y-3.249
X-8.435 Y-3.242
X-14.75 F350
Y-15.871
X-1.25
Y-3.242
X-8.435
X-8.482 Y-3.249 F315
X-8.524 Y-3.271
X-8.557 Y-3.304
X-8.578 Y-3.346
X-8.585 Y-3.392
Y-3.542
Y-3.589 Z-1.993
Y-3.63 Z-1.971
Y-3.664 Z-1.938
Y-3.685 Z-1.896
Y-3.692 Z-1.85
Z5 F350
X-8.285
Z-1.7 F175
Z-2.85
Y-3.685 Z-2.896 F262.5
Y-3.664 Z-2.938
Y-3.63 Z-2.971
Y-3.589 Z-2.993
Y-3.542 Z-3
Y-3.392
X-8.293 Y-3.346
X-8.314 Y-3.304
X-8.347 Y-3.271
X-8.389 Y-3.249
X-8.435 Y-3.242
X-14.75 F350
Y-15.871
X-1.25
Y-3.242
X-8.435
X-8.482 Y-3.249 F315
X-8.524 Y-3.271
X-8.557 Y-3.304
X-8.578 Y-3.346
X-8.585 Y-3.392
Y-3.542
Y-3.589 Z-2.993
Y-3.63 Z-2.971
Y-3.664 Z-2.938
Y-3.685 Z-2.896
Y-3.692 Z-2.85
Z5 F350
X-8.285
Z-2.7 F175
Z-3.85
Y-3.685 Z-3.896 F262.5
Y-3.664 Z-3.938
Y-3.63 Z-3.971
Y-3.589 Z-3.993
Y-3.542 Z-4
Y-3.392
X-8.293 Y-3.346
X-8.314 Y-3.304
X-8.347 Y-3.271
X-8.389 Y-3.249
X-8.435 Y-3.242
X-14.75 F350
Y-15.871
X-1.25
Y-3.242
X-8.435
X-8.482 Y-3.249 F315
X-8.524 Y-3.271
X-8.557 Y-3.304
X-8.578 Y-3.346
X-8.585 Y-3.392
Y-3.542
Y-3.589 Z-3.993
Y-3.63 Z-3.971
Y-3.664 Z-3.938
Y-3.685 Z-3.896
Y-3.692 Z-3.85
Z5 F350
X-8.285
Z-3.7 F175
Z-4.85
Y-3.685 Z-4.896 F262.5
Y-3.664 Z-4.938
Y-3.63 Z-4.971
Y-3.589 Z-4.993
Y-3.542 Z-5
Y-3.392
X-8.293 Y-3.346
X-8.314 Y-3.304
X-8.347 Y-3.271
X-8.389 Y-3.249
X-8.435 Y-3.242
X-14.75 F350
Y-15.871
X-1.25
Y-3.242
X-8.435
X-8.482 Y-3.249 F315
X-8.524 Y-3.271
X-8.557 Y-3.304
X-8.578 Y-3.346
X-8.585 Y-3.392
Y-3.542
Y-3.589 Z-4.993
Y-3.63 Z-4.971
Y-3.664 Z-4.938
Y-3.685 Z-4.896
Y-3.692 Z-4.85
Z5 F350
X-8.285
Z-4.7 F175
Z-5.85
Y-3.685 Z-5.896 F262.5
Y-3.664 Z-5.938
Y-3.63 Z-5.971
Y-3.589 Z-5.993
Y-3.542 Z-6
Y-3.392
X-8.293 Y-3.346
X-8.314 Y-3.304
X-8.347 Y-3.271
X-8.389 Y-3.249
X-8.435 Y-3.242
X-14.75 F350
Y-15.871
X-1.25
Y-3.242
X-8.435
X-8.482 Y-3.249 F315
X-8.524 Y-3.271
X-8.557 Y-3.304
X-8.578 Y-3.346
X-8.585 Y-3.392
Y-3.542
Y-3.589 Z-5.993
Y-3.63 Z-5.971
Y-3.664 Z-5.938
Y-3.685 Z-5.896
Y-3.692 Z-5.85
Z5 F350
X-9.242 Y5.424
Z0.3 F175
Z-0.85
X-9.237 Y5.429 Z-0.896 F262.5
X-9.222 Y5.444 Z-0.938
X-9.199 Y5.468 Z-0.971
X-9.169 Y5.497 Z-0.993
X-9.136 Y5.53 Z-1
X-9.03 Y5.636
X-9.003 Y5.674
X-8.988 Y5.719
Y5.766
X-9.003 Y5.81
X-9.03 Y5.848
X-14.54 Y11.358 F350
G2 X-14.75 Y11.212 I-2.96 J4.021
G1 Y0.129
X-3.311
X-9.03 Y5.848
X-9.068 Y5.876 F315
X-9.113 Y5.89
X-9.16
X-9.204 Y5.876
X-9.242 Y5.848
X-9.349 Y5.742
X-9.381 Y5.71 Z-0.993
X-9.411 Y5.68 Z-0.971
X-9.434 Y5.656 Z-0.938
X-9.449 Y5.641 Z-0.896
X-9.455 Y5.636 Z-0.85
Z5 F350
X-9.242 Y5.424
Z-0.7 F175
Z-1.85
X-9.237 Y5.429 Z-1.896 F262.5
X-9.222 Y5.444 Z-1.938
X-9.199 Y5.468 Z-1.971
X-9.169 Y5.497 Z-1.993
X-9.136 Y5.53 Z-2
X-9.03 Y5.636
X-9.003 Y5.674
X-8.988 Y5.719
Y5.766
X-9.003 Y5.81
X-9.03 Y5.848
X-14.54 Y11.358 F350
G2 X-14.75 Y11.212 I-2.96 J4.021
G1 Y0.129
X-3.311
X-9.03 Y5.848
X-9.068 Y5.876 F315
X-9.113 Y5.89
X-9.16
X-9.204 Y5.876
X-9.242 Y5.848
X-9.349 Y5.742
X-9.381 Y5.71 Z-1.993
X-9.411 Y5.68 Z-1.971
X-9.434 Y5.656 Z-1.938
X-9.449 Y5.641 Z-1.896
X-9.455 Y5.636 Z-1.85
Z5 F350
X-9.242 Y5.424
Z-1.7 F175
Z-2.85
X-9.237 Y5.429 Z-2.896 F262.5
X-9.222 Y5.444 Z-2.938
X-9.199 Y5.468 Z-2.971
X-9.169 Y5.497 Z-2.993
X-9.136 Y5.53 Z-3
X-9.03 Y5.636
X-9.003 Y5.674
X-8.988 Y5.719
Y5.766
X-9.003 Y5.81
X-9.03 Y5.848
X-14.54 Y11.358 F350
G2 X-14.75 Y11.212 I-2.96 J4.021
G1 Y0.129
X-3.311
X-9.03 Y5.848
X-9.068 Y5.876 F315
X-9.113 Y5.89
X-9.16
X-9.204 Y5.876
X-9.242 Y5.848
X-9.349 Y5.742
X-9.381 Y5.71 Z-2.993
X-9.411 Y5.68 Z-2.971
X-9.434 Y5.656 Z-2.938
X-9.449 Y5.641 Z-2.896
X-9.455 Y5.636 Z-2.85
Z5 F350
X-9.242 Y5.424
Z-2.7 F175
Z-3.85
X-9.237 Y5.429 Z-3.896 F262.5
X-9.222 Y5.444 Z-3.938
X-9.199 Y5.468 Z-3.971
X-9.169 Y5.497 Z-3.993
X-9.136 Y5.53 Z-4
X-9.03 Y5.636
X-9.003 Y5.674
X-8.988 Y5.719
Y5.766
X-9.003 Y5.81
X-9.03 Y5.848
X-14.54 Y11.358 F350
G2 X-14.75 Y11.212 I-2.96 J4.021
G1 Y0.129
X-3.311
X-9.03 Y5.848
X-9.068 Y5.876 F315
X-9.113 Y5.89
X-9.16
X-9.204 Y5.876
X-9.242 Y5.848
X-9.349 Y5.742
X-9.381 Y5.71 Z-3.993
X-9.411 Y5.68 Z-3.971
X-9.434 Y5.656 Z-3.938
X-9.449 Y5.641 Z-3.896
X-9.455 Y5.636 Z-3.85
Z5 F350
X-9.242 Y5.424
Z-3.7 F175
Z-4.85
X-9.237 Y5.429 Z-4.896 F262.5
X-9.222 Y5.444 Z-4.938
X-9.199 Y5.468 Z-4.971
X-9.169 Y5.497 Z-4.993
X-9.136 Y5.53 Z-5
X-9.03 Y5.636
X-9.003 Y5.674
X-8.988 Y5.719
Y5.766
X-9.003 Y5.81
X-9.03 Y5.848
X-14.54 Y11.358 F350
G2 X-14.75 Y11.212 I-2.96 J4.021
G1 Y0.129
X-3.311
X-9.03 Y5.848
X-9.068 Y5.876 F315
X-9.113 Y5.89
X-9.16
X-9.204 Y5.876
X-9.242 Y5.848
X-9.349 Y5.742
X-9.381 Y5.71 Z-4.993
X-9.411 Y5.68 Z-4.971
X-9.434 Y5.656 Z-4.938
X-9.449 Y5.641 Z-4.896
X-9.455 Y5.636 Z-4.85
Z5 F350
X-9.242 Y5.424
Z-4.7 F175
Z-5.85
X-9.237 Y5.429 Z-5.896 F262.5
X-9.222 Y5.444 Z-5.938
X-9.199 Y5.468 Z-5.971
X-9.169 Y5.497 Z-5.993
X-9.136 Y5.53 Z-6
X-9.03 Y5.636
X-9.003 Y5.674
X-8.988 Y5.719
Y5.766
X-9.003 Y5.81
X-9.03 Y5.848
X-14.54 Y11.358 F350
G2 X-14.75 Y11.212 I-2.96 J4.021
G1 Y0.129
X-3.311
X-9.03 Y5.848
X-9.068 Y5.876 F315
X-9.113 Y5.89
X-9.16
X-9.204 Y5.876
X-9.242 Y5.848
X-9.349 Y5.742
X-9.381 Y5.71 Z-5.993
X-9.411 Y5.68 Z-5.971
X-9.434 Y5.656 Z-5.938
X-9.449 Y5.641 Z-5.896
X-9.455 Y5.636 Z-5.85
Z5 F350
X7.258 Y-11.076
Z0.3 F175
Z-0.85
X7.263 Y-11.071 Z-0.896 F262.5
X7.278 Y-11.056 Z-0.938
X7.301 Y-11.032 Z-0.971
X7.331 Y-11.003 Z-0.993
X7.364 Y-10.97 Z-1
X7.47 Y-10.864
X7.497 Y-10.826
X7.512 Y-10.781
Y-10.734
X7.497 Y-10.69
X7.47 Y-10.652
X2.25 Y-5.432 F350
Y-15.871
X12.689
X7.47 Y-10.652
X7.432 Y-10.624 F315
X7.387 Y-10.61
X7.34
X7.295 Y-10.624
X7.258 Y-10.652
X7.151 Y-10.758
X7.119 Y-10.79 Z-0.993
X7.089 Y-10.82 Z-0.971
X7.066 Y-10.844 Z-0.938
X7.051 Y-10.859 Z-0.896
X7.045 Y-10.864 Z-0.85
Z5 F350
X7.258 Y-11.076
Z-0.7 F175
Z-1.85
X7.263 Y-11.071 Z-1.896 F262.5
X7.278 Y-11.056 Z-1.938
X7.301 Y-11.032 Z-1.971
X7.331 Y-11.003 Z-1.993
X7.364 Y-10.97 Z-2
X7.47 Y-10.864
X7.497 Y-10.826
X7.512 Y-10.781
Y-10.734
X7.497 Y-10.69
X7.47 Y-10.652
X2.25 Y-5.432 F350
Y-15.871
X12.689
X7.47 Y-10.652
X7.432 Y-10.624 F315
X7.387 Y-10.61
X7.34
X7.295 Y-10.624
X7.258 Y-10.652
X7.151 Y-10.758
X7.119 Y-10.79 Z-1.993
X7.089 Y-10.82 Z-1.971
X7.066 Y-10.844 Z-1.938
X7.051 Y-10.859 Z-1.896
X7.045 Y-10.864 Z-1.85
Z5 F350
X7.258 Y-11.076
Z-1.7 F175
Z-2.85
X7.263 Y-11.071 Z-2.896 F262.5
X7.278 Y-11.056 Z-2.938
X7.301 Y-11.032 Z-2.971
X7.331 Y-11.003 Z-2.993
X7.364 Y-10.97 Z-3
X7.47 Y-10.864
X7.497 Y-10.826
X7.512 Y-10.781
Y-10.734
X7.497 Y-10.69
X7.47 Y-10.652
X2.25 Y-5.432 F350
Y-15.871
X12.689
X7.47 Y-10.652
X7.432 Y-10.624 F315
X7.387 Y-10.61
X7.34
X7.295 Y-10.624
X7.258 Y-10.652
X7.151 Y-10.758
X7.119 Y-10.79 Z-2.993
X7.089 Y-10.82 Z-2.971
X7.066 Y-10.844 Z-2.938
X7.051 Y-10.859 Z-2.896
X7.045 Y-10.864 Z-2.85
Z5 F350
X7.258 Y-11.076
Z-2.7 F175
Z-3.85
X7.263 Y-11.071 Z-3.896 F262.5
X7.278 Y-11.056 Z-3.938
X7.301 Y-11.032 Z-3.971
X7.331 Y-11.003 Z-3.993
X7.364 Y-10.97 Z-4
X7.47 Y-10.864
X7.497 Y-10.826
X7.512 Y-10.781
Y-10.734
X7.497 Y-10.69
X7.47 Y-10.652
X2.25 Y-5.432 F350
Y-15.871
X12.689
X7.47 Y-10.652
X7.432 Y-10.624 F315
X7.387 Y-10.61
X7.34
X7.295 Y-10.624
X7.258 Y-10.652
X7.151 Y-10.758
X7.119 Y-10.79 Z-3.993
X7.089 Y-10.82 Z-3.971
X7.066 Y-10.844 Z-3.938
X7.051 Y-10.859 Z-3.896
X7.045 Y-10.864 Z-3.85
Z5 F350
X7.258 Y-11.076
Z-3.7 F175
Z-4.85
X7.263 Y-11.071 Z-4.896 F262.5
X7.278 Y-11.056 Z-4.938
X7.301 Y-11.032 Z-4.971
X7.331 Y-11.003 Z-4.993
X7.364 Y-10.97 Z-5
X7.47 Y-10.864
X7.497 Y-10.826
X7.512 Y-10.781
Y-10.734
X7.497 Y-10.69
X7.47 Y-10.652
X2.25 Y-5.432 F350
Y-15.871
X12.689
X7.47 Y-10.652
X7.432 Y-10.624 F315
X7.387 Y-10.61
X7.34
X7.295 Y-10.624
X7.258 Y-10.652
X7.151 Y-10.758
X7.119 Y-10.79 Z-4.993
X7.089 Y-10.82 Z-4.971
X7.066 Y-10.844 Z-4.938
X7.051 Y-10.859 Z-4.896
X7.045 Y-10.864 Z-4.85
Z5 F350
X7.258 Y-11.076
Z-4.7 F175
Z-5.85
X7.263 Y-11.071 Z-5.896 F262.5
X7.278 Y-11.056 Z-5.938
X7.301 Y-11.032 Z-5.971
X7.331 Y-11.003 Z-5.993
X7.364 Y-10.97 Z-6
X7.47 Y-10.864
X7.497 Y-10.826
X7.512 Y-10.781
Y-10.734
X7.497 Y-10.69
X7.47 Y-10.652
X2.25 Y-5.432 F350
Y-15.871
X12.689
X7.47 Y-10.652
X7.432 Y-10.624 F315
X7.387 Y-10.61
X7.34
X7.295 Y-10.624
X7.258 Y-10.652
X7.151 Y-10.758
X7.119 Y-10.79 Z-5.993
X7.089 Y-10.82 Z-5.971
X7.066 Y-10.844 Z-5.938
X7.051 Y-10.859 Z-5.896
X7.045 Y-10.864 Z-5.85
Z15 F350
(When using Fusion 360 for Personal Use, the feedrate of)
(rapid moves is reduced to match the feedrate of cutting)
(moves, which can increase machining time. Unrestricted rapid)
(moves are available with a Fusion 360 Subscription.)

(Contornatura 2D4)
G0 X22.83 Y-19.092
G1 Z15 F350
Z5
Z0.3 F175
Z-1.35
X22.823 Y-19.094 Z-1.396 F262.5
X22.803 Y-19.101 Z-1.438
X22.771 Y-19.112 Z-1.471
X22.732 Y-19.126 Z-1.493
X22.688 Y-19.14 Z-1.5
X22.546 Y-19.189
X22.505 Y-19.211
X22.472 Y-19.244
X22.451 Y-19.287
X22.444 Y-19.333
X22.452 Y-19.379
G2 X21.743 Y-20.371 I-0.71 J-0.242 F350
G1 X-18.5
G2 X-19.25 Y-19.621 I0 J0.75
G1 Y10.703
G2 X-15.75 Y20.055 I1.75 J4.676
X-12.518 Y15.7 I-1.75 J-4.676
G1 X22.273 Y-19.091
G2 X22.452 Y-19.379 I-0.53 J-0.53
G1 X22.474 Y-19.421 F315
X22.508 Y-19.453
X22.55 Y-19.474
X22.597 Y-19.481
X22.643 Y-19.473
X22.785 Y-19.424
X22.829 Y-19.409 Z-1.493
X22.868 Y-19.396 Z-1.471
X22.9 Y-19.385 Z-1.438
X22.92 Y-19.378 Z-1.396
X22.927 Y-19.376 Z-1.35
Z5 F350
X22.83 Y-19.092
Z-1.2 F175
Z-2.85
X22.823 Y-19.094 Z-2.896 F262.5
X22.803 Y-19.101 Z-2.938
X22.771 Y-19.112 Z-2.971
X22.732 Y-19.126 Z-2.993
X22.688 Y-19.14 Z-3
X22.546 Y-19.189
X22.505 Y-19.211
X22.472 Y-19.244
X22.451 Y-19.287
X22.444 Y-19.333
X22.452 Y-19.379
G2 X21.743 Y-20.371 I-0.71 J-0.242 F350
G1 X-18.5
G2 X-19.25 Y-19.621 I0 J0.75
G1 Y10.703
G2 X-15.75 Y20.055 I1.75 J4.676
X-12.518 Y15.7 I-1.75 J-4.676
G1 X22.273 Y-19.091
G2 X22.452 Y-19.379 I-0.53 J-0.53
G1 X22.474 Y-19.421 F315
X22.508 Y-19.453
X22.55 Y-19.474
X22.597 Y-19.481
X22.643 Y-19.473
X22.785 Y-19.424
X22.829 Y-19.409 Z-2.993
X22.868 Y-19.396 Z-2.971
X22.9 Y-19.385 Z-2.938
X22.92 Y-19.378 Z-2.896
X22.927 Y-19.376 Z-2.85
Z5 F350
X22.83 Y-19.092
Z-2.7 F175
Z-4.35
X22.823 Y-19.094 Z-4.396 F262.5
X22.803 Y-19.101 Z-4.438
X22.771 Y-19.112 Z-4.471
X22.732 Y-19.126 Z-4.493
X22.688 Y-19.14 Z-4.5
X22.546 Y-19.189
X22.505 Y-19.211
X22.472 Y-19.244
X22.451 Y-19.287
X22.444 Y-19.333
X22.452 Y-19.379
G2 X21.743 Y-20.371 I-0.71 J-0.242 F350
G1 X-18.5
G2 X-19.25 Y-19.621 I0 J0.75
G1 Y10.703
G2 X-15.75 Y20.055 I1.75 J4.676
X-12.518 Y15.7 I-1.75 J-4.676
G1 X22.273 Y-19.091
G2 X22.452 Y-19.379 I-0.53 J-0.53
G1 X22.474 Y-19.421 F315
X22.508 Y-19.453
X22.55 Y-19.474
X22.597 Y-19.481
X22.643 Y-19.473
X22.785 Y-19.424
X22.829 Y-19.409 Z-4.493
X22.868 Y-19.396 Z-4.471
X22.9 Y-19.385 Z-4.438
X22.92 Y-19.378 Z-4.396
X22.927 Y-19.376 Z-4.35
Z5 F350
X22.83 Y-19.092
Z-4.2 F175
Z-5.85
X22.823 Y-19.094 Z-5.896 F262.5
X22.803 Y-19.101 Z-5.938
X22.771 Y-19.112 Z-5.971
X22.732 Y-19.126 Z-5.993
X22.688 Y-19.14 Z-6
X22.546 Y-19.189
X22.505 Y-19.211
X22.472 Y-19.244
X22.451 Y-19.287
X22.444 Y-19.333
X22.452 Y-19.379
G2 X21.743 Y-20.371 I-0.71 J-0.242 F350
G1 X-18.5
G2 X-19.25 Y-19.621 I0 J0.75
G1 Y10.703
G2 X-15.75 Y20.055 I1.75 J4.676
X-12.518 Y15.7 I-1.75 J-4.676
G1 X22.273 Y-19.091
G2 X22.452 Y-19.379 I-0.53 J-0.53
G1 X22.474 Y-19.421 F315
X22.508 Y-19.453
X22.55 Y-19.474
X22.597 Y-19.481
X22.643 Y-19.473
X22.785 Y-19.424
X22.829 Y-19.409 Z-5.993
X22.868 Y-19.396 Z-5.971
X22.9 Y-19.385 Z-5.938
X22.92 Y-19.378 Z-5.896
X22.927 Y-19.376 Z-5.85
Z15 F350
G28 G91 Z0
G90
G28 G91 X0 Y0
G90
M5
M30
