(BASE SCATOLA)
(T1 D=3.175 CR=0 - ZMIN=-10 - Fresa cilindrica)
G90 G94
G17
G21
(When using Fusion 360 for Personal Use, the feedrate of)
(rapid moves is reduced to match the feedrate of cutting)
(moves, which can increase machining time. Unrestricted rapid)
(moves are available with a Fusion 360 Subscription.)
G28 G91 Z0
G90

(Contornatura 2D1)
M0
(MANUAL TOOL CHANGE TO T1)
S9000 M3
G17 G90 G94
G54
G0 X-39.682 Y-2.54
Z15
G1 Z5 F800
Z0.635 F320
Z-1.683
G19 G3 Y-2.223 Z-2 J0.317 K0 F640
G1 Y-1.905
G17 G3 X-40 Y-1.587 I-0.318 J0
G1 X-80 F800
G2 X-81.588 Y0 I0 J1.587
G1 Y80
G2 X-80 Y81.588 I1.588 J0
G1 X0
G2 X1.587 Y80 I0 J-1.588
G1 Y0
G2 X0 Y-1.587 I-1.587 J0
G1 X-40
G3 X-40.317 Y-1.905 I0 J-0.317 F640
G1 Y-2.223
G19 G2 Y-2.54 Z-1.683 J0 K0.317
G1 Z5 F800
X-39.682
Z-1.365 F320
Z-3.683
G3 Y-2.223 Z-4 J0.317 K0 F640
G1 Y-1.905
G17 G3 X-40 Y-1.587 I-0.318 J0
G1 X-80 F800
G2 X-81.588 Y0 I0 J1.587
G1 Y80
G2 X-80 Y81.588 I1.588 J0
G1 X0
G2 X1.587 Y80 I0 J-1.588
G1 Y0
G2 X0 Y-1.587 I-1.587 J0
G1 X-40
G3 X-40.317 Y-1.905 I0 J-0.317 F640
G1 Y-2.223
G19 G2 Y-2.54 Z-3.683 J0 K0.318
G1 Z5 F800
X-39.682
Z-3.365 F320
Z-5.683
G3 Y-2.223 Z-6 J0.317 K0 F640
G1 Y-1.905
G17 G3 X-40 Y-1.587 I-0.318 J0
G1 X-80 F800
G2 X-81.588 Y0 I0 J1.587
G1 Y80
G2 X-80 Y81.588 I1.588 J0
G1 X0
G2 X1.587 Y80 I0 J-1.588
G1 Y0
G2 X0 Y-1.587 I-1.587 J0
G1 X-40
G3 X-40.317 Y-1.905 I0 J-0.317 F640
G1 Y-2.223
G19 G2 Y-2.54 Z-5.683 J0 K0.318
G1 Z5 F800
X-39.682
Z-5.365 F320
Z-7.683
G3 Y-2.223 Z-8 J0.317 K0 F640
G1 Y-1.905
G17 G3 X-40 Y-1.587 I-0.318 J0
G1 X-80 F800
G2 X-81.588 Y0 I0 J1.587
G1 Y80
G2 X-80 Y81.588 I1.588 J0
G1 X0
G2 X1.587 Y80 I0 J-1.588
G1 Y0
G2 X0 Y-1.587 I-1.587 J0
G1 X-40
G3 X-40.317 Y-1.905 I0 J-0.317 F640
G1 Y-2.223
G19 G2 Y-2.54 Z-7.683 J0 K0.318
G1 Z5 F800
X-39.682
Z-7.365 F320
Z-9.683
G3 Y-2.223 Z-10 J0.317 K0 F640
G1 Y-1.905
G17 G3 X-40 Y-1.587 I-0.318 J0
G1 X-80 F800
G2 X-81.588 Y0 I0 J1.587
G1 Y80
G2 X-80 Y81.588 I1.588 J0
G1 X0
G2 X1.587 Y80 I0 J-1.588
G1 Y0
G2 X0 Y-1.587 I-1.587 J0
G1 X-40
G3 X-40.317 Y-1.905 I0 J-0.317 F640
G1 Y-2.223
G19 G2 Y-2.54 Z-9.683 J0 K0.318
G1 Z15 F800
G17
G28 G91 Z0
G90
G28 G91 X0 Y0
G90
M5
M30
