(foratura pcb)
(T1 D=0.8 CR=0 TAPER=118deg - ZMIN=-1.74 - foratura)
G90 G94
G17
G21
G28 G91 Z0
G90

(Foratura1)
M0
(MANUAL TOOL CHANGE TO T1)
S9000 M3
G17 G90 G94
G54
G0 X7.785 Y8.26
Z4
G0 Z2
Z1
G1 Z-1.74 F50
G0 Z2
X5.245
Z1
G1 Z-1.74 F50
G0 Z2
X2.705
Z1.035
G1 Z-1.74 F50
G0 Z2
X0.165
Z1
G1 Z-1.74 F50
G0 Z2
X-2.375
Z1
G1 Z-1.74 F50
G0 Z2
X-4.915
Z1
G1 Z-1.74 F50
G0 Z2
X-7.455
Z1
G1 Z-1.74 F50
G0 Z2
Y-8.25
Z1
G1 Z-1.74 F50
G0 Z2
X-4.915
Z1
G1 Z-1.74 F50
G0 Z2
X-2.375
Z1
G1 Z-1.74 F50
G0 Z2
X0.165
Z1
G1 Z-1.74 F50
G0 Z2
X2.705
Z1
G1 Z-1.74 F50
G0 Z2
X5.245
Z1
G1 Z-1.74 F50
G0 Z2
X7.785
Z1
G1 Z-1.74 F50
G0 Z2
Z4
G28 G91 Z0
G90
G28 G91 X0 Y0
G90
M5
M30
