(FRONTE SCATOLA)
(T1 D=3.175 CR=0 - ZMIN=-4 - Fresa cilindrica)
G90 G94
G17
G21
(When using Fusion 360 for Personal Use, the feedrate of)
(rapid moves is reduced to match the feedrate of cutting)
(moves, which can increase machining time. Unrestricted rapid)
(moves are available with a Fusion 360 Subscription.)
G28 G91 Z0
G90

(Contornatura 2D1)
M0
(MANUAL TOOL CHANGE TO T1)
S9000 M3
G17 G90 G94
G54
G0 X-47.54 Y-0.317
Z15
G1 Z5 F410
Z0.635 F164
Z-1.683
G18 G2 X-47.222 Z-2 I0.318 K0 F328
G1 X-46.905
G17 G3 X-46.588 Y0 I0 J0.317
G1 Y90 F410
G2 X-45 Y91.588 I1.588 J0
G1 X0
G2 X1.587 Y90 I0 J-1.588
G1 Y0
G2 X0 Y-1.587 I-1.587 J0
G1 X-45
G2 X-46.588 Y0 I0 J1.587
G3 X-46.905 Y0.317 I-0.317 J0 F328
G1 X-47.222
G18 G3 X-47.54 Z-1.683 I0 K0.317
G1 Z5 F410
Y-0.317
Z-1.365 F164
Z-3.683
G2 X-47.222 Z-4 I0.318 K0 F328
G1 X-46.905
G17 G3 X-46.588 Y0 I0 J0.317
G1 Y90 F410
G2 X-45 Y91.588 I1.588 J0
G1 X0
G2 X1.587 Y90 I0 J-1.588
G1 Y0
G2 X0 Y-1.587 I-1.587 J0
G1 X-45
G2 X-46.588 Y0 I0 J1.587
G3 X-46.905 Y0.317 I-0.317 J0 F328
G1 X-47.222
G18 G3 X-47.54 Z-3.683 I0 K0.318
G1 Z15 F410
G17
G28 G91 Z0
G90
G28 G91 X0 Y0
G90
M5
M30
