(scatola)
(T1 D=3.175 CR=0 - ZMIN=-5 - Fresa cilindrica)
G90 G94
G17
G21
(When using Fusion 360 for Personal Use, the feedrate of)
(rapid moves is reduced to match the feedrate of cutting)
(moves, which can increase machining time. Unrestricted rapid)
(moves are available with a Fusion 360 Subscription.)
G28 G91 Z0
G90

(Contornatura 2D1)
M0
(MANUAL TOOL CHANGE TO T1)
S9000 M3
G17 G90 G94
G54
G0 X-83.54 Y90.683
Z15
G1 Z5 F800
Z0.635 F320
Z-1.683
G18 G2 X-83.223 Z-2 I0.317 K0 F640
G1 X-82.905
G17 G3 X-82.588 Y91 I0 J0.317
G2 X-81 Y92.588 I1.588 J0 F800
G1 X-1
G2 X0.587 Y91 I0 J-1.588
G1 Y1
G2 X-1 Y-0.587 I-1.587 J0
G1 X-81
G2 X-82.588 Y1 I0 J1.587
G1 Y91
G3 X-82.905 Y91.317 I-0.317 J0 F640
G1 X-83.223
G18 G3 X-83.54 Z-1.683 I0 K0.317
G1 Z5 F800
X-85.683 Y93.46
Z0.635 F320
Z-1.683
G19 G3 Y93.777 Z-2 J0.317 K0 F640
G1 Y94.095
G17 G3 X-86 Y94.412 I-0.317 J0
G1 X-91 F800
G2 X-92.588 Y96 I0 J1.588
G1 Y136
G2 X-91 Y137.587 I1.588 J0
G1 X-1
G2 X0.587 Y136 I0 J-1.587
G1 Y96
G2 X-1 Y94.412 I-1.587 J0
G1 X-86
G3 X-86.317 Y94.095 I0 J-0.317 F640
G1 Y93.777
G19 G2 Y93.46 Z-1.683 J0 K0.317
G1 Z5 F800
X-85.683
Z-1.365 F320
Z-3.683
G3 Y93.777 Z-4 J0.317 K0 F640
G1 Y94.095
G17 G3 X-86 Y94.412 I-0.317 J0
G1 X-91 F800
G2 X-92.588 Y96 I0 J1.588
G1 Y136
G2 X-91 Y137.587 I1.588 J0
G1 X-1
G2 X0.587 Y136 I0 J-1.587
G1 Y96
G2 X-1 Y94.412 I-1.587 J0
G1 X-86
G3 X-86.317 Y94.095 I0 J-0.317 F640
G1 Y93.777
G19 G2 Y93.46 Z-3.683 J0 K0.318
G1 Z5 F800
X-91.317 Y88.54
Z0.635 F320
Z-1.683
G2 Y88.223 Z-2 J-0.317 K0 F640
G1 Y87.905
G17 G3 X-91 Y87.588 I0.317 J0
G1 X-86 F800
G2 X-84.412 Y86 I0 J-1.588
G1 Y46
G2 X-86 Y44.412 I-1.588 J0
G1 X-166
G2 X-167.587 Y46 I0 J1.588
G1 Y86
G2 X-166 Y87.588 I1.587 J0
G1 X-91
G3 X-90.683 Y87.905 I0 J0.317 F640
G1 Y88.223
G19 G3 Y88.54 Z-1.683 J0 K0.317
G1 Z5 F800
X-84.73 Y43.222
Z0.635 F320
Z-1.683
X-84.735 Y43.216 Z-1.753 F640
X-84.749 Y43.197 Z-1.82
X-84.772 Y43.167 Z-1.88
X-84.802 Y43.127 Z-1.931
X-84.838 Y43.079 Z-1.969
X-84.878 Y43.025 Z-1.992
X-84.921 Y42.968 Z-2
X-85.111 Y42.715
G17 G3 X-85.048 Y42.27 I0.254 J-0.191
G2 X-84.412 Y41 I-0.952 J-1.27 F800
G1 Y1
G2 X-86 Y-0.587 I-1.588 J0
G1 X-166
G2 X-167.587 Y1 I0 J1.587
G1 Y41
G2 X-166 Y42.588 I1.587 J0
G1 X-86
G2 X-85.048 Y42.27 I0 J-1.588
G3 X-84.603 Y42.333 I0.19 J0.254 F640
G1 X-84.412 Y42.587
X-84.37 Y42.644 Z-1.992
X-84.33 Y42.698 Z-1.969
X-84.294 Y42.746 Z-1.931
X-84.264 Y42.786 Z-1.88
X-84.241 Y42.816 Z-1.82
X-84.227 Y42.835 Z-1.753
X-84.222 Y42.841 Z-1.683
Z5 F800
X-84.73 Y43.222
Z-1.365 F320
Z-3.683
X-84.735 Y43.216 Z-3.753 F640
X-84.749 Y43.197 Z-3.82
X-84.772 Y43.167 Z-3.88
X-84.802 Y43.127 Z-3.931
X-84.838 Y43.079 Z-3.969
X-84.878 Y43.025 Z-3.992
X-84.921 Y42.968 Z-4
X-85.111 Y42.715
G3 X-85.048 Y42.27 I0.254 J-0.191
G2 X-84.412 Y41 I-0.952 J-1.27 F800
G1 Y1
G2 X-86 Y-0.587 I-1.588 J0
G1 X-166
G2 X-167.587 Y1 I0 J1.587
G1 Y41
G2 X-166 Y42.588 I1.587 J0
G1 X-86
G2 X-85.048 Y42.27 I0 J-1.588
G3 X-84.603 Y42.333 I0.19 J0.254 F640
G1 X-84.412 Y42.587
X-84.37 Y42.644 Z-3.992
X-84.33 Y42.698 Z-3.969
X-84.294 Y42.746 Z-3.931
X-84.264 Y42.786 Z-3.88
X-84.241 Y42.816 Z-3.82
X-84.227 Y42.835 Z-3.753
X-84.222 Y42.841 Z-3.683
Z5 F800
X-83.54 Y43.182
Z-1.365 F320
Z-3.683
G18 G2 X-83.223 Z-4 I0.317 K0 F640
G1 X-82.905
G17 G3 X-82.588 Y43.5 I0 J0.318
G1 Y91 F800
G2 X-81 Y92.588 I1.588 J0
G1 X-1
G2 X0.587 Y91 I0 J-1.588
G1 Y1
G2 X-1 Y-0.587 I-1.587 J0
G1 X-81
G2 X-82.588 Y1 I0 J1.587
G1 Y43.5
G3 X-82.905 Y43.818 I-0.317 J0 F640
G1 X-83.223
G18 G3 X-83.54 Z-3.683 I0 K0.318
G1 Z5 F800
X-84.222 Y44.159
Z-1.365 F320
Z-3.683
X-84.227 Y44.165 Z-3.753 F640
X-84.241 Y44.184 Z-3.82
X-84.264 Y44.214 Z-3.88
X-84.294 Y44.254 Z-3.931
X-84.33 Y44.302 Z-3.969
X-84.37 Y44.356 Z-3.992
X-84.412 Y44.413 Z-4
X-84.603 Y44.667
G17 G3 X-85.048 Y44.73 I-0.254 J-0.19
G2 X-86 Y44.412 I-0.952 J1.27 F800
G1 X-166
G2 X-167.587 Y46 I0 J1.588
G1 Y86
G2 X-166 Y87.588 I1.587 J0
G1 X-86
G2 X-84.412 Y86 I0 J-1.588
G1 Y46
G2 X-85.048 Y44.73 I-1.588 J0
G3 X-85.111 Y44.285 I0.19 J-0.254 F640
G1 X-84.921 Y44.032
X-84.878 Y43.975 Z-3.992
X-84.838 Y43.921 Z-3.969
X-84.802 Y43.873 Z-3.931
X-84.772 Y43.833 Z-3.88
X-84.749 Y43.803 Z-3.82
X-84.735 Y43.784 Z-3.753
X-84.73 Y43.778 Z-3.683
Z5 F800
X-84.222 Y44.159
Z-3.365 F320
Z-4.683
X-84.227 Y44.165 Z-4.753 F640
X-84.241 Y44.184 Z-4.82
X-84.264 Y44.214 Z-4.88
X-84.294 Y44.254 Z-4.931
X-84.33 Y44.302 Z-4.969
X-84.37 Y44.356 Z-4.992
X-84.412 Y44.413 Z-5
X-84.603 Y44.667
G3 X-85.048 Y44.73 I-0.254 J-0.19
G2 X-86 Y44.412 I-0.952 J1.27 F800
G1 X-166
G2 X-167.587 Y46 I0 J1.588
G1 Y86
G2 X-166 Y87.588 I1.587 J0
G1 X-86
G2 X-84.412 Y86 I0 J-1.588
G1 Y46
G2 X-85.048 Y44.73 I-1.588 J0
G3 X-85.111 Y44.285 I0.19 J-0.254 F640
G1 X-84.921 Y44.032
X-84.878 Y43.975 Z-4.992
X-84.838 Y43.921 Z-4.969
X-84.802 Y43.873 Z-4.931
X-84.772 Y43.833 Z-4.88
X-84.749 Y43.803 Z-4.82
X-84.735 Y43.784 Z-4.753
X-84.73 Y43.778 Z-4.683
Z5 F800
Y43.222
Z-3.365 F320
Z-4.683
X-84.735 Y43.216 Z-4.753 F640
X-84.749 Y43.197 Z-4.82
X-84.772 Y43.167 Z-4.88
X-84.802 Y43.127 Z-4.931
X-84.838 Y43.079 Z-4.969
X-84.878 Y43.025 Z-4.992
X-84.921 Y42.968 Z-5
X-85.111 Y42.715
G3 X-85.048 Y42.27 I0.254 J-0.191
G2 X-84.412 Y41 I-0.952 J-1.27 F800
G1 Y1
G2 X-86 Y-0.587 I-1.588 J0
G1 X-166
G2 X-167.587 Y1 I0 J1.587
G1 Y41
G2 X-166 Y42.588 I1.587 J0
G1 X-86
G2 X-85.048 Y42.27 I0 J-1.588
G3 X-84.603 Y42.333 I0.19 J0.254 F640
G1 X-84.412 Y42.587
X-84.37 Y42.644 Z-4.992
X-84.33 Y42.698 Z-4.969
X-84.294 Y42.746 Z-4.931
X-84.264 Y42.786 Z-4.88
X-84.241 Y42.816 Z-4.82
X-84.227 Y42.835 Z-4.753
X-84.222 Y42.841 Z-4.683
Z5 F800
X-83.54 Y43.182
Z-3.365 F320
Z-4.683
G18 G2 X-83.223 Z-5 I0.317 K0 F640
G1 X-82.905
G17 G3 X-82.588 Y43.5 I0 J0.318
G1 Y91 F800
G2 X-81 Y92.588 I1.588 J0
G1 X-1
G2 X0.587 Y91 I0 J-1.588
G1 Y1
G2 X-1 Y-0.587 I-1.587 J0
G1 X-81
G2 X-82.588 Y1 I0 J1.587
G1 Y43.5
G3 X-82.905 Y43.818 I-0.317 J0 F640
G1 X-83.223
G18 G3 X-83.54 Z-4.683 I0 K0.318
G1 Z5 F800
X-85.683 Y93.46
Z-3.365 F320
Z-4.683
G19 G3 Y93.777 Z-5 J0.317 K0 F640
G1 Y94.095
G17 G3 X-86 Y94.412 I-0.317 J0
G1 X-91 F800
G2 X-92.588 Y96 I0 J1.588
G1 Y136
G2 X-91 Y137.587 I1.588 J0
G1 X-1
G2 X0.587 Y136 I0 J-1.587
G1 Y96
G2 X-1 Y94.412 I-1.587 J0
G1 X-86
G3 X-86.317 Y94.095 I0 J-0.317 F640
G1 Y93.777
G19 G2 Y93.46 Z-4.683 J0 K0.318
G1 Z15 F800
G17
G28 G91 Z0
G90
G28 G91 X0 Y0
G90
M5
M30
