(top copper - soic to dip 14 pin)
(T1 D=3.175 CR=0 TAPER=10deg - ZMIN=0 - utensile per smusso)
G90 G94
G17
G21
(When using Fusion 360 for Personal Use, the feedrate of)
(rapid moves is reduced to match the feedrate of cutting)
(moves, which can increase machining time. Unrestricted rapid)
(moves are available with a Fusion 360 Subscription.)
G28 G91 Z0
G90

(Proiezione1)
M0
(MANUAL TOOL CHANGE TO T1)
S9000 M3
G17 G90 G94
G54
G0 X-9.656 Y-8.207
Z15
G1 Z2 F260
Z0.317 F130
Y-8.199 Z0.247
X-9.657 Y-8.175 Z0.18
X-9.658 Y-8.138 Z0.12
X-9.66 Y-8.087 Z0.069
X-9.661 Y-8.027 Z0.031
X-9.663 Y-7.96 Z0.008
X-9.666 Y-7.889 Z0
X-9.669 Y-7.769 F260
X-9.662 Y-7.661
X-9.617 Y-7.508
X-9.533 Y-7.363
X-9.432 Y-7.251
X-9.301 Y-7.159
X-9.154 Y-7.099
X-8.996 Y-7.074
X-7.504
X-7.352 Y-7.098
X-7.209 Y-7.154
X-7.082 Y-7.239
X-6.969 Y-7.36
X-6.895 Y-7.48
X-5.836
X-2.631 Y-4.275
X-3.06
Y-3.675
X-2.011
X-2.004 Y-3.673
X-1.85 Y-3.675
X-0.86
Y-4.275
X-1.769
X-5.494 Y-8.001
X-5.573 Y-8.055
X-5.648 Y-8.082
X-5.778 Y-8.09
X-6.895
X-6.976 Y-8.221
X-7.082 Y-8.331
X-7.209 Y-8.416
X-7.352 Y-8.472
X-7.504 Y-8.496
X-8.996
X-9.157 Y-8.47
X-9.307 Y-8.407
X-9.439 Y-8.313
X-9.547 Y-8.19
X-9.623 Y-8.047
X-9.666 Y-7.889
X-9.684 Y-7.821 Z0.008 F234
X-9.701 Y-7.756 Z0.031
X-9.717 Y-7.698 Z0.069
X-9.73 Y-7.65 Z0.12
X-9.74 Y-7.613 Z0.18
X-9.746 Y-7.59 Z0.247
X-9.748 Y-7.583 Z0.317
Z5 F260
X-8.69 Y-7.498
Z2
Z0.317 F130
Y-7.506 Z0.247
X-8.688 Y-7.529 Z0.18
X-8.685 Y-7.567 Z0.12
X-8.681 Y-7.617 Z0.069
X-8.677 Y-7.677 Z0.031
X-8.672 Y-7.744 Z0.008
X-8.666 Y-7.815 Z0
X-8.662 Y-7.879 F260
X-8.616 Y-7.996
X-8.537 Y-8.094
X-8.433 Y-8.165
X-8.313 Y-8.202
X-8.187
X-8.067 Y-8.165
X-7.963 Y-8.094
X-7.884 Y-7.996
X-7.838 Y-7.879
X-7.831 Y-7.745
X-7.857 Y-7.631
X-7.92 Y-7.522
X-8.02 Y-7.432
X-8.126 Y-7.382
X-8.25 Y-7.363
X-8.374 Y-7.382
X-8.494 Y-7.442
X-8.58 Y-7.522
X-8.643 Y-7.631
X-8.671 Y-7.753
X-8.666 Y-7.815
X-8.661 Y-7.885 Z0.008 F234
X-8.656 Y-7.952 Z0.031
X-8.652 Y-8.012 Z0.069
X-8.648 Y-8.062 Z0.12
X-8.645 Y-8.1 Z0.18
X-8.643 Y-8.123 Z0.247
Y-8.131 Z0.317
Z5 F260
X-8.349 Y-5.956
Z2
Z0.317 F130
G18 G3 X-8.666 Z0 I-0.318 K0
G1 X-8.996 F260
X-9.157 Y-5.93
X-9.307 Y-5.867
X-9.439 Y-5.773
X-9.547 Y-5.65
X-9.623 Y-5.507
X-9.666 Y-5.349
X-9.669 Y-5.229
X-9.658 Y-5.104
X-9.617 Y-4.968
X-9.539 Y-4.829
X-9.432 Y-4.711
X-9.301 Y-4.619
X-9.145 Y-4.558
X-8.996 Y-4.534
X-7.504
X-7.352 Y-4.558
X-7.209 Y-4.614
X-7.082 Y-4.699
X-6.969 Y-4.82
X-6.895 Y-4.94
X-5.836
X-3.386 Y-2.489
X-3.307 Y-2.435
X-3.249 Y-2.411
X-3.102 Y-2.4
X-1.96
X-1.909 Y-2.405
X-0.86
Y-3.005
X-1.909
X-2.096 Y-3.01
X-3.044
X-5.494 Y-5.461
X-5.573 Y-5.515
X-5.648 Y-5.542
X-5.778 Y-5.55
X-6.895
X-6.976 Y-5.681
X-7.082 Y-5.791
X-7.209 Y-5.876
X-7.352 Y-5.932
X-7.504 Y-5.956
X-8.666
G3 X-8.984 Z0.317 I0 K0.317 F234
G1 Z5 F260
X-9.656 Y-3.127
Z2
Z0.317 F130
Y-3.119 Z0.247
X-9.657 Y-3.095 Z0.18
X-9.658 Y-3.058 Z0.12
X-9.66 Y-3.007 Z0.069
X-9.661 Y-2.947 Z0.031
X-9.663 Y-2.88 Z0.008
X-9.666 Y-2.809 Z0
X-9.669 Y-2.689 F260
X-9.662 Y-2.581
X-9.617 Y-2.428
X-9.539 Y-2.289
X-9.432 Y-2.171
X-9.301 Y-2.079
X-9.154 Y-2.019
X-8.996 Y-1.994
X-7.504
X-7.352 Y-2.018
X-7.209 Y-2.074
X-7.082 Y-2.159
X-6.969 Y-2.28
X-6.895 Y-2.4
X-5.836
X-4.656 Y-1.219
X-4.577 Y-1.165
X-4.519 Y-1.141
X-4.372 Y-1.13
X-1.956 Y-1.131
X-1.671 Y-1.135
X-0.86
Y-1.735
X-1.909
X-1.916 Y-1.737
X-2.404 Y-1.74
X-4.314
X-5.494 Y-2.921
X-5.573 Y-2.975
X-5.648 Y-3.002
X-5.778 Y-3.01
X-6.895
X-6.976 Y-3.141
X-7.082 Y-3.251
X-7.209 Y-3.336
X-7.352 Y-3.392
X-7.504 Y-3.416
X-8.996
X-9.157 Y-3.39
X-9.307 Y-3.327
X-9.439 Y-3.233
X-9.547 Y-3.11
X-9.623 Y-2.967
X-9.666 Y-2.809
X-9.684 Y-2.741 Z0.008 F234
X-9.701 Y-2.676 Z0.031
X-9.717 Y-2.618 Z0.069
X-9.73 Y-2.57 Z0.12
X-9.74 Y-2.533 Z0.18
X-9.746 Y-2.51 Z0.247
X-9.748 Y-2.503 Z0.317
Z5 F260
X-8.69 Y-2.418
Z2
Z0.317 F130
Y-2.426 Z0.247
X-8.688 Y-2.449 Z0.18
X-8.685 Y-2.487 Z0.12
X-8.681 Y-2.537 Z0.069
X-8.677 Y-2.597 Z0.031
X-8.672 Y-2.664 Z0.008
X-8.666 Y-2.735 Z0
X-8.662 Y-2.799 F260
X-8.616 Y-2.916
X-8.537 Y-3.014
X-8.433 Y-3.085
X-8.313 Y-3.122
X-8.187
X-8.067 Y-3.085
X-7.963 Y-3.014
X-7.884 Y-2.916
X-7.838 Y-2.799
X-7.831 Y-2.665
X-7.857 Y-2.551
X-7.92 Y-2.442
X-8.012 Y-2.356
X-8.126 Y-2.302
X-8.25 Y-2.283
X-8.374 Y-2.302
X-8.494 Y-2.362
X-8.584 Y-2.449
X-8.643 Y-2.551
X-8.671 Y-2.673
X-8.666 Y-2.735
X-8.661 Y-2.805 Z0.008 F234
X-8.656 Y-2.872 Z0.031
X-8.652 Y-2.932 Z0.069
X-8.648 Y-2.982 Z0.12
X-8.645 Y-3.02 Z0.18
X-8.643 Y-3.043 Z0.247
Y-3.051 Z0.317
Z5 F260
X-8.349 Y-0.876
Z2
Z0.317 F130
G3 X-8.666 Z0 I-0.318 K0
G1 X-8.996 F260
X-9.165 Y-0.846
X-9.307 Y-0.787
X-9.439 Y-0.693
X-9.551 Y-0.563
X-9.623 Y-0.427
X-9.666 Y-0.269
X-9.669 Y-0.149
X-9.658 Y-0.024
X-9.617 Y0.112
X-9.533 Y0.257
X-9.432 Y0.369
X-9.301 Y0.461
X-9.154 Y0.521
X-8.996 Y0.546
X-7.504
X-7.352 Y0.522
X-7.209 Y0.466
X-7.082 Y0.381
X-6.976 Y0.271
X-6.895 Y0.14
X-1.958
X-1.909 Y0.135
X-0.86
Y-0.465
X-1.909
X-2.096 Y-0.47
X-6.895
X-6.976 Y-0.601
X-7.082 Y-0.711
X-7.209 Y-0.796
X-7.352 Y-0.852
X-7.504 Y-0.876
X-8.666
G3 X-8.984 Z0.317 I0 K0.317 F234
G1 Z5 F260
X-9.656 Y1.953
Z2
Z0.317 F130
Y1.961 Z0.247
X-9.657 Y1.985 Z0.18
X-9.658 Y2.022 Z0.12
X-9.66 Y2.073 Z0.069
X-9.661 Y2.133 Z0.031
X-9.663 Y2.2 Z0.008
X-9.666 Y2.271 Z0
X-9.669 Y2.391 F260
X-9.662 Y2.499
X-9.617 Y2.652
X-9.539 Y2.791
X-9.432 Y2.909
X-9.301 Y3.001
X-9.154 Y3.061
X-8.996 Y3.086
X-7.504
X-7.352 Y3.062
X-7.209 Y3.006
X-7.082 Y2.921
X-6.968 Y2.799
X-6.895 Y2.68
X-5.71
X-5.631 Y2.669
X-5.558 Y2.639
X-5.446 Y2.542
X-4.314 Y1.41
X-1.956 Y1.409
X-1.671 Y1.405
X-0.86
Y0.805
X-1.909
X-1.916 Y0.803
X-2.404 Y0.8
X-4.44
X-4.519 Y0.811
X-4.606 Y0.851
X-4.704 Y0.938
X-5.836 Y2.07
X-6.895
X-6.976 Y1.939
X-7.082 Y1.829
X-7.209 Y1.744
X-7.352 Y1.688
X-7.504 Y1.664
X-8.996
X-9.157 Y1.69
X-9.307 Y1.753
X-9.439 Y1.847
X-9.547 Y1.97
X-9.623 Y2.113
X-9.666 Y2.271
X-9.684 Y2.339 Z0.008 F234
X-9.701 Y2.404 Z0.031
X-9.717 Y2.462 Z0.069
X-9.73 Y2.51 Z0.12
X-9.74 Y2.547 Z0.18
X-9.746 Y2.57 Z0.247
X-9.748 Y2.577 Z0.317
Z5 F260
X-8.69 Y2.662
Z2
Z0.317 F130
Y2.654 Z0.247
X-8.688 Y2.631 Z0.18
X-8.685 Y2.593 Z0.12
X-8.681 Y2.543 Z0.069
X-8.677 Y2.483 Z0.031
X-8.672 Y2.416 Z0.008
X-8.666 Y2.345 Z0
X-8.662 Y2.281 F260
X-8.616 Y2.164
X-8.537 Y2.066
X-8.433 Y1.995
X-8.313 Y1.958
X-8.187
X-8.067 Y1.995
X-7.963 Y2.066
X-7.884 Y2.164
X-7.838 Y2.281
X-7.829 Y2.407
X-7.857 Y2.529
X-7.92 Y2.638
X-8.012 Y2.724
X-8.126 Y2.778
X-8.25 Y2.797
X-8.374 Y2.778
X-8.494 Y2.718
X-8.584 Y2.631
X-8.643 Y2.529
X-8.671 Y2.407
X-8.666 Y2.345
X-8.661 Y2.275 Z0.008 F234
X-8.656 Y2.208 Z0.031
X-8.652 Y2.148 Z0.069
X-8.648 Y2.098 Z0.12
X-8.645 Y2.06 Z0.18
X-8.643 Y2.037 Z0.247
Y2.029 Z0.317
Z5 F260
X-9.656 Y4.493
Z2
Z0.317 F130
Y4.501 Z0.247
X-9.657 Y4.525 Z0.18
X-9.658 Y4.562 Z0.12
X-9.66 Y4.613 Z0.069
X-9.661 Y4.673 Z0.031
X-9.663 Y4.74 Z0.008
X-9.666 Y4.811 Z0
X-9.669 Y4.931 F260
X-9.662 Y5.039
X-9.617 Y5.192
X-9.533 Y5.337
X-9.432 Y5.449
X-9.301 Y5.541
X-9.145 Y5.602
X-8.996 Y5.626
X-7.504
X-7.352 Y5.602
X-7.209 Y5.546
X-7.082 Y5.461
X-6.969 Y5.34
X-6.895 Y5.22
X-5.706 Y5.219
X-5.631 Y5.209
X-5.558 Y5.179
X-5.446 Y5.082
X-3.044 Y2.68
X-1.952 Y2.679
X-1.671 Y2.675
X-0.86
Y2.075
X-1.909
X-1.916 Y2.073
X-2.404 Y2.07
X-3.174 Y2.071
X-3.249 Y2.081
X-3.322 Y2.111
X-3.434 Y2.208
X-5.836 Y4.61
X-6.895
X-6.976 Y4.479
X-7.082 Y4.369
X-7.209 Y4.284
X-7.352 Y4.228
X-7.521 Y4.204
X-8.996
X-9.157 Y4.23
X-9.307 Y4.293
X-9.439 Y4.387
X-9.547 Y4.51
X-9.623 Y4.653
X-9.666 Y4.811
X-9.684 Y4.879 Z0.008 F234
X-9.701 Y4.944 Z0.031
X-9.717 Y5.002 Z0.069
X-9.73 Y5.05 Z0.12
X-9.74 Y5.087 Z0.18
X-9.746 Y5.11 Z0.247
X-9.748 Y5.117 Z0.317
Z5 F260
X-8.69 Y5.202
Z2
Z0.317 F130
Y5.194 Z0.247
X-8.688 Y5.171 Z0.18
X-8.685 Y5.133 Z0.12
X-8.681 Y5.083 Z0.069
X-8.677 Y5.023 Z0.031
X-8.672 Y4.956 Z0.008
X-8.666 Y4.885 Z0
X-8.662 Y4.821 F260
X-8.616 Y4.704
X-8.537 Y4.606
X-8.433 Y4.535
X-8.313 Y4.498
X-8.187
X-8.067 Y4.535
X-7.963 Y4.606
X-7.884 Y4.704
X-7.838 Y4.821
X-7.831 Y4.955
X-7.857 Y5.069
X-7.92 Y5.178
X-8.012 Y5.264
X-8.126 Y5.318
X-8.25 Y5.337
X-8.374 Y5.318
X-8.494 Y5.258
X-8.584 Y5.171
X-8.643 Y5.069
X-8.671 Y4.947
X-8.666 Y4.885
X-8.661 Y4.815 Z0.008 F234
X-8.656 Y4.748 Z0.031
X-8.652 Y4.688 Z0.069
X-8.648 Y4.638 Z0.12
X-8.645 Y4.6 Z0.18
X-8.643 Y4.577 Z0.247
Y4.569 Z0.317
Z5 F260
X-8.349 Y6.744
Z2
Z0.317 F130
G3 X-8.666 Z0 I-0.318 K0
G1 X-8.996 F260
X-9.157 Y6.77
X-9.307 Y6.833
X-9.439 Y6.927
X-9.547 Y7.05
X-9.623 Y7.193
X-9.666 Y7.351
X-9.669 Y7.471
X-9.662 Y7.579
X-9.617 Y7.732
X-9.539 Y7.871
X-9.432 Y7.989
X-9.301 Y8.081
X-9.145 Y8.142
X-8.979 Y8.166
X-7.504
X-7.352 Y8.142
X-7.209 Y8.086
X-7.082 Y8.001
X-6.969 Y7.88
X-6.895 Y7.76
X-5.71
X-5.631 Y7.749
X-5.558 Y7.719
X-5.446 Y7.622
X-1.769 Y3.945
X-0.86
Y3.345
X-1.857 Y3.344
X-1.994 Y3.343
X-2.659 Y3.345
X-3.06
Y3.945
X-2.631
X-5.836 Y7.15
X-6.895
X-6.976 Y7.019
X-7.082 Y6.909
X-7.209 Y6.824
X-7.352 Y6.768
X-7.504 Y6.744
X-8.666
G3 X-8.984 Z0.317 I0 K0.317 F234
G1 Z5 F260
X-8.701 Y7.257
Z2
Z0.317 F130
X-8.694 Y7.253 Z0.247
X-8.675 Y7.239 Z0.18
X-8.644 Y7.218 Z0.12
X-8.602 Y7.19 Z0.069
X-8.552 Y7.156 Z0.031
X-8.497 Y7.118 Z0.008
X-8.438 Y7.078 Z0
X-8.433 Y7.075 F260
X-8.313 Y7.038
X-8.187
X-8.067 Y7.075
X-7.963 Y7.146
X-7.884 Y7.244
X-7.838 Y7.361
X-7.829 Y7.487
X-7.857 Y7.609
X-7.92 Y7.718
X-8.02 Y7.808
X-8.126 Y7.858
X-8.25 Y7.877
X-8.374 Y7.858
X-8.494 Y7.798
X-8.584 Y7.711
X-8.643 Y7.609
X-8.671 Y7.487
X-8.662 Y7.361
X-8.616 Y7.244
X-8.537 Y7.146
X-8.438 Y7.078
X-8.38 Y7.038 Z0.008 F234
X-8.325 Y7.001 Z0.031
X-8.275 Y6.967 Z0.069
X-8.233 Y6.938 Z0.12
X-8.202 Y6.917 Z0.18
X-8.183 Y6.904 Z0.247
X-8.176 Y6.899 Z0.317
Z5 F260
X1.822 Y3.945
Z2
Z0.317 F130
G2 X2.14 Z0 I0.318 K0
G1 X3.049 F260
X6.775 Y7.671
X6.832 Y7.716
X6.9 Y7.747
X6.985 Y7.89
X7.092 Y8.001
X7.227 Y8.089
X7.362 Y8.142
X7.531 Y8.166
X9.006
X9.17 Y8.139
X9.323 Y8.074
X9.463 Y7.969
X9.565 Y7.848
X9.64 Y7.7
X9.678 Y7.538
Y7.372
X9.64 Y7.21
X9.565 Y7.062
X9.457 Y6.935
X9.323 Y6.836
X9.17 Y6.771
X9.006 Y6.744
X7.514
X7.362 Y6.768
X7.22 Y6.824
X7.092 Y6.909
X6.986 Y7.02
X3.911 Y3.945
X4.34
Y3.345
X2.14
Y3.945
G19 G3 Y4.262 Z0.317 J0 K0.317 F234
G1 Z5 F260
X7.696 Y7.492
Z2
Z0.317 F130
X7.701 Y7.486 Z0.247
X7.716 Y7.468 Z0.18
X7.74 Y7.438 Z0.12
X7.771 Y7.399 Z0.069
X7.808 Y7.352 Z0.031
X7.85 Y7.299 Z0.008
X7.894 Y7.244 Z0
X7.973 Y7.146 F260
X8.077 Y7.075
X8.197 Y7.038
X8.323
X8.443 Y7.075
X8.547 Y7.146
X8.626 Y7.244
X8.672 Y7.361
X8.681 Y7.487
X8.653 Y7.609
X8.59 Y7.718
X8.498 Y7.804
X8.384 Y7.858
X8.26 Y7.877
X8.136 Y7.858
X8.022 Y7.804
X7.93 Y7.718
X7.867 Y7.609
X7.839 Y7.487
X7.848 Y7.361
X7.894 Y7.244
X7.92 Y7.178 Z0.008 F234
X7.945 Y7.116 Z0.031
X7.967 Y7.06 Z0.069
X7.985 Y7.013 Z0.12
X7.999 Y6.978 Z0.18
X8.007 Y6.956 Z0.247
X8.01 Y6.948 Z0.317
Z5 F260
X3.506 Y2.675
Z2
Z0.317 F130
G18 G3 X3.189 Z0 I-0.317 K0
G1 X2.14 F260
Y2.075
X3.189
X3.232 Y2.071
X4.382 Y2.07
X4.512 Y2.078
X4.587 Y2.105
X4.666 Y2.159
X6.986 Y4.48
X7.092 Y4.369
X7.22 Y4.284
X7.362 Y4.228
X7.514 Y4.204
X8.989
X9.162 Y4.23
X9.323 Y4.296
X9.457 Y4.395
X9.565 Y4.522
X9.64 Y4.67
X9.678 Y4.832
Y4.998
X9.64 Y5.16
X9.565 Y5.308
X9.457 Y5.435
X9.323 Y5.534
X9.17 Y5.599
X9.006 Y5.626
X7.514
X7.362 Y5.602
X7.227 Y5.549
X7.092 Y5.461
X6.985 Y5.35
X6.9 Y5.207
X6.832 Y5.176
X6.774 Y5.131
X4.324 Y2.68
X3.684
X3.196 Y2.677
X3.126 Y2.676 Z0.008 F234
X3.059 Z0.031
X2.999 Y2.675 Z0.069
X2.948 Z0.12
X2.91 Z0.18
X2.887 Z0.247
X2.879 Z0.317
Z5 F260
X7.702 Y4.945
Z2
Z0.317 F130
X7.707 Y4.939 Z0.247
X7.721 Y4.921 Z0.18
X7.745 Y4.891 Z0.12
X7.776 Y4.852 Z0.069
X7.814 Y4.805 Z0.031
X7.856 Y4.752 Z0.008
X7.9 Y4.697 Z0
X7.973 Y4.606 F260
X8.077 Y4.535
X8.197 Y4.498
X8.323
X8.443 Y4.535
X8.547 Y4.606
X8.626 Y4.704
X8.672 Y4.821
X8.679 Y4.955
X8.653 Y5.069
X8.59 Y5.178
X8.49 Y5.268
X8.384 Y5.318
X8.26 Y5.337
X8.136 Y5.318
X8.022 Y5.264
X7.93 Y5.178
X7.867 Y5.069
X7.839 Y4.947
X7.848 Y4.821
X7.9 Y4.697
X7.927 Y4.632 Z0.008 F234
X7.952 Y4.57 Z0.031
X7.975 Y4.514 Z0.069
X7.995 Y4.468 Z0.12
X8.009 Y4.433 Z0.18
X8.018 Y4.411 Z0.247
X8.021 Y4.404 Z0.317
Z5 F260
X7.582 Y3.086
Z2
Z0.317 F130
G2 X7.9 Z0 I0.318 K0
G1 X9.006 F260
X9.17 Y3.059
X9.323 Y2.994
X9.463 Y2.889
X9.565 Y2.768
X9.64 Y2.62
X9.678 Y2.458
Y2.292
X9.64 Y2.13
X9.565 Y1.982
X9.457 Y1.855
X9.323 Y1.756
X9.17 Y1.691
X9.006 Y1.664
X7.514
X7.354 Y1.691
X7.22 Y1.744
X7.092 Y1.829
X6.986 Y1.94
X5.936 Y0.889
X5.857 Y0.835
X5.799 Y0.811
X5.652 Y0.8
X3.236 Y0.801
X2.951 Y0.805
X2.14
Y1.405
X3.189
X3.231 Y1.409
X3.24 Y1.41
X5.594
X6.776 Y2.592
X6.832 Y2.636
X6.9 Y2.667
X6.985 Y2.81
X7.092 Y2.921
X7.227 Y3.009
X7.362 Y3.062
X7.514 Y3.086
X7.9
G2 X8.217 Z0.317 I0 K0.317 F234
G1 Z5 F260
X3.506 Y0.135
Z2
Z0.317 F130
G3 X3.189 Z0 I-0.317 K0
G1 X2.14 F260
Y-0.465
X3.189
X3.238 Y-0.47
X6.905
X6.986 Y-0.601
X7.086 Y-0.705
X7.219 Y-0.796
X7.362 Y-0.852
X7.514 Y-0.876
X9.006
X9.17 Y-0.849
X9.323 Y-0.784
X9.457 Y-0.685
X9.565 Y-0.558
X9.64 Y-0.41
X9.678 Y-0.248
Y-0.082
X9.64 Y0.08
X9.569 Y0.221
X9.463 Y0.349
X9.323 Y0.454
X9.17 Y0.519
X9.006 Y0.546
X7.514
X7.362 Y0.522
X7.227 Y0.469
X7.092 Y0.381
X6.986 Y0.271
X6.905 Y0.14
X3.684
X3.196 Y0.137
X3.126 Y0.136 Z0.008 F234
X3.059 Z0.031
X2.999 Y0.135 Z0.069
X2.948 Z0.12
X2.91 Z0.18
X2.887 Z0.247
X2.879 Z0.317
Z5 F260
X7.815 Y0.183
Z2
Z0.317 F130
X7.816 Y0.175 Z0.247
X7.818 Y0.152 Z0.18
X7.82 Y0.114 Z0.12
X7.824 Y0.064 Z0.069
X7.829 Y0.004 Z0.031
X7.834 Y-0.063 Z0.008
X7.839 Y-0.133 Z0
X7.848 Y-0.259 F260
X7.9 Y-0.383
X7.973 Y-0.474
X8.077 Y-0.545
X8.206 Y-0.582
X8.323
X8.443 Y-0.545
X8.547 Y-0.474
X8.626 Y-0.376
X8.672 Y-0.259
X8.679 Y-0.125
X8.653 Y-0.011
X8.59 Y0.098
X8.498 Y0.184
X8.384 Y0.238
X8.26 Y0.257
X8.136 Y0.238
X8.022 Y0.184
X7.93 Y0.098
X7.867 Y-0.011
X7.839 Y-0.133
X7.823 Y-0.202 Z0.008 F234
X7.808 Y-0.268 Z0.031
X7.795 Y-0.326 Z0.069
X7.784 Y-0.375 Z0.12
X7.775 Y-0.412 Z0.18
X7.77 Y-0.435 Z0.247
X7.768 Y-0.443 Z0.317
Z5 F260
X3.506 Y-1.135
Z2
Z0.317 F130
G3 X3.189 Z0 I-0.317 K0
G1 X2.14 F260
Y-1.735
X3.189
X3.236 Y-1.739
X5.594 Y-1.74
X6.702 Y-2.848
X6.819 Y-2.955
X6.899 Y-2.996
X6.985 Y-3.14
X7.092 Y-3.251
X7.219 Y-3.336
X7.354 Y-3.389
X7.514 Y-3.416
X9.006
X9.17 Y-3.389
X9.323 Y-3.324
X9.457 Y-3.225
X9.565 Y-3.098
X9.64 Y-2.95
X9.678 Y-2.788
Y-2.622
X9.64 Y-2.46
X9.565 Y-2.312
X9.463 Y-2.191
X9.323 Y-2.086
X9.17 Y-2.021
X9.006 Y-1.994
X7.514
X7.362 Y-2.018
X7.22 Y-2.074
X7.092 Y-2.159
X6.986 Y-2.27
X5.984 Y-1.268
X5.886 Y-1.181
X5.799 Y-1.141
X5.72 Y-1.13
X3.684
X3.196 Y-1.133
X3.126 Y-1.134 Z0.008 F234
X3.059 Z0.031
X2.999 Y-1.135 Z0.069
X2.948 Z0.12
X2.91 Z0.18
X2.887 Z0.247
X2.879 Z0.317
Z5 F260
X7.938 Y-2.241
Z2
Z0.317 F130
X7.936 Y-2.249 Z0.247
X7.931 Y-2.272 Z0.18
X7.922 Y-2.309 Z0.12
X7.911 Y-2.358 Z0.069
X7.898 Y-2.416 Z0.031
X7.883 Y-2.482 Z0.008
X7.867 Y-2.551 Z0
X7.839 Y-2.673 F260
X7.848 Y-2.799
X7.9 Y-2.923
X7.973 Y-3.014
X8.077 Y-3.085
X8.197 Y-3.122
X8.323
X8.443 Y-3.085
X8.547 Y-3.014
X8.626 Y-2.916
X8.672 Y-2.799
X8.679 Y-2.665
X8.653 Y-2.551
X8.59 Y-2.442
X8.498 Y-2.356
X8.384 Y-2.302
X8.26 Y-2.283
X8.136 Y-2.302
X8.022 Y-2.356
X7.93 Y-2.442
X7.867 Y-2.551
X7.832 Y-2.612 Z0.008 F234
X7.798 Y-2.67 Z0.031
X7.768 Y-2.722 Z0.069
X7.743 Y-2.766 Z0.12
X7.724 Y-2.798 Z0.18
X7.712 Y-2.819 Z0.247
X7.708 Y-2.826 Z0.317
Z5 F260
X3.506 Y-2.405
Z2
Z0.317 F130
G3 X3.189 Z0 I-0.317 K0
G1 X2.14 F260
Y-3.005
X3.189
X3.232 Y-3.009
X4.324 Y-3.01
X6.702 Y-5.388
X6.819 Y-5.495
X6.899 Y-5.536
X6.981 Y-5.673
X7.092 Y-5.791
X7.219 Y-5.876
X7.362 Y-5.932
X7.514 Y-5.956
X9.006
X9.162 Y-5.93
X9.323 Y-5.864
X9.45 Y-5.77
X9.565 Y-5.638
X9.64 Y-5.49
X9.678 Y-5.328
Y-5.162
X9.64 Y-5
X9.569 Y-4.859
X9.463 Y-4.731
X9.323 Y-4.626
X9.17 Y-4.561
X9.006 Y-4.534
X7.514
X7.371 Y-4.557
X7.22 Y-4.614
X7.092 Y-4.699
X6.986 Y-4.81
X4.714 Y-2.538
X4.616 Y-2.451
X4.529 Y-2.411
X4.454 Y-2.401
X3.684 Y-2.4
X3.196 Y-2.403
X3.126 Y-2.404 Z0.008 F234
X3.059 Z0.031
X2.999 Y-2.405 Z0.069
X2.948 Z0.12
X2.91 Z0.18
X2.887 Z0.247
X2.879 Z0.317
Z5 F260
X7.938 Y-4.781
Z2
Z0.317 F130
X7.936 Y-4.789 Z0.247
X7.931 Y-4.812 Z0.18
X7.922 Y-4.849 Z0.12
X7.911 Y-4.898 Z0.069
X7.898 Y-4.956 Z0.031
X7.883 Y-5.022 Z0.008
X7.867 Y-5.091 Z0
X7.839 Y-5.213 F260
X7.848 Y-5.339
X7.9 Y-5.463
X7.973 Y-5.554
X8.077 Y-5.625
X8.197 Y-5.662
X8.323
X8.443 Y-5.625
X8.547 Y-5.554
X8.626 Y-5.456
X8.672 Y-5.339
X8.679 Y-5.205
X8.653 Y-5.091
X8.59 Y-4.982
X8.498 Y-4.896
X8.384 Y-4.842
X8.26 Y-4.823
X8.136 Y-4.842
X8.022 Y-4.896
X7.93 Y-4.982
X7.867 Y-5.091
X7.832 Y-5.152 Z0.008 F234
X7.798 Y-5.21 Z0.031
X7.768 Y-5.262 Z0.069
X7.743 Y-5.306 Z0.12
X7.724 Y-5.338 Z0.18
X7.712 Y-5.359 Z0.247
X7.708 Y-5.366 Z0.317
Z5 F260
X7.549 Y-7.074
Z2
Z0.317 F130
G2 X7.867 Z0 I0.318 K0
G1 X9.006 F260
X9.17 Y-7.101
X9.323 Y-7.166
X9.457 Y-7.265
X9.565 Y-7.392
X9.64 Y-7.54
X9.678 Y-7.702
Y-7.868
X9.64 Y-8.03
X9.559 Y-8.185
X9.457 Y-8.305
X9.314 Y-8.408
X9.162 Y-8.47
X9.006 Y-8.496
X7.514
X7.362 Y-8.472
X7.219 Y-8.416
X7.092 Y-8.331
X6.985 Y-8.22
X6.899 Y-8.076
X6.819 Y-8.035
X6.702 Y-7.928
X3.049 Y-4.275
X2.14
Y-3.675
X4.34
Y-4.275
X3.911
X6.986 Y-7.35
X7.092 Y-7.239
X7.22 Y-7.154
X7.371 Y-7.097
X7.514 Y-7.074
X7.867
G2 X8.184 Z0.317 I0 K0.317 F234
G1 Z5 F260
X8.324 Y-7.291
Z2
Z0.317 F130
X8.317 Y-7.294 Z0.247
X8.296 Y-7.304 Z0.18
X8.262 Y-7.321 Z0.12
X8.216 Y-7.343 Z0.069
X8.162 Y-7.369 Z0.031
X8.102 Y-7.398 Z0.008
X8.038 Y-7.429 Z0
X8.022 Y-7.436 F260
X7.93 Y-7.522
X7.867 Y-7.631
X7.839 Y-7.753
X7.848 Y-7.879
X7.9 Y-8.003
X7.973 Y-8.094
X8.077 Y-8.165
X8.197 Y-8.202
X8.323
X8.443 Y-8.165
X8.547 Y-8.094
X8.626 Y-7.996
X8.672 Y-7.879
X8.679 Y-7.745
X8.653 Y-7.631
X8.59 Y-7.522
X8.498 Y-7.436
X8.384 Y-7.382
X8.26 Y-7.363
X8.136 Y-7.382
X8.038 Y-7.429
X7.974 Y-7.459 Z0.008 F234
X7.914 Y-7.488 Z0.031
X7.859 Y-7.514 Z0.069
X7.814 Y-7.536 Z0.12
X7.78 Y-7.553 Z0.18
X7.759 Y-7.563 Z0.247
X7.752 Y-7.566 Z0.317
Z15 F260
G17
G28 G91 Z0
G90
G28 G91 X0 Y0
G90
M5
M30
