(G-CODE GENERATED BY FLATCAM v8.991 - www.flatcam.org - Version Date: 2019/12/27)

(Name: CUTOUT-2mm)
(Type: G-code from Geometry)
(Units: MM)

(Created on Friday, 19 July 2024 at 16:46)

(TOOL DIAMETER: 2.0 mm)
(Feedrate: 120.0 mm/min)
(Feedrate_Z: 60.0 mm/min)
(Feedrate rapids 1500.0 mm/min)

(Z_Cut: -2.0 mm)
(DepthPerCut: 0.6 mm <=>4 passes)
(Z_Move: 2.0 mm)
(Z Toolchange: 15.0 mm)
(X,Y Toolchange: 0.0000, 0.0000 mm)
(Z Start: None mm)
(Z End: 15.0 mm)
(Steps per circle: 64)
(Preprocessor Geometry: default)

(X range:   -0.0525 ...   26.2150  mm)
(Y range:    2.1475 ...   26.3416  mm)

(Spindle Speed: 9000 RPM)
G21
G90
G94




G01 F120.00
G00 Z2.0000

M03 S9000
G00 X11.0813 Y2.1475
G01 F60.00
G01 Z-0.6000
G01 F120.00
G01 X1.9475 Y2.1475
G01 X1.7515 Y2.1572
G01 X1.5573 Y2.1860
G01 X1.3670 Y2.2336
G01 X1.1822 Y2.2998
G01 X1.0047 Y2.3837
G01 X0.8364 Y2.4846
G01 X0.6787 Y2.6015
G01 X0.5333 Y2.7333
G01 X0.4015 Y2.8787
G01 X0.2846 Y3.0364
G01 X0.1837 Y3.2047
G01 X0.0998 Y3.3822
G01 X0.0336 Y3.5670
G01 X-0.0140 Y3.7573
G01 X-0.0428 Y3.9515
G01 X-0.0525 Y4.1475
G01 X-0.0525 Y12.2445
G00 X-0.0525 Y12.2445
G01 F60.00
G01 Z-1.2000
G01 F120.00
G01 X-0.0525 Y4.1475
G01 X-0.0428 Y3.9515
G01 X-0.0140 Y3.7573
G01 X0.0336 Y3.5670
G01 X0.0998 Y3.3822
G01 X0.1837 Y3.2047
G01 X0.2846 Y3.0364
G01 X0.4015 Y2.8787
G01 X0.5333 Y2.7333
G01 X0.6787 Y2.6015
G01 X0.8364 Y2.4846
G01 X1.0047 Y2.3837
G01 X1.1822 Y2.2998
G01 X1.3670 Y2.2336
G01 X1.5573 Y2.1860
G01 X1.7515 Y2.1572
G01 X1.9475 Y2.1475
G01 X11.0813 Y2.1475
G00 X11.0813 Y2.1475
G01 F60.00
G01 Z-1.8000
G01 F120.00
G01 X1.9475 Y2.1475
G01 X1.7515 Y2.1572
G01 X1.5573 Y2.1860
G01 X1.3670 Y2.2336
G01 X1.1822 Y2.2998
G01 X1.0047 Y2.3837
G01 X0.8364 Y2.4846
G01 X0.6787 Y2.6015
G01 X0.5333 Y2.7333
G01 X0.4015 Y2.8787
G01 X0.2846 Y3.0364
G01 X0.1837 Y3.2047
G01 X0.0998 Y3.3822
G01 X0.0336 Y3.5670
G01 X-0.0140 Y3.7573
G01 X-0.0428 Y3.9515
G01 X-0.0525 Y4.1475
G01 X-0.0525 Y12.2445
G00 X-0.0525 Y12.2445
G01 F60.00
G01 Z-2.0000
G01 F120.00
G01 X-0.0525 Y4.1475
G01 X-0.0428 Y3.9515
G01 X-0.0140 Y3.7573
G01 X0.0336 Y3.5670
G01 X0.0998 Y3.3822
G01 X0.1837 Y3.2047
G01 X0.2846 Y3.0364
G01 X0.4015 Y2.8787
G01 X0.5333 Y2.7333
G01 X0.6787 Y2.6015
G01 X0.8364 Y2.4846
G01 X1.0047 Y2.3837
G01 X1.1822 Y2.2998
G01 X1.3670 Y2.2336
G01 X1.5573 Y2.1860
G01 X1.7515 Y2.1572
G01 X1.9475 Y2.1475
G01 X11.0813 Y2.1475
G00 Z2.0000
G00 X17.0813 Y2.1475
G01 F60.00
G01 Z-0.6000
G01 F120.00
G01 X24.2150 Y2.1475
G00 X24.2150 Y2.1475
G01 F60.00
G01 Z-1.2000
G01 F120.00
G01 X17.0813 Y2.1475
G00 X17.0813 Y2.1475
G01 F60.00
G01 Z-1.8000
G01 F120.00
G01 X24.2150 Y2.1475
G00 X24.2150 Y2.1475
G01 F60.00
G01 Z-2.0000
G01 F120.00
G01 X17.0813 Y2.1475
G00 Z2.0000
G00 X24.2150 Y2.1475
G01 F60.00
G01 Z-0.6000
G01 F120.00
G01 X24.4110 Y2.1572
G01 X24.6052 Y2.1860
G01 X24.7956 Y2.2336
G01 X24.9804 Y2.2998
G01 X25.1578 Y2.3837
G01 X25.3261 Y2.4846
G01 X25.4838 Y2.6015
G01 X25.6292 Y2.7333
G01 X25.7610 Y2.8787
G01 X25.8779 Y3.0364
G01 X25.9788 Y3.2047
G01 X26.0628 Y3.3822
G01 X26.1289 Y3.5670
G01 X26.1766 Y3.7573
G01 X26.2054 Y3.9515
G01 X26.2150 Y4.1475
G01 X26.2150 Y12.2445
G00 X26.2150 Y12.2445
G01 F60.00
G01 Z-1.2000
G01 F120.00
G01 X26.2150 Y4.1475
G01 X26.2054 Y3.9515
G01 X26.1766 Y3.7573
G01 X26.1289 Y3.5670
G01 X26.0628 Y3.3822
G01 X25.9788 Y3.2047
G01 X25.8779 Y3.0364
G01 X25.7610 Y2.8787
G01 X25.6292 Y2.7333
G01 X25.4838 Y2.6015
G01 X25.3261 Y2.4846
G01 X25.1578 Y2.3837
G01 X24.9804 Y2.2998
G01 X24.7956 Y2.2336
G01 X24.6052 Y2.1860
G01 X24.4110 Y2.1572
G01 X24.2150 Y2.1475
G00 X24.2150 Y2.1475
G01 F60.00
G01 Z-1.8000
G01 F120.00
G01 X24.4110 Y2.1572
G01 X24.6052 Y2.1860
G01 X24.7956 Y2.2336
G01 X24.9804 Y2.2998
G01 X25.1578 Y2.3837
G01 X25.3261 Y2.4846
G01 X25.4838 Y2.6015
G01 X25.6292 Y2.7333
G01 X25.7610 Y2.8787
G01 X25.8779 Y3.0364
G01 X25.9788 Y3.2047
G01 X26.0628 Y3.3822
G01 X26.1289 Y3.5670
G01 X26.1766 Y3.7573
G01 X26.2054 Y3.9515
G01 X26.2150 Y4.1475
G01 X26.2150 Y12.2445
G00 X26.2150 Y12.2445
G01 F60.00
G01 Z-2.0000
G01 F120.00
G01 X26.2150 Y4.1475
G01 X26.2054 Y3.9515
G01 X26.1766 Y3.7573
G01 X26.1289 Y3.5670
G01 X26.0628 Y3.3822
G01 X25.9788 Y3.2047
G01 X25.8779 Y3.0364
G01 X25.7610 Y2.8787
G01 X25.6292 Y2.7333
G01 X25.4838 Y2.6015
G01 X25.3261 Y2.4846
G01 X25.1578 Y2.3837
G01 X24.9804 Y2.2998
G01 X24.7956 Y2.2336
G01 X24.6052 Y2.1860
G01 X24.4110 Y2.1572
G01 X24.2150 Y2.1475
G00 Z2.0000
G00 X26.2150 Y18.2445
G01 F60.00
G01 Z-0.6000
G01 F120.00
G01 X26.2150 Y24.3416
G01 X26.2054 Y24.5376
G01 X26.1766 Y24.7317
G01 X26.1289 Y24.9221
G01 X26.0628 Y25.1069
G01 X25.9788 Y25.2843
G01 X25.8779 Y25.4527
G01 X25.7610 Y25.6103
G01 X25.6292 Y25.7558
G01 X25.4838 Y25.8876
G01 X25.3261 Y26.0045
G01 X25.1578 Y26.1054
G01 X24.9804 Y26.1893
G01 X24.7956 Y26.2554
G01 X24.6052 Y26.3031
G01 X24.4110 Y26.3319
G01 X24.2150 Y26.3416
G01 X17.0813 Y26.3416
G00 X17.0813 Y26.3416
G01 F60.00
G01 Z-1.2000
G01 F120.00
G01 X24.2150 Y26.3416
G01 X24.4110 Y26.3319
G01 X24.6052 Y26.3031
G01 X24.7956 Y26.2554
G01 X24.9804 Y26.1893
G01 X25.1578 Y26.1054
G01 X25.3261 Y26.0045
G01 X25.4838 Y25.8876
G01 X25.6292 Y25.7558
G01 X25.7610 Y25.6103
G01 X25.8779 Y25.4527
G01 X25.9788 Y25.2843
G01 X26.0628 Y25.1069
G01 X26.1289 Y24.9221
G01 X26.1766 Y24.7317
G01 X26.2054 Y24.5376
G01 X26.2150 Y24.3416
G01 X26.2150 Y18.2445
G00 X26.2150 Y18.2445
G01 F60.00
G01 Z-1.8000
G01 F120.00
G01 X26.2150 Y24.3416
G01 X26.2054 Y24.5376
G01 X26.1766 Y24.7317
G01 X26.1289 Y24.9221
G01 X26.0628 Y25.1069
G01 X25.9788 Y25.2843
G01 X25.8779 Y25.4527
G01 X25.7610 Y25.6103
G01 X25.6292 Y25.7558
G01 X25.4838 Y25.8876
G01 X25.3261 Y26.0045
G01 X25.1578 Y26.1054
G01 X24.9804 Y26.1893
G01 X24.7956 Y26.2554
G01 X24.6052 Y26.3031
G01 X24.4110 Y26.3319
G01 X24.2150 Y26.3416
G01 X17.0813 Y26.3416
G00 X17.0813 Y26.3416
G01 F60.00
G01 Z-2.0000
G01 F120.00
G01 X24.2150 Y26.3416
G01 X24.4110 Y26.3319
G01 X24.6052 Y26.3031
G01 X24.7956 Y26.2554
G01 X24.9804 Y26.1893
G01 X25.1578 Y26.1054
G01 X25.3261 Y26.0045
G01 X25.4838 Y25.8876
G01 X25.6292 Y25.7558
G01 X25.7610 Y25.6103
G01 X25.8779 Y25.4527
G01 X25.9788 Y25.2843
G01 X26.0628 Y25.1069
G01 X26.1289 Y24.9221
G01 X26.1766 Y24.7317
G01 X26.2054 Y24.5376
G01 X26.2150 Y24.3416
G01 X26.2150 Y18.2445
G00 Z2.0000
G00 X11.0813 Y26.3416
G01 F60.00
G01 Z-0.6000
G01 F120.00
G01 X1.9475 Y26.3416
G01 X1.7515 Y26.3319
G01 X1.5573 Y26.3031
G01 X1.3670 Y26.2554
G01 X1.1822 Y26.1893
G01 X1.0047 Y26.1054
G01 X0.8364 Y26.0045
G01 X0.6787 Y25.8876
G01 X0.5333 Y25.7558
G01 X0.4015 Y25.6103
G01 X0.2846 Y25.4527
G01 X0.1837 Y25.2843
G01 X0.0998 Y25.1069
G01 X0.0336 Y24.9221
G01 X-0.0140 Y24.7317
G01 X-0.0428 Y24.5376
G01 X-0.0525 Y24.3416
G01 X-0.0525 Y18.2445
G00 X-0.0525 Y18.2445
G01 F60.00
G01 Z-1.2000
G01 F120.00
G01 X-0.0525 Y24.3416
G01 X-0.0428 Y24.5376
G01 X-0.0140 Y24.7317
G01 X0.0336 Y24.9221
G01 X0.0998 Y25.1069
G01 X0.1837 Y25.2843
G01 X0.2846 Y25.4527
G01 X0.4015 Y25.6103
G01 X0.5333 Y25.7558
G01 X0.6787 Y25.8876
G01 X0.8364 Y26.0045
G01 X1.0047 Y26.1054
G01 X1.1822 Y26.1893
G01 X1.3670 Y26.2554
G01 X1.5573 Y26.3031
G01 X1.7515 Y26.3319
G01 X1.9475 Y26.3416
G01 X11.0813 Y26.3416
G00 X11.0813 Y26.3416
G01 F60.00
G01 Z-1.8000
G01 F120.00
G01 X1.9475 Y26.3416
G01 X1.7515 Y26.3319
G01 X1.5573 Y26.3031
G01 X1.3670 Y26.2554
G01 X1.1822 Y26.1893
G01 X1.0047 Y26.1054
G01 X0.8364 Y26.0045
G01 X0.6787 Y25.8876
G01 X0.5333 Y25.7558
G01 X0.4015 Y25.6103
G01 X0.2846 Y25.4527
G01 X0.1837 Y25.2843
G01 X0.0998 Y25.1069
G01 X0.0336 Y24.9221
G01 X-0.0140 Y24.7317
G01 X-0.0428 Y24.5376
G01 X-0.0525 Y24.3416
G01 X-0.0525 Y18.2445
G00 X-0.0525 Y18.2445
G01 F60.00
G01 Z-2.0000
G01 F120.00
G01 X-0.0525 Y24.3416
G01 X-0.0428 Y24.5376
G01 X-0.0140 Y24.7317
G01 X0.0336 Y24.9221
G01 X0.0998 Y25.1069
G01 X0.1837 Y25.2843
G01 X0.2846 Y25.4527
G01 X0.4015 Y25.6103
G01 X0.5333 Y25.7558
G01 X0.6787 Y25.8876
G01 X0.8364 Y26.0045
G01 X1.0047 Y26.1054
G01 X1.1822 Y26.1893
G01 X1.3670 Y26.2554
G01 X1.5573 Y26.3031
G01 X1.7515 Y26.3319
G01 X1.9475 Y26.3416
G01 X11.0813 Y26.3416
G00 Z2.0000
M05
G00 Z2.0000
G00 Z15.00
G00 X0.0 Y0.0

