(G-CODE GENERATED BY FLATCAM v8.991 - www.flatcam.org - Version Date: 2019/12/27)

(Name: NCC-0.1mm.gbr_ncc_cnc)
(Type: G-code from Geometry)
(Units: MM)

(Created on Friday, 19 July 2024 at 16:44)

(TOOL DIAMETER: 0.31 mm)
(Feedrate: 120.0 mm/min)
(Feedrate_Z: 60.0 mm/min)
(Feedrate rapids 1500.0 mm/min)

(Z_Cut: -0.5955 mm)
(Z_Move: 2.0 mm)
(Z Toolchange: 15.0 mm)
(X,Y Toolchange: 0.0000, 0.0000 mm)
(Z Start: None mm)
(Z End: 15.0 mm)
(Steps per circle: 64)
(Preprocessor Geometry: default)

(X range:    1.2550 ...   25.1450  mm)
(Y range:    3.3550 ...   20.3450  mm)

(Spindle Speed: 9000 RPM)
G21
G90
G94




G01 F120.00
G00 Z2.0000

M03 S9000
G00 X1.2550 Y3.4110
G01 F60.00
G01 Z-0.5955
G01 F120.00
G01 X7.5450 Y3.4110
G01 X7.5450 Y3.5970
G01 X1.2550 Y3.5970
G01 X1.2550 Y3.7830
G01 X7.5450 Y3.7830
G01 X7.5450 Y3.9690
G01 X1.2550 Y3.9690
G01 X1.2550 Y4.1550
G01 X2.1102 Y4.1550
G01 X1.9242 Y4.3410
G01 X1.2550 Y4.3410
G01 X1.2550 Y4.5270
G01 X1.8015 Y4.5270
G00 Z2.0000
G00 X1.7925 Y4.7130
G01 F60.00
G01 Z-0.5955
G01 F120.00
G01 X1.2550 Y4.7130
G01 X1.2550 Y4.8990
G01 X1.7925 Y4.8990
G01 X1.7925 Y5.0850
G01 X1.2550 Y5.0850
G01 X1.2550 Y5.2710
G01 X1.7925 Y5.2710
G01 X1.7925 Y5.4570
G01 X1.2550 Y5.4570
G01 X1.2550 Y5.6430
G01 X1.7925 Y5.6430
G01 X1.7925 Y5.8290
G01 X1.2550 Y5.8290
G01 X1.2550 Y6.0150
G01 X1.7925 Y6.0150
G01 X1.7925 Y6.2010
G01 X1.2550 Y6.2010
G01 X1.2550 Y6.3870
G01 X1.7925 Y6.3870
G01 X1.7925 Y6.5730
G01 X1.2550 Y6.5730
G01 X1.2550 Y6.7590
G01 X1.7925 Y6.7590
G01 X1.7925 Y6.9450
G01 X1.2550 Y6.9450
G01 X1.7925 Y6.9450
G01 X1.7925 Y4.6000
G01 X1.7940 Y4.5700
G01 X1.7971 Y4.5475
G01 X1.7992 Y4.5364
G01 X1.8059 Y4.5102
G01 X1.8146 Y4.4856
G01 X1.8190 Y4.4754
G01 X1.8288 Y4.4552
G01 X1.8423 Y4.4324
G01 X1.8465 Y4.4260
G01 X1.8576 Y4.4109
G01 X1.8649 Y4.4019
G01 X1.8826 Y4.3826
G01 X2.1854 Y4.0798
G01 X2.2051 Y4.0622
G01 X2.2230 Y4.0487
G01 X2.2319 Y4.0425
G01 X2.2518 Y4.0306
G01 X2.2619 Y4.0254
G01 X2.2826 Y4.0158
G01 X2.3072 Y4.0069
G01 X2.3181 Y4.0037
G01 X2.3395 Y3.9985
G01 X2.3623 Y3.9949
G01 X2.3735 Y3.9937
G01 X2.4000 Y3.9925
G01 X7.5450 Y3.9925
G01 X7.5450 Y3.3550
G01 X1.2550 Y3.3550
G01 X1.2550 Y6.9450
G00 Z2.0000
G00 X2.4075 Y6.9450
G01 F60.00
G01 Z-0.5955
G01 F120.00
G01 X2.4075 Y4.7274
G01 X2.5274 Y4.6075
G01 X7.5450 Y4.6075
G01 X7.5450 Y5.5425
G01 X6.1206 Y5.5425
G01 X6.1133 Y5.5221
G01 X6.1104 Y5.5150
G01 X6.0773 Y5.4451
G01 X6.0717 Y5.4349
G01 X6.0358 Y5.3750
G01 X6.0294 Y5.3652
G01 X5.9809 Y5.3001
G01 X5.9292 Y5.2428
G01 X5.9184 Y5.2320
G01 X5.8611 Y5.1803
G01 X5.7989 Y5.1339
G01 X5.7862 Y5.1254
G01 X5.7193 Y5.0855
G01 X5.6498 Y5.0525
G01 X5.6357 Y5.0467
G01 X5.5629 Y5.0208
G01 X5.4877 Y5.0018
G01 X5.4728 Y4.9988
G01 X5.3964 Y4.9876
G01 X5.3112 Y4.9834
G01 X3.8888 Y4.9834
G01 X3.8075 Y4.9873
G01 X3.7963 Y4.9885
G01 X3.7192 Y5.0002
G01 X3.6375 Y5.0207
G01 X3.5575 Y5.0493
G01 X3.4871 Y5.0823
G01 X3.4737 Y5.0895
G01 X3.4101 Y5.1277
G01 X3.4011 Y5.1339
G01 X3.3451 Y5.1755
G01 X3.3333 Y5.1851
G01 X3.2816 Y5.2320
G01 X3.2708 Y5.2428
G01 X3.2195 Y5.2996
G01 X3.1680 Y5.3690
G01 X3.1246 Y5.4414
G01 X3.0881 Y5.5187
G01 X3.0596 Y5.5983
G01 X3.0388 Y5.6812
G01 X3.0264 Y5.7648
G01 X3.0222 Y5.8500
G01 X3.0264 Y5.9352
G01 X3.0388 Y6.0188
G01 X3.0596 Y6.1017
G01 X3.0881 Y6.1813
G01 X3.1246 Y6.2586
G01 X3.1680 Y6.3310
G01 X3.2195 Y6.4004
G01 X3.2708 Y6.4572
G01 X3.2816 Y6.4680
G01 X3.3392 Y6.5200
G01 X3.4011 Y6.5661
G01 X3.4138 Y6.5746
G01 X3.4737 Y6.6105
G01 X3.4871 Y6.6177
G01 X3.5575 Y6.6507
G01 X3.6375 Y6.6793
G01 X3.7192 Y6.6998
G01 X3.7963 Y6.7115
G01 X3.8075 Y6.7127
G01 X3.8888 Y6.7166
G01 X5.3112 Y6.7166
G01 X5.3964 Y6.7124
G01 X5.4728 Y6.7012
G01 X5.4877 Y6.6982
G01 X5.5629 Y6.6792
G01 X5.6357 Y6.6533
G01 X5.6498 Y6.6475
G01 X5.7193 Y6.6145
G01 X5.7862 Y6.5746
G01 X5.7989 Y6.5661
G01 X5.8611 Y6.5197
G01 X5.9184 Y6.4680
G01 X5.9292 Y6.4572
G01 X5.9809 Y6.3999
G01 X6.0294 Y6.3348
G01 X6.0358 Y6.3250
G01 X6.0717 Y6.2651
G01 X6.0773 Y6.2549
G01 X6.1104 Y6.1850
G01 X6.1133 Y6.1779
G01 X6.1206 Y6.1575
G01 X7.5450 Y6.1575
G01 X7.5450 Y6.9450
G01 X2.4075 Y6.9450
G01 X7.5450 Y6.9450
G01 X7.5450 Y6.7590
G01 X2.4075 Y6.7590
G01 X3.4112 Y6.5730
G01 X2.4075 Y6.5730
G01 X2.4075 Y6.3870
G01 X3.2093 Y6.3870
G00 Z2.0000
G00 X3.0972 Y6.2010
G01 F60.00
G01 Z-0.5955
G01 F120.00
G01 X2.4075 Y6.2010
G01 X2.4075 Y6.0150
G01 X3.0381 Y6.0150
G00 Z2.0000
G00 X3.0231 Y5.8290
G01 F60.00
G01 Z-0.5955
G01 F120.00
G01 X2.4075 Y5.8290
G01 X2.4075 Y5.6430
G01 X3.0482 Y5.6430
G00 Z2.0000
G00 X3.1170 Y5.4570
G01 F60.00
G01 Z-0.5955
G01 F120.00
G01 X2.4075 Y5.4570
G01 X2.4075 Y5.2710
G01 X3.2452 Y5.2710
G00 Z2.0000
G00 X3.4818 Y5.0850
G01 F60.00
G01 Z-0.5955
G01 F120.00
G01 X2.4075 Y5.0850
G01 X2.4075 Y4.8990
G01 X7.5450 Y4.8990
G01 X7.5450 Y4.7130
G01 X2.4218 Y4.7130
G00 Z2.0000
G00 X5.7182 Y5.0850
G01 F60.00
G01 Z-0.5955
G01 F120.00
G01 X7.5450 Y5.0850
G01 X7.5450 Y5.2710
G01 X5.9548 Y5.2710
G00 Z2.0000
G00 X6.0830 Y5.4570
G01 F60.00
G01 Z-0.5955
G01 F120.00
G01 X7.5450 Y5.4570
G00 Z2.0000
G00 X7.5450 Y6.2010
G01 F60.00
G01 Z-0.5955
G01 F120.00
G01 X6.1028 Y6.2010
G00 Z2.0000
G00 X5.9907 Y6.3870
G01 F60.00
G01 Z-0.5955
G01 F120.00
G01 X7.5450 Y6.3870
G01 X7.5450 Y6.5730
G01 X5.7888 Y6.5730
G00 Z2.0000
G00 X9.3550 Y12.1610
G01 F60.00
G01 Z-0.5955
G01 F120.00
G01 X9.4262 Y12.1610
G01 X9.3550 Y12.3470
G01 X9.6122 Y12.3470
G01 X9.7982 Y12.5330
G01 X9.3550 Y12.5330
G01 X9.3550 Y12.7190
G01 X9.9842 Y12.7190
G01 X10.1702 Y12.9050
G01 X9.3550 Y12.9050
G01 X9.3550 Y13.0910
G01 X10.3562 Y13.0910
G00 Z2.0000
G00 X10.5669 Y13.2770
G01 F60.00
G01 Z-0.5955
G01 F120.00
G01 X9.3550 Y13.2770
G01 X9.3550 Y13.4630
G01 X23.2022 Y13.4630
G01 X23.3882 Y13.2770
G01 X22.3331 Y13.2770
G00 Z2.0000
G00 X22.5438 Y13.0910
G01 F60.00
G01 Z-0.5955
G01 F120.00
G01 X23.5742 Y13.0910
G01 X23.6075 Y12.9050
G01 X22.7298 Y12.9050
G00 Z2.0000
G00 X22.9050 Y12.7190
G01 F60.00
G01 Z-0.5955
G01 F120.00
G01 X23.6075 Y12.7190
G01 X23.6075 Y12.5330
G01 X22.9525 Y12.5330
G01 X22.9525 Y12.3470
G01 X23.6075 Y12.3470
G01 X23.6075 Y12.1610
G01 X22.9525 Y12.1610
G01 X23.0590 Y11.9750
G01 X23.5010 Y11.9750
G00 Z2.0000
G00 X23.4600 Y11.7890
G01 F60.00
G01 Z-0.5955
G01 F120.00
G01 X23.1000 Y11.7890
G01 X23.1000 Y11.6030
G01 X23.4600 Y11.6030
G01 X23.4600 Y11.4170
G01 X23.1000 Y11.4170
G01 X23.1000 Y11.2310
G01 X23.4600 Y11.2310
G01 X23.4600 Y11.0450
G01 X23.1000 Y11.0450
G01 X23.1000 Y10.8590
G01 X23.4600 Y10.8590
G01 X23.4600 Y10.6730
G01 X23.1000 Y10.6730
G01 X23.1000 Y10.4870
G01 X23.4600 Y10.4870
G01 X23.4600 Y10.3010
G01 X23.1000 Y10.3010
G01 X23.1000 Y10.1150
G01 X23.4600 Y10.1150
G01 X23.4600 Y9.9290
G01 X23.1000 Y9.9290
G01 X23.1000 Y9.7430
G01 X23.4600 Y9.7430
G00 Z2.0000
G00 X23.5089 Y9.5570
G01 F60.00
G01 Z-0.5955
G01 F120.00
G01 X23.0511 Y9.5570
G00 Z2.0000
G00 X22.2389 Y9.5570
G01 F60.00
G01 Z-0.5955
G01 F120.00
G01 X21.7811 Y9.5570
G00 Z2.0000
G00 X21.8300 Y9.7430
G01 F60.00
G01 Z-0.5955
G01 F120.00
G01 X22.1900 Y9.7430
G01 X22.1900 Y9.9290
G01 X21.8300 Y9.9290
G01 X21.8300 Y10.1150
G01 X22.1900 Y10.1150
G01 X22.1900 Y10.3010
G01 X21.8300 Y10.3010
G01 X21.8300 Y10.4870
G01 X22.1900 Y10.4870
G01 X22.1900 Y10.6730
G01 X21.8300 Y10.6730
G01 X21.8300 Y10.8590
G01 X22.1900 Y10.8590
G01 X22.1900 Y11.0450
G01 X21.8300 Y11.0450
G01 X21.8300 Y11.2310
G01 X22.1900 Y11.2310
G01 X22.1900 Y11.4170
G01 X21.8300 Y11.4170
G01 X21.8300 Y11.6030
G01 X22.1900 Y11.6030
G01 X22.1900 Y11.7890
G01 X21.8300 Y11.7890
G00 Z2.0000
G00 X21.7890 Y11.9750
G01 F60.00
G01 Z-0.5955
G01 F120.00
G01 X22.2310 Y11.9750
G01 X22.3375 Y12.1610
G01 X10.2958 Y12.1610
G01 X10.4818 Y12.3470
G01 X22.3375 Y12.3470
G01 X22.2322 Y12.5330
G01 X10.6678 Y12.5330
G01 X10.8274 Y12.6925
G01 X22.0726 Y12.6925
G01 X22.3375 Y12.4276
G01 X22.3375 Y12.0248
G01 X22.3259 Y12.0238
G01 X22.3121 Y12.0215
G01 X22.2985 Y12.0179
G01 X22.2848 Y12.0128
G01 X22.2711 Y12.0062
G01 X22.2578 Y11.9982
G01 X22.2455 Y11.9889
G01 X22.2369 Y11.9811
G01 X22.2264 Y11.9699
G01 X22.2174 Y11.9580
G01 X22.2091 Y11.9445
G01 X22.2038 Y11.9339
G01 X22.1985 Y11.9207
G01 X22.1943 Y11.9062
G01 X22.1916 Y11.8923
G01 X22.1903 Y11.8798
G01 X22.1900 Y11.8700
G01 X22.1900 Y9.6700
G01 X22.1903 Y9.6602
G01 X22.1916 Y9.6477
G01 X22.1935 Y9.6373
G01 X22.1962 Y9.6267
G01 X22.1997 Y9.6160
G01 X22.2038 Y9.6061
G01 X22.2091 Y9.5955
G01 X22.2152 Y9.5853
G01 X22.2218 Y9.5759
G01 X22.2289 Y9.5674
G01 X22.2369 Y9.5589
G01 X22.2455 Y9.5511
G01 X22.2546 Y9.5441
G01 X22.2644 Y9.5376
G01 X22.2745 Y9.5320
G01 X22.2848 Y9.5272
G01 X22.2951 Y9.5232
G01 X22.3053 Y9.5202
G01 X22.3155 Y9.5178
G01 X22.3259 Y9.5162
G01 X22.3367 Y9.5152
G01 X22.3450 Y9.5150
G01 X22.9491 Y9.5151
G01 X22.9569 Y9.5155
G01 X22.9677 Y9.5167
G01 X22.9847 Y9.5202
G01 X23.0017 Y9.5257
G01 X23.0155 Y9.5320
G01 X23.0256 Y9.5376
G01 X23.0322 Y9.5418
G01 X23.0384 Y9.5463
G01 X23.0474 Y9.5536
G01 X23.0531 Y9.5589
G01 X23.0611 Y9.5674
G01 X23.0682 Y9.5759
G01 X23.0748 Y9.5853
G01 X23.0809 Y9.5955
G01 X23.0847 Y9.6029
G01 X23.0890 Y9.6127
G01 X23.0927 Y9.6230
G01 X23.0957 Y9.6338
G01 X23.0978 Y9.6442
G01 X23.0994 Y9.6560
G01 X23.0999 Y9.6644
G01 X23.1000 Y11.8700
G01 X23.0994 Y11.8840
G01 X23.0972 Y11.8993
G01 X23.0938 Y11.9133
G01 X23.0903 Y11.9240
G01 X23.0847 Y11.9371
G01 X23.0789 Y11.9481
G01 X23.0726 Y11.9580
G01 X23.0636 Y11.9699
G01 X23.0559 Y11.9782
G01 X23.0474 Y11.9864
G01 X23.0354 Y11.9959
G01 X23.0256 Y12.0024
G01 X23.0155 Y12.0080
G01 X23.0017 Y12.0143
G01 X22.9915 Y12.0179
G01 X22.9779 Y12.0215
G01 X22.9641 Y12.0238
G01 X22.9525 Y12.0248
G01 X22.9525 Y12.5550
G01 X22.9516 Y12.5776
G01 X22.9505 Y12.5897
G01 X22.9470 Y12.6130
G01 X22.9449 Y12.6224
G01 X22.9393 Y12.6441
G01 X22.9318 Y12.6656
G01 X22.9282 Y12.6747
G01 X22.9196 Y12.6931
G01 X22.9141 Y12.7036
G01 X22.9016 Y12.7244
G01 X22.8874 Y12.7441
G01 X22.8800 Y12.7532
G01 X22.8651 Y12.7697
G01 X22.4146 Y13.2202
G01 X22.3984 Y13.2349
G01 X22.3891 Y13.2424
G01 X22.3713 Y13.2553
G01 X22.3516 Y13.2674
G01 X22.3408 Y13.2733
G01 X22.3184 Y13.2838
G01 X22.2883 Y13.2945
G01 X22.2607 Y13.3014
G01 X22.2377 Y13.3051
G01 X22.2259 Y13.3064
G01 X22.2000 Y13.3075
G01 X10.7000 Y13.3075
G01 X10.6710 Y13.3061
G01 X10.6475 Y13.3029
G01 X10.6326 Y13.2999
G01 X10.6109 Y13.2943
G01 X10.5826 Y13.2842
G01 X10.5580 Y13.2727
G01 X10.5356 Y13.2597
G01 X10.5230 Y13.2513
G01 X10.5023 Y13.2354
G01 X10.4826 Y13.2174
G01 X9.4202 Y12.1550
G01 X9.3550 Y12.1550
G01 X9.3550 Y13.6925
G01 X22.9726 Y13.6925
G01 X23.6075 Y13.0576
G01 X23.6075 Y12.0248
G01 X23.5923 Y12.0233
G01 X23.5787 Y12.0207
G01 X23.5651 Y12.0168
G01 X23.5513 Y12.0113
G01 X23.5377 Y12.0044
G01 X23.5246 Y11.9959
G01 X23.5126 Y11.9864
G01 X23.5041 Y11.9782
G01 X23.4941 Y11.9670
G01 X23.4852 Y11.9547
G01 X23.4791 Y11.9445
G01 X23.4723 Y11.9306
G01 X23.4673 Y11.9170
G01 X23.4635 Y11.9027
G01 X23.4611 Y11.8882
G01 X23.4601 Y11.8756
G01 X23.4600 Y9.6700
G01 X23.4603 Y9.6602
G01 X23.4616 Y9.6477
G01 X23.4643 Y9.6338
G01 X23.4673 Y9.6230
G01 X23.4710 Y9.6127
G01 X23.4753 Y9.6029
G01 X23.4811 Y9.5919
G01 X23.4874 Y9.5820
G01 X23.4941 Y9.5730
G01 X23.5013 Y9.5646
G01 X23.5097 Y9.5562
G01 X23.5185 Y9.5487
G01 X23.5278 Y9.5418
G01 X23.5377 Y9.5356
G01 X23.5479 Y9.5303
G01 X23.5583 Y9.5257
G01 X23.5685 Y9.5221
G01 X23.5787 Y9.5193
G01 X23.5923 Y9.5167
G01 X23.6031 Y9.5155
G01 X23.6150 Y9.5150
G01 X24.2150 Y9.5150
G01 X24.2269 Y9.5155
G01 X24.2411 Y9.5172
G01 X24.2547 Y9.5202
G01 X24.2682 Y9.5244
G01 X24.2821 Y9.5303
G01 X24.2956 Y9.5376
G01 X24.3084 Y9.5463
G01 X24.3203 Y9.5562
G01 X24.3287 Y9.5646
G01 X24.3382 Y9.5759
G01 X24.3469 Y9.5886
G01 X24.3529 Y9.5992
G01 X24.3590 Y9.6127
G01 X24.3638 Y9.6267
G01 X24.3672 Y9.6407
G01 X24.3694 Y9.6560
G01 X24.3700 Y9.6700
G01 X24.3699 Y11.8756
G01 X24.3689 Y11.8882
G01 X24.3665 Y11.9027
G01 X24.3627 Y11.9170
G01 X24.3577 Y11.9306
G01 X24.3509 Y11.9445
G01 X24.3448 Y11.9547
G01 X24.3359 Y11.9670
G01 X24.3259 Y11.9782
G01 X24.3174 Y11.9864
G01 X24.3054 Y11.9959
G01 X24.2923 Y12.0044
G01 X24.2787 Y12.0113
G01 X24.2649 Y12.0168
G01 X24.2513 Y12.0207
G01 X24.2377 Y12.0233
G01 X24.2225 Y12.0248
G01 X24.2225 Y13.1850
G01 X24.2208 Y13.2168
G01 X24.2179 Y13.2375
G01 X24.2149 Y13.2524
G01 X24.2093 Y13.2741
G01 X24.2007 Y13.2987
G01 X24.1960 Y13.3096
G01 X24.1858 Y13.3307
G01 X24.1716 Y13.3544
G01 X24.1574 Y13.3741
G01 X24.1500 Y13.3832
G01 X24.1324 Y13.4024
G01 X23.3146 Y14.2202
G01 X23.2984 Y14.2349
G01 X23.2925 Y14.2397
G01 X23.2742 Y14.2533
G01 X23.2644 Y14.2597
G01 X23.2475 Y14.2698
G01 X23.2381 Y14.2746
G01 X23.2184 Y14.2838
G01 X23.1965 Y14.2918
G01 X23.1851 Y14.2954
G01 X23.1674 Y14.2999
G01 X23.1525 Y14.3029
G01 X23.1292 Y14.3061
G01 X23.1000 Y14.3075
G01 X9.3550 Y14.3075
G01 X9.3550 Y14.8450
G01 X18.4000 Y14.8450
G01 X18.4119 Y14.8455
G01 X18.4261 Y14.8472
G01 X18.4397 Y14.8502
G01 X18.4532 Y14.8544
G01 X18.4637 Y14.8587
G01 X18.4773 Y14.8656
G01 X18.4872 Y14.8718
G01 X18.4965 Y14.8787
G01 X18.5053 Y14.8862
G01 X18.5137 Y14.8946
G01 X18.5232 Y14.9059
G01 X18.5298 Y14.9153
G01 X18.5359 Y14.9255
G01 X18.5412 Y14.9361
G01 X18.5465 Y14.9493
G01 X18.5499 Y14.9604
G01 X18.5528 Y14.9742
G01 X18.5544 Y14.9860
G01 X18.5550 Y15.0000
G01 X18.5550 Y15.7025
G01 X19.6500 Y15.7025
G01 X19.6501 Y14.8644
G01 X19.6511 Y14.8518
G01 X19.6528 Y14.8407
G01 X19.6562 Y14.8267
G01 X19.6597 Y14.8160
G01 X19.6653 Y14.8029
G01 X19.6711 Y14.7919
G01 X19.6774 Y14.7820
G01 X19.6841 Y14.7730
G01 X19.6941 Y14.7618
G01 X19.7055 Y14.7511
G01 X19.7178 Y14.7418
G01 X19.7311 Y14.7338
G01 X19.7448 Y14.7272
G01 X19.7518 Y14.7244
G01 X19.7619 Y14.7211
G01 X19.7789 Y14.7172
G01 X19.7931 Y14.7155
G01 X19.8050 Y14.7150
G01 X20.4050 Y14.7150
G01 X20.4169 Y14.7155
G01 X20.4277 Y14.7167
G01 X20.4413 Y14.7193
G01 X20.4515 Y14.7221
G01 X20.4652 Y14.7272
G01 X20.4755 Y14.7320
G01 X20.4856 Y14.7376
G01 X20.4954 Y14.7441
G01 X20.5045 Y14.7511
G01 X20.5131 Y14.7589
G01 X20.5211 Y14.7674
G01 X20.5282 Y14.7759
G01 X20.5348 Y14.7853
G01 X20.5409 Y14.7955
G01 X20.5462 Y14.8061
G01 X20.5515 Y14.8193
G01 X20.5549 Y14.8304
G01 X20.5572 Y14.8407
G01 X20.5589 Y14.8518
G01 X20.5599 Y14.8644
G01 X20.5599 Y17.0755
G01 X20.5583 Y17.0927
G01 X20.5550 Y17.1089
G01 X20.5503 Y17.1240
G01 X20.5447 Y17.1371
G01 X20.5374 Y17.1506
G01 X20.5276 Y17.1648
G01 X20.5174 Y17.1768
G01 X20.5059 Y17.1876
G01 X20.4967 Y17.1950
G01 X20.4856 Y17.2024
G01 X20.4755 Y17.2080
G01 X20.4623 Y17.2140
G01 X20.4518 Y17.2178
G01 X20.4399 Y17.2210
G01 X20.4277 Y17.2233
G01 X20.4140 Y17.2247
G01 X20.4050 Y17.2250
G01 X19.8050 Y17.2250
G01 X19.7891 Y17.2242
G01 X19.7741 Y17.2219
G01 X19.7582 Y17.2178
G01 X19.7444 Y17.2127
G01 X19.7311 Y17.2062
G01 X19.7165 Y17.1972
G01 X19.7041 Y17.1876
G01 X19.6954 Y17.1796
G01 X19.6874 Y17.1709
G01 X19.6778 Y17.1585
G01 X19.6706 Y17.1473
G01 X19.6638 Y17.1339
G01 X19.6585 Y17.1207
G01 X19.6550 Y17.1089
G01 X19.6517 Y17.0927
G01 X19.6503 Y17.0790
G01 X19.6500 Y17.0700
G01 X19.6500 Y16.3175
G01 X18.5550 Y16.3175
G01 X18.5550 Y17.9450
G01 X19.9000 Y17.9450
G01 X19.9124 Y17.9455
G01 X19.9227 Y17.9467
G01 X19.9309 Y17.9481
G01 X19.9429 Y17.9510
G01 X19.9507 Y17.9535
G01 X19.9606 Y17.9573
G01 X19.9705 Y17.9620
G01 X19.9773 Y17.9656
G01 X19.9846 Y17.9701
G01 X19.9948 Y17.9774
G01 X20.0039 Y17.9850
G01 X20.0096 Y17.9904
G01 X20.0150 Y17.9961
G01 X20.0226 Y18.0052
G01 X20.0324 Y18.0194
G01 X20.0362 Y18.0261
G01 X20.0412 Y18.0361
G01 X20.0465 Y18.0493
G01 X20.0500 Y18.0611
G01 X20.0533 Y18.0773
G01 X20.0547 Y18.0910
G01 X20.0550 Y18.2425
G01 X20.4226 Y18.2425
G01 X21.0925 Y17.5726
G01 X21.0925 Y17.2250
G01 X21.0695 Y17.2249
G01 X21.0591 Y17.2242
G01 X21.0441 Y17.2219
G01 X21.0282 Y17.2178
G01 X21.0144 Y17.2127
G01 X21.0011 Y17.2062
G01 X20.9865 Y17.1972
G01 X20.9741 Y17.1876
G01 X20.9626 Y17.1768
G01 X20.9524 Y17.1648
G01 X20.9426 Y17.1506
G01 X20.9353 Y17.1371
G01 X20.9297 Y17.1240
G01 X20.9250 Y17.1089
G01 X20.9217 Y17.0927
G01 X20.9203 Y17.0790
G01 X20.9200 Y17.0700
G01 X20.9200 Y14.8700
G01 X20.9206 Y14.8560
G01 X20.9222 Y14.8442
G01 X20.9251 Y14.8304
G01 X20.9297 Y14.8160
G01 X20.9338 Y14.8061
G01 X20.9391 Y14.7955
G01 X20.9431 Y14.7886
G01 X20.9496 Y14.7788
G01 X20.9564 Y14.7701
G01 X20.9641 Y14.7618
G01 X20.9726 Y14.7536
G01 X20.9816 Y14.7463
G01 X20.9878 Y14.7418
G01 X20.9977 Y14.7356
G01 X21.0079 Y14.7303
G01 X21.0183 Y14.7257
G01 X21.0285 Y14.7221
G01 X21.0387 Y14.7193
G01 X21.0489 Y14.7172
G01 X21.0595 Y14.7158
G01 X21.0750 Y14.7150
G01 X21.6791 Y14.7151
G01 X21.6941 Y14.7162
G01 X21.7113 Y14.7193
G01 X21.7282 Y14.7244
G01 X21.7421 Y14.7303
G01 X21.7523 Y14.7356
G01 X21.7622 Y14.7418
G01 X21.7684 Y14.7463
G01 X21.7774 Y14.7536
G01 X21.7831 Y14.7589
G01 X21.7911 Y14.7674
G01 X21.7982 Y14.7759
G01 X21.8048 Y14.7853
G01 X21.8109 Y14.7955
G01 X21.8147 Y14.8029
G01 X21.8190 Y14.8127
G01 X21.8227 Y14.8230
G01 X21.8257 Y14.8338
G01 X21.8278 Y14.8442
G01 X21.8294 Y14.8560
G01 X21.8299 Y14.8644
G01 X21.8299 Y17.0755
G01 X21.8288 Y17.0893
G01 X21.8269 Y17.1009
G01 X21.8240 Y17.1129
G01 X21.8190 Y17.1273
G01 X21.8130 Y17.1405
G01 X21.8074 Y17.1506
G01 X21.8000 Y17.1617
G01 X21.7926 Y17.1709
G01 X21.7846 Y17.1796
G01 X21.7759 Y17.1876
G01 X21.7667 Y17.1950
G01 X21.7556 Y17.2024
G01 X21.7455 Y17.2080
G01 X21.7323 Y17.2140
G01 X21.7218 Y17.2178
G01 X21.7075 Y17.2215
G01 X21.7073 Y17.7076
G01 X21.7058 Y17.7321
G01 X21.7013 Y17.7611
G01 X21.6945 Y17.7883
G01 X21.6842 Y17.8174
G01 X21.6720 Y17.8434
G01 X21.6566 Y17.8694
G01 X21.6383 Y17.8943
G01 X21.6174 Y17.9174
G01 X20.7674 Y18.7674
G01 X20.7443 Y18.7883
G01 X20.7270 Y18.8013
G01 X20.7169 Y18.8082
G01 X20.6934 Y18.8220
G01 X20.6746 Y18.8310
G01 X20.6640 Y18.8355
G01 X20.6424 Y18.8432
G01 X20.6319 Y18.8463
G01 X20.6111 Y18.8513
G01 X20.5877 Y18.8551
G01 X20.5757 Y18.8564
G01 X20.5500 Y18.8575
G01 X20.0550 Y18.8575
G01 X20.0550 Y20.3450
G01 X21.1202 Y20.3450
G01 X22.3375 Y19.1276
G01 X22.3375 Y17.2248
G01 X22.3223 Y17.2233
G01 X22.3101 Y17.2210
G01 X22.2943 Y17.2165
G01 X22.2811 Y17.2112
G01 X22.2677 Y17.2044
G01 X22.2565 Y17.1972
G01 X22.2441 Y17.1876
G01 X22.2354 Y17.1796
G01 X22.2274 Y17.1709
G01 X22.2178 Y17.1585
G01 X22.2088 Y17.1439
G01 X22.2023 Y17.1306
G01 X22.1972 Y17.1168
G01 X22.1940 Y17.1049
G01 X22.1912 Y17.0893
G01 X22.1901 Y17.0755
G01 X22.1900 Y14.8700
G01 X22.1903 Y14.8602
G01 X22.1916 Y14.8477
G01 X22.1943 Y14.8338
G01 X22.1973 Y14.8230
G01 X22.2010 Y14.8127
G01 X22.2053 Y14.8029
G01 X22.2111 Y14.7919
G01 X22.2174 Y14.7820
G01 X22.2264 Y14.7701
G01 X22.2341 Y14.7618
G01 X22.2426 Y14.7536
G01 X22.2516 Y14.7463
G01 X22.2611 Y14.7397
G01 X22.2745 Y14.7320
G01 X22.2848 Y14.7272
G01 X22.2985 Y14.7221
G01 X22.3087 Y14.7193
G01 X22.3223 Y14.7167
G01 X22.3331 Y14.7155
G01 X22.3450 Y14.7150
G01 X22.9450 Y14.7150
G01 X22.9605 Y14.7158
G01 X22.9745 Y14.7178
G01 X22.9881 Y14.7211
G01 X23.0017 Y14.7257
G01 X23.0121 Y14.7303
G01 X23.0223 Y14.7356
G01 X23.0322 Y14.7418
G01 X23.0384 Y14.7463
G01 X23.0474 Y14.7536
G01 X23.0559 Y14.7618
G01 X23.0636 Y14.7701
G01 X23.0704 Y14.7788
G01 X23.0769 Y14.7886
G01 X23.0829 Y14.7992
G01 X23.0877 Y14.8094
G01 X23.0915 Y14.8193
G01 X23.0949 Y14.8304
G01 X23.0972 Y14.8407
G01 X23.0989 Y14.8518
G01 X23.0999 Y14.8644
G01 X23.1000 Y17.0700
G01 X23.0992 Y17.0859
G01 X23.0969 Y17.1009
G01 X23.0940 Y17.1129
G01 X23.0890 Y17.1273
G01 X23.0830 Y17.1405
G01 X23.0749 Y17.1546
G01 X23.0676 Y17.1648
G01 X23.0574 Y17.1768
G01 X23.0459 Y17.1876
G01 X23.0335 Y17.1972
G01 X23.0223 Y17.2044
G01 X23.0089 Y17.2112
G01 X22.9957 Y17.2165
G01 X22.9799 Y17.2210
G01 X22.9677 Y17.2233
G01 X22.9525 Y17.2248
G01 X22.9525 Y19.2550
G01 X22.9511 Y19.2839
G01 X22.9470 Y19.3130
G01 X22.9404 Y19.3401
G01 X22.9368 Y19.3515
G01 X22.9292 Y19.3724
G01 X22.9170 Y19.3984
G01 X22.9032 Y19.4219
G01 X22.8963 Y19.4320
G01 X22.8833 Y19.4493
G01 X22.8677 Y19.4669
G01 X21.9898 Y20.3450
G01 X23.6075 Y20.3450
G01 X23.6075 Y17.2248
G01 X23.5923 Y17.2233
G01 X23.5801 Y17.2210
G01 X23.5643 Y17.2165
G01 X23.5511 Y17.2112
G01 X23.5377 Y17.2044
G01 X23.5265 Y17.1972
G01 X23.5141 Y17.1876
G01 X23.5054 Y17.1796
G01 X23.4974 Y17.1709
G01 X23.4878 Y17.1585
G01 X23.4806 Y17.1473
G01 X23.4738 Y17.1339
G01 X23.4685 Y17.1207
G01 X23.4650 Y17.1089
G01 X23.4617 Y17.0927
G01 X23.4603 Y17.0790
G01 X23.4600 Y17.0700
G01 X23.4600 Y14.8700
G01 X23.4603 Y14.8602
G01 X23.4611 Y14.8518
G01 X23.4628 Y14.8407
G01 X23.4662 Y14.8267
G01 X23.4697 Y14.8160
G01 X23.4738 Y14.8061
G01 X23.4791 Y14.7955
G01 X23.4852 Y14.7853
G01 X23.4918 Y14.7759
G01 X23.5013 Y14.7646
G01 X23.5097 Y14.7562
G01 X23.5185 Y14.7487
G01 X23.5278 Y14.7418
G01 X23.5411 Y14.7338
G01 X23.5513 Y14.7287
G01 X23.5651 Y14.7232
G01 X23.5753 Y14.7202
G01 X23.5889 Y14.7172
G01 X23.6031 Y14.7155
G01 X23.6150 Y14.7150
G01 X24.2150 Y14.7150
G01 X24.2269 Y14.7155
G01 X24.2411 Y14.7172
G01 X24.2547 Y14.7202
G01 X24.2649 Y14.7232
G01 X24.2787 Y14.7287
G01 X24.2889 Y14.7338
G01 X24.2989 Y14.7397
G01 X24.3084 Y14.7463
G01 X24.3174 Y14.7536
G01 X24.3259 Y14.7618
G01 X24.3336 Y14.7701
G01 X24.3404 Y14.7788
G01 X24.3469 Y14.7886
G01 X24.3529 Y14.7992
G01 X24.3577 Y14.8094
G01 X24.3615 Y14.8193
G01 X24.3649 Y14.8304
G01 X24.3672 Y14.8407
G01 X24.3689 Y14.8518
G01 X24.3699 Y14.8644
G01 X24.3700 Y17.0700
G01 X24.3692 Y17.0859
G01 X24.3669 Y17.1009
G01 X24.3640 Y17.1129
G01 X24.3590 Y17.1273
G01 X24.3530 Y17.1405
G01 X24.3449 Y17.1546
G01 X24.3376 Y17.1648
G01 X24.3274 Y17.1768
G01 X24.3159 Y17.1876
G01 X24.3035 Y17.1972
G01 X24.2923 Y17.2044
G01 X24.2789 Y17.2112
G01 X24.2657 Y17.2165
G01 X24.2499 Y17.2210
G01 X24.2377 Y17.2233
G01 X24.2225 Y17.2248
G01 X24.2225 Y20.3450
G01 X25.1450 Y20.3450
G01 X25.1450 Y8.8550
G01 X22.6000 Y8.8550
G01 X22.5881 Y8.8545
G01 X22.5739 Y8.8528
G01 X22.5603 Y8.8498
G01 X22.5501 Y8.8468
G01 X22.5363 Y8.8413
G01 X22.5261 Y8.8362
G01 X22.5161 Y8.8303
G01 X22.5066 Y8.8237
G01 X22.4947 Y8.8138
G01 X22.4839 Y8.8026
G01 X22.4768 Y8.7941
G01 X22.4724 Y8.7880
G01 X22.4641 Y8.7745
G01 X22.4573 Y8.7606
G01 X22.4535 Y8.7507
G01 X22.4512 Y8.7433
G01 X22.4493 Y8.7362
G01 X22.4472 Y8.7258
G01 X22.4453 Y8.7098
G01 X22.4450 Y8.7000
G01 X22.4450 Y7.7550
G01 X21.9000 Y7.7550
G01 X21.8845 Y7.7542
G01 X21.8698 Y7.7520
G01 X21.8552 Y7.7484
G01 X21.8410 Y7.7433
G01 X21.8341 Y7.7403
G01 X21.8245 Y7.7354
G01 X21.8096 Y7.7259
G01 X21.7976 Y7.7164
G01 X21.7863 Y7.7054
G01 X21.7768 Y7.6941
G01 X21.7704 Y7.6850
G01 X21.7643 Y7.6749
G01 X21.7588 Y7.6639
G01 X21.7535 Y7.6507
G01 X21.7500 Y7.6392
G01 X21.7478 Y7.6291
G01 X21.7461 Y7.6182
G01 X21.7451 Y7.6056
G01 X21.7450 Y6.8550
G01 X21.1000 Y6.8550
G01 X21.0881 Y6.8545
G01 X21.0735 Y6.8527
G01 X21.0588 Y6.8494
G01 X21.0445 Y6.8447
G01 X21.0375 Y6.8418
G01 X21.0277 Y6.8371
G01 X21.0125 Y6.8279
G01 X21.0005 Y6.8189
G01 X20.9891 Y6.8082
G01 X20.9791 Y6.7970
G01 X20.9704 Y6.7850
G01 X20.9643 Y6.7749
G01 X20.9588 Y6.7639
G01 X20.9547 Y6.7540
G01 X20.9511 Y6.7431
G01 X20.9478 Y6.7291
G01 X20.9461 Y6.7182
G01 X20.9451 Y6.7056
G01 X20.9450 Y5.8550
G01 X19.9000 Y5.8550
G01 X19.8881 Y5.8545
G01 X19.8735 Y5.8527
G01 X19.8588 Y5.8494
G01 X19.8445 Y5.8447
G01 X19.8375 Y5.8418
G01 X19.8277 Y5.8371
G01 X19.8184 Y5.8318
G01 X19.8096 Y5.8259
G01 X19.8035 Y5.8213
G01 X19.7947 Y5.8138
G01 X19.7863 Y5.8054
G01 X19.7791 Y5.7970
G01 X19.7725 Y5.7881
G01 X19.7665 Y5.7787
G01 X19.7622 Y5.7710
G01 X19.7573 Y5.7606
G01 X19.7535 Y5.7507
G01 X19.7511 Y5.7431
G01 X19.7484 Y5.7325
G01 X19.7466 Y5.7223
G01 X19.7453 Y5.7098
G01 X19.7450 Y5.7000
G01 X19.7450 Y5.1550
G01 X19.0917 Y5.1548
G01 X19.0773 Y5.1533
G01 X19.0624 Y5.1504
G01 X19.0480 Y5.1460
G01 X19.0375 Y5.1418
G01 X19.0245 Y5.1354
G01 X19.0125 Y5.1279
G01 X19.0005 Y5.1189
G01 X18.9891 Y5.1082
G01 X18.9791 Y5.0970
G01 X18.9704 Y5.0850
G01 X18.9643 Y5.0749
G01 X18.9573 Y5.0606
G01 X18.9523 Y5.0469
G01 X18.9484 Y5.0325
G01 X18.9461 Y5.0182
G01 X18.9451 Y5.0056
G01 X18.9450 Y4.1550
G01 X16.6559 Y4.1550
G01 X21.5924 Y9.0916
G01 X21.6127 Y9.1139
G01 X21.6263 Y9.1320
G01 X21.6316 Y9.1396
G01 X21.6424 Y9.1574
G01 X21.6479 Y9.1674
G01 X21.6582 Y9.1893
G01 X21.6618 Y9.1984
G01 X21.6692 Y9.2197
G01 X21.6749 Y9.2416
G01 X21.6770 Y9.2510
G01 X21.6805 Y9.2743
G01 X21.6816 Y9.2865
G01 X21.6825 Y9.3090
G01 X21.6825 Y9.5152
G01 X21.6941 Y9.5162
G01 X21.7079 Y9.5185
G01 X21.7215 Y9.5221
G01 X21.7352 Y9.5272
G01 X21.7489 Y9.5338
G01 X21.7622 Y9.5418
G01 X21.7745 Y9.5511
G01 X21.7831 Y9.5589
G01 X21.7936 Y9.5701
G01 X21.8026 Y9.5820
G01 X21.8109 Y9.5955
G01 X21.8162 Y9.6061
G01 X21.8215 Y9.6193
G01 X21.8257 Y9.6338
G01 X21.8284 Y9.6477
G01 X21.8297 Y9.6602
G01 X21.8300 Y9.6700
G01 X21.8300 Y11.8700
G01 X21.8294 Y11.8840
G01 X21.8272 Y11.8993
G01 X21.8238 Y11.9133
G01 X21.8190 Y11.9273
G01 X21.8129 Y11.9408
G01 X21.8069 Y11.9514
G01 X21.7982 Y11.9641
G01 X21.7887 Y11.9754
G01 X21.7803 Y11.9838
G01 X21.7684 Y11.9937
G01 X21.7556 Y12.0024
G01 X21.7421 Y12.0097
G01 X21.7282 Y12.0156
G01 X21.7147 Y12.0198
G01 X21.7011 Y12.0228
G01 X21.6869 Y12.0245
G01 X21.6750 Y12.0250
G01 X21.0750 Y12.0250
G01 X21.0631 Y12.0245
G01 X21.0523 Y12.0233
G01 X21.0387 Y12.0207
G01 X21.0285 Y12.0179
G01 X21.0183 Y12.0143
G01 X21.0079 Y12.0097
G01 X20.9977 Y12.0044
G01 X20.9878 Y11.9982
G01 X20.9785 Y11.9913
G01 X20.9697 Y11.9838
G01 X20.9613 Y11.9754
G01 X20.9541 Y11.9670
G01 X20.9474 Y11.9580
G01 X20.9411 Y11.9481
G01 X20.9353 Y11.9371
G01 X20.9297 Y11.9240
G01 X20.9262 Y11.9133
G01 X20.9235 Y11.9027
G01 X20.9216 Y11.8923
G01 X20.9203 Y11.8798
G01 X20.9200 Y11.8700
G01 X20.9200 Y9.6700
G01 X20.9203 Y9.6602
G01 X20.9216 Y9.6477
G01 X20.9243 Y9.6338
G01 X20.9285 Y9.6193
G01 X20.9338 Y9.6061
G01 X20.9391 Y9.5955
G01 X20.9474 Y9.5820
G01 X20.9564 Y9.5701
G01 X20.9669 Y9.5589
G01 X20.9755 Y9.5511
G01 X20.9878 Y9.5418
G01 X21.0011 Y9.5338
G01 X21.0148 Y9.5272
G01 X21.0285 Y9.5221
G01 X21.0421 Y9.5185
G01 X21.0559 Y9.5162
G01 X21.0675 Y9.5152
G01 X21.0675 Y9.4364
G01 X16.2387 Y4.6075
G01 X15.1550 Y4.6075
G01 X15.1550 Y5.5425
G01 X16.5926 Y5.5427
G01 X16.6157 Y5.5441
G01 X16.6416 Y5.5478
G01 X16.6524 Y5.5501
G01 X16.6774 Y5.5568
G01 X16.7034 Y5.5662
G01 X16.7258 Y5.5767
G01 X16.7366 Y5.5826
G01 X16.7529 Y5.5924
G01 X16.7592 Y5.5967
G01 X16.7810 Y5.6131
G01 X16.8024 Y5.6326
G01 X20.3224 Y9.1526
G01 X20.3423 Y9.1744
G01 X20.3563 Y9.1930
G01 X20.3632 Y9.2031
G01 X20.3741 Y9.2214
G01 X20.3796 Y9.2319
G01 X20.3882 Y9.2503
G01 X20.3918 Y9.2594
G01 X20.3993 Y9.2809
G01 X20.4049 Y9.3026
G01 X20.4070 Y9.3120
G01 X20.4108 Y9.3382
G01 X20.4124 Y9.3662
G01 X20.4125 Y9.5152
G01 X20.4241 Y9.5162
G01 X20.4379 Y9.5185
G01 X20.4515 Y9.5221
G01 X20.4652 Y9.5272
G01 X20.4789 Y9.5338
G01 X20.4922 Y9.5418
G01 X20.5045 Y9.5511
G01 X20.5131 Y9.5589
G01 X20.5236 Y9.5701
G01 X20.5326 Y9.5820
G01 X20.5409 Y9.5955
G01 X20.5462 Y9.6061
G01 X20.5515 Y9.6193
G01 X20.5557 Y9.6338
G01 X20.5584 Y9.6477
G01 X20.5597 Y9.6602
G01 X20.5600 Y9.6700
G01 X20.5600 Y11.8700
G01 X20.5597 Y11.8798
G01 X20.5589 Y11.8882
G01 X20.5572 Y11.8993
G01 X20.5549 Y11.9096
G01 X20.5527 Y11.9170
G01 X20.5490 Y11.9273
G01 X20.5447 Y11.9371
G01 X20.5409 Y11.9445
G01 X20.5369 Y11.9514
G01 X20.5304 Y11.9612
G01 X20.5236 Y11.9699
G01 X20.5187 Y11.9754
G01 X20.5074 Y11.9864
G01 X20.4984 Y11.9937
G01 X20.4922 Y11.9982
G01 X20.4856 Y12.0024
G01 X20.4755 Y12.0080
G01 X20.4687 Y12.0113
G01 X20.4582 Y12.0156
G01 X20.4413 Y12.0207
G01 X20.4311 Y12.0228
G01 X20.4205 Y12.0242
G01 X20.4050 Y12.0250
G01 X19.8009 Y12.0249
G01 X19.7895 Y12.0242
G01 X19.7789 Y12.0228
G01 X19.7653 Y12.0198
G01 X19.7551 Y12.0168
G01 X19.7413 Y12.0113
G01 X19.7311 Y12.0062
G01 X19.7211 Y12.0003
G01 X19.7116 Y11.9937
G01 X19.7026 Y11.9864
G01 X19.6941 Y11.9782
G01 X19.6864 Y11.9699
G01 X19.6774 Y11.9580
G01 X19.6711 Y11.9481
G01 X19.6653 Y11.9371
G01 X19.6597 Y11.9240
G01 X19.6562 Y11.9133
G01 X19.6535 Y11.9027
G01 X19.6516 Y11.8923
G01 X19.6503 Y11.8798
G01 X19.6500 Y11.8700
G01 X19.6500 Y9.6700
G01 X19.6503 Y9.6602
G01 X19.6516 Y9.6477
G01 X19.6543 Y9.6338
G01 X19.6573 Y9.6230
G01 X19.6623 Y9.6094
G01 X19.6671 Y9.5992
G01 X19.6731 Y9.5886
G01 X19.6796 Y9.5788
G01 X19.6889 Y9.5674
G01 X19.6997 Y9.5562
G01 X19.7116 Y9.5463
G01 X19.7244 Y9.5376
G01 X19.7379 Y9.5303
G01 X19.7518 Y9.5244
G01 X19.7653 Y9.5202
G01 X19.7823 Y9.5167
G01 X19.7975 Y9.5152
G01 X19.7975 Y9.4974
G01 X16.4576 Y6.1575
G01 X15.1550 Y6.1575
G01 X15.1550 Y7.4450
G01 X16.1041 Y7.4451
G01 X16.1155 Y7.4458
G01 X16.1265 Y7.4473
G01 X16.1376 Y7.4496
G01 X16.1484 Y7.4528
G01 X16.1590 Y7.4567
G01 X16.1691 Y7.4613
G01 X16.1786 Y7.4664
G01 X16.1875 Y7.4721
G01 X16.1965 Y7.4787
G01 X16.2024 Y7.4836
G01 X16.2137 Y7.4946
G01 X16.2186 Y7.5001
G01 X16.2254 Y7.5088
G01 X16.2316 Y7.5181
G01 X16.2357 Y7.5251
G01 X16.2427 Y7.5394
G01 X16.2465 Y7.5493
G01 X16.2489 Y7.5569
G01 X16.2529 Y7.5743
G01 X16.2547 Y7.5902
G01 X16.2550 Y7.6000
G01 X16.2550 Y8.4450
G01 X17.3041 Y8.4451
G01 X17.3119 Y8.4455
G01 X17.3227 Y8.4467
G01 X17.3329 Y8.4485
G01 X17.3431 Y8.4511
G01 X17.3532 Y8.4544
G01 X17.3602 Y8.4572
G01 X17.3705 Y8.4620
G01 X17.3773 Y8.4656
G01 X17.3872 Y8.4718
G01 X17.3934 Y8.4763
G01 X17.4024 Y8.4836
G01 X17.4081 Y8.4889
G01 X17.4137 Y8.4946
G01 X17.4209 Y8.5030
G01 X17.4276 Y8.5120
G01 X17.4319 Y8.5186
G01 X17.4359 Y8.5255
G01 X17.4412 Y8.5361
G01 X17.4453 Y8.5460
G01 X17.4477 Y8.5530
G01 X17.4499 Y8.5604
G01 X17.4522 Y8.5707
G01 X17.4539 Y8.5818
G01 X17.4547 Y8.5902
G01 X17.4550 Y8.6000
G01 X17.4550 Y9.6450
G01 X18.3000 Y9.6450
G01 X18.3119 Y9.6455
G01 X18.3295 Y9.6478
G01 X18.3397 Y9.6502
G01 X18.3499 Y9.6532
G01 X18.3602 Y9.6572
G01 X18.3671 Y9.6603
G01 X18.3773 Y9.6656
G01 X18.3839 Y9.6697
G01 X18.3904 Y9.6741
G01 X18.3995 Y9.6811
G01 X18.4109 Y9.6918
G01 X18.4161 Y9.6974
G01 X18.4232 Y9.7059
G01 X18.4298 Y9.7153
G01 X18.4339 Y9.7219
G01 X18.4379 Y9.7292
G01 X18.4427 Y9.7394
G01 X18.4465 Y9.7493
G01 X18.4488 Y9.7567
G01 X18.4507 Y9.7638
G01 X18.4528 Y9.7742
G01 X18.4544 Y9.7860
G01 X18.4549 Y9.7944
G01 X18.4550 Y10.6551
G01 X18.4637 Y10.6587
G01 X18.4739 Y10.6638
G01 X18.4839 Y10.6697
G01 X18.4934 Y10.6763
G01 X18.5024 Y10.6836
G01 X18.5109 Y10.6918
G01 X18.5186 Y10.7001
G01 X18.5254 Y10.7088
G01 X18.5319 Y10.7186
G01 X18.5379 Y10.7292
G01 X18.5427 Y10.7394
G01 X18.5465 Y10.7493
G01 X18.5499 Y10.7604
G01 X18.5522 Y10.7707
G01 X18.5539 Y10.7818
G01 X18.5549 Y10.7944
G01 X18.5549 Y12.0056
G01 X18.5544 Y12.0140
G01 X18.5528 Y12.0258
G01 X18.5507 Y12.0362
G01 X18.5477 Y12.0470
G01 X18.5440 Y12.0573
G01 X18.5397 Y12.0671
G01 X18.5359 Y12.0745
G01 X18.5298 Y12.0847
G01 X18.5254 Y12.0912
G01 X18.5186 Y12.0999
G01 X18.5109 Y12.1082
G01 X18.5053 Y12.1138
G01 X18.4965 Y12.1213
G01 X18.4904 Y12.1259
G01 X18.4839 Y12.1303
G01 X18.4739 Y12.1362
G01 X18.4671 Y12.1397
G01 X18.4567 Y12.1443
G01 X18.4397 Y12.1498
G01 X18.4295 Y12.1522
G01 X18.4191 Y12.1538
G01 X18.4083 Y12.1548
G01 X18.4000 Y12.1550
G01 X10.2898 Y12.1550
G01 X10.8274 Y12.6925
G00 Z2.0000
G00 X9.3550 Y13.6490
G01 F60.00
G01 Z-0.5955
G01 F120.00
G01 X23.0162 Y13.6490
G00 Z2.0000
G00 X23.5138 Y14.0210
G01 F60.00
G01 Z-0.5955
G01 F120.00
G01 X25.1450 Y14.0210
G01 X25.1450 Y13.8350
G01 X23.6998 Y13.8350
G01 X23.8858 Y13.6490
G01 X25.1450 Y13.6490
G01 X25.1450 Y13.4630
G01 X24.0718 Y13.4630
G00 Z2.0000
G00 X24.2084 Y13.2770
G01 F60.00
G01 Z-0.5955
G01 F120.00
G01 X25.1450 Y13.2770
G01 X25.1450 Y13.0910
G01 X24.2225 Y13.0910
G01 X24.2225 Y12.9050
G01 X25.1450 Y12.9050
G01 X25.1450 Y12.7190
G01 X24.2225 Y12.7190
G01 X24.2225 Y12.5330
G01 X25.1450 Y12.5330
G01 X25.1450 Y12.3470
G01 X24.2225 Y12.3470
G01 X24.2225 Y12.1610
G01 X25.1450 Y12.1610
G01 X25.1450 Y11.9750
G01 X24.3290 Y11.9750
G00 Z2.0000
G00 X24.3700 Y11.7890
G01 F60.00
G01 Z-0.5955
G01 F120.00
G01 X25.1450 Y11.7890
G01 X25.1450 Y11.6030
G01 X24.3700 Y11.6030
G01 X24.3700 Y11.4170
G01 X25.1450 Y11.4170
G01 X25.1450 Y11.2310
G01 X24.3700 Y11.2310
G01 X24.3700 Y11.0450
G01 X25.1450 Y11.0450
G01 X25.1450 Y10.8590
G01 X24.3700 Y10.8590
G01 X24.3700 Y10.6730
G01 X25.1450 Y10.6730
G01 X25.1450 Y10.4870
G01 X24.3700 Y10.4870
G01 X24.3700 Y10.3010
G01 X25.1450 Y10.3010
G01 X25.1450 Y10.1150
G01 X24.3700 Y10.1150
G01 X24.3700 Y9.9290
G01 X25.1450 Y9.9290
G01 X25.1450 Y9.7430
G01 X24.3700 Y9.7430
G00 Z2.0000
G00 X24.3211 Y9.5570
G01 F60.00
G01 Z-0.5955
G01 F120.00
G01 X25.1450 Y9.5570
G01 X25.1450 Y9.3710
G01 X21.6825 Y9.3710
G00 Z2.0000
G00 X21.6563 Y9.1850
G01 F60.00
G01 Z-0.5955
G01 F120.00
G01 X25.1450 Y9.1850
G01 X25.1450 Y8.9990
G01 X21.4998 Y8.9990
G01 X21.3138 Y8.8130
G01 X22.4939 Y8.8130
G00 Z2.0000
G00 X22.4450 Y8.6270
G01 F60.00
G01 Z-0.5955
G01 F120.00
G01 X21.1278 Y8.6270
G01 X20.9418 Y8.4410
G01 X22.4450 Y8.4410
G01 X22.4450 Y8.2550
G01 X20.7559 Y8.2550
G01 X20.5699 Y8.0690
G01 X22.4450 Y8.0690
G01 X22.4450 Y7.8830
G01 X20.3839 Y7.8830
G01 X20.1979 Y7.6970
G01 X21.7791 Y7.6970
G00 Z2.0000
G00 X21.7450 Y7.5110
G01 F60.00
G01 Z-0.5955
G01 F120.00
G01 X20.0119 Y7.5110
G01 X19.8259 Y7.3250
G01 X21.7450 Y7.3250
G01 X21.7450 Y7.1390
G01 X19.6399 Y7.1390
G01 X19.4539 Y6.9530
G01 X21.7450 Y6.9530
G00 Z2.0000
G00 X20.9602 Y6.7670
G01 F60.00
G01 Z-0.5955
G01 F120.00
G01 X19.2679 Y6.7670
G01 X19.0819 Y6.5810
G01 X20.9450 Y6.5810
G01 X20.9450 Y6.3950
G01 X18.8959 Y6.3950
G01 X18.7099 Y6.2090
G01 X20.9450 Y6.2090
G01 X20.9450 Y6.0230
G01 X18.5239 Y6.0230
G01 X18.3379 Y5.8370
G01 X19.8275 Y5.8370
G00 Z2.0000
G00 X19.7450 Y5.6510
G01 F60.00
G01 Z-0.5955
G01 F120.00
G01 X18.1519 Y5.6510
G01 X17.9659 Y5.4650
G01 X19.7450 Y5.4650
G01 X19.7450 Y5.2790
G01 X17.7799 Y5.2790
G01 X17.5939 Y5.0930
G01 X18.9760 Y5.0930
G00 Z2.0000
G00 X18.9450 Y4.9070
G01 F60.00
G01 Z-0.5955
G01 F120.00
G01 X17.4079 Y4.9070
G01 X17.2219 Y4.7210
G01 X18.9450 Y4.7210
G01 X18.9450 Y4.5350
G01 X17.0359 Y4.5350
G01 X16.8499 Y4.3490
G01 X18.9450 Y4.3490
G01 X18.9450 Y4.1630
G01 X16.6639 Y4.1630
G00 Z2.0000
G00 X16.3523 Y4.7210
G01 F60.00
G01 Z-0.5955
G01 F120.00
G01 X15.1550 Y4.7210
G01 X15.1550 Y4.9070
G01 X16.5383 Y4.9070
G01 X16.7243 Y5.0930
G01 X15.1550 Y5.0930
G01 X15.1550 Y5.2790
G01 X16.9102 Y5.2790
G01 X17.0962 Y5.4650
G01 X15.1550 Y5.4650
G00 Z2.0000
G00 X15.1550 Y6.2090
G01 F60.00
G01 Z-0.5955
G01 F120.00
G01 X16.5092 Y6.2090
G01 X16.6952 Y6.3950
G01 X15.1550 Y6.3950
G01 X15.1550 Y6.5810
G01 X16.8812 Y6.5810
G01 X17.0672 Y6.7670
G01 X15.1550 Y6.7670
G01 X15.1550 Y6.9530
G01 X17.2532 Y6.9530
G01 X17.4392 Y7.1390
G01 X15.1550 Y7.1390
G01 X15.1550 Y7.3250
G01 X17.6252 Y7.3250
G01 X17.8112 Y7.5110
G01 X16.2269 Y7.5110
G00 Z2.0000
G00 X16.2550 Y7.6970
G01 F60.00
G01 Z-0.5955
G01 F120.00
G01 X17.9972 Y7.6970
G01 X18.1832 Y7.8830
G01 X16.2550 Y7.8830
G01 X16.2550 Y8.0690
G01 X18.3692 Y8.0690
G01 X18.5552 Y8.2550
G01 X16.2550 Y8.2550
G01 X16.2550 Y8.4410
G01 X18.7412 Y8.4410
G01 X18.9272 Y8.6270
G01 X17.4550 Y8.6270
G01 X17.4550 Y8.8130
G01 X19.1132 Y8.8130
G01 X19.2992 Y8.9990
G01 X17.4550 Y8.9990
G01 X17.4550 Y9.1850
G01 X19.4852 Y9.1850
G01 X19.6712 Y9.3710
G01 X17.4550 Y9.3710
G01 X17.4550 Y9.5570
G01 X19.6989 Y9.5570
G00 Z2.0000
G00 X19.6500 Y9.7430
G01 F60.00
G01 Z-0.5955
G01 F120.00
G01 X18.4441 Y9.7430
G00 Z2.0000
G00 X18.4550 Y9.9290
G01 F60.00
G01 Z-0.5955
G01 F120.00
G01 X19.6500 Y9.9290
G01 X19.6500 Y10.1150
G01 X18.4550 Y10.1150
G01 X18.4550 Y10.3010
G01 X19.6500 Y10.3010
G01 X19.6500 Y10.4870
G01 X18.4550 Y10.4870
G01 X18.4888 Y10.6730
G01 X19.6500 Y10.6730
G01 X19.6500 Y10.8590
G01 X18.5550 Y10.8590
G01 X18.5550 Y11.0450
G01 X19.6500 Y11.0450
G01 X19.6500 Y11.2310
G01 X18.5550 Y11.2310
G01 X18.5550 Y11.4170
G01 X19.6500 Y11.4170
G01 X19.6500 Y11.6030
G01 X18.5550 Y11.6030
G01 X18.5550 Y11.7890
G01 X19.6500 Y11.7890
G00 Z2.0000
G00 X19.6910 Y11.9750
G01 F60.00
G01 Z-0.5955
G01 F120.00
G01 X18.5550 Y11.9750
G00 Z2.0000
G00 X20.5190 Y11.9750
G01 F60.00
G01 Z-0.5955
G01 F120.00
G01 X20.9610 Y11.9750
G00 Z2.0000
G00 X20.9200 Y11.7890
G01 F60.00
G01 Z-0.5955
G01 F120.00
G01 X20.5600 Y11.7890
G01 X20.5600 Y11.6030
G01 X20.9200 Y11.6030
G01 X20.9200 Y11.4170
G01 X20.5600 Y11.4170
G01 X20.5600 Y11.2310
G01 X20.9200 Y11.2310
G01 X20.9200 Y11.0450
G01 X20.5600 Y11.0450
G01 X20.5600 Y10.8590
G01 X20.9200 Y10.8590
G01 X20.9200 Y10.6730
G01 X20.5600 Y10.6730
G01 X20.5600 Y10.4870
G01 X20.9200 Y10.4870
G01 X20.9200 Y10.3010
G01 X20.5600 Y10.3010
G01 X20.5600 Y10.1150
G01 X20.9200 Y10.1150
G01 X20.9200 Y9.9290
G01 X20.5600 Y9.9290
G01 X20.5600 Y9.7430
G01 X20.9200 Y9.7430
G00 Z2.0000
G00 X20.9689 Y9.5570
G01 F60.00
G01 Z-0.5955
G01 F120.00
G01 X20.5111 Y9.5570
G01 X20.4125 Y9.3710
G01 X21.0022 Y9.3710
G01 X20.8162 Y9.1850
G01 X20.3504 Y9.1850
G00 Z2.0000
G00 X20.1688 Y8.9990
G01 F60.00
G01 Z-0.5955
G01 F120.00
G01 X20.6302 Y8.9990
G01 X20.4442 Y8.8130
G01 X19.9828 Y8.8130
G01 X19.7968 Y8.6270
G01 X20.2582 Y8.6270
G01 X20.0722 Y8.4410
G01 X19.6108 Y8.4410
G01 X19.4248 Y8.2550
G01 X19.8862 Y8.2550
G01 X19.7002 Y8.0690
G01 X19.2388 Y8.0690
G01 X19.0528 Y7.8830
G01 X19.5142 Y7.8830
G01 X19.3282 Y7.6970
G01 X18.8668 Y7.6970
G01 X18.6808 Y7.5110
G01 X19.1422 Y7.5110
G01 X18.9562 Y7.3250
G01 X18.4948 Y7.3250
G01 X18.3088 Y7.1390
G01 X18.7702 Y7.1390
G01 X18.5842 Y6.9530
G01 X18.1228 Y6.9530
G01 X17.9368 Y6.7670
G01 X18.3982 Y6.7670
G01 X18.2122 Y6.5810
G01 X17.7508 Y6.5810
G01 X17.5648 Y6.3950
G01 X18.0262 Y6.3950
G01 X17.8402 Y6.2090
G01 X17.3788 Y6.2090
G01 X17.1928 Y6.0230
G01 X17.6542 Y6.0230
G01 X17.4682 Y5.8370
G01 X17.0068 Y5.8370
G01 X16.8208 Y5.6510
G01 X17.2822 Y5.6510
G00 Z2.0000
G00 X18.5470 Y14.9510
G01 F60.00
G01 Z-0.5955
G01 F120.00
G01 X19.6500 Y14.9510
G01 X19.6500 Y15.1370
G01 X18.5550 Y15.1370
G01 X18.5550 Y15.3230
G01 X19.6500 Y15.3230
G01 X19.6500 Y15.5090
G01 X18.5550 Y15.5090
G01 X18.5550 Y15.6950
G01 X19.6500 Y15.6950
G00 Z2.0000
G00 X19.6500 Y16.4390
G01 F60.00
G01 Z-0.5955
G01 F120.00
G01 X18.5550 Y16.4390
G01 X18.5550 Y16.6250
G01 X19.6500 Y16.6250
G01 X19.6500 Y16.8110
G01 X18.5550 Y16.8110
G01 X18.5550 Y16.9970
G01 X19.6500 Y16.9970
G00 Z2.0000
G00 X19.6989 Y17.1830
G01 F60.00
G01 Z-0.5955
G01 F120.00
G01 X18.5550 Y17.1830
G01 X18.5550 Y17.3690
G01 X21.0925 Y17.3690
G01 X21.0925 Y17.5550
G01 X18.5550 Y17.5550
G01 X18.5550 Y17.7410
G01 X20.9242 Y17.7410
G01 X20.7382 Y17.9270
G01 X18.5550 Y17.9270
G00 Z2.0000
G00 X20.0550 Y18.1130
G01 F60.00
G01 Z-0.5955
G01 F120.00
G01 X20.5522 Y18.1130
G00 Z2.0000
G00 X21.0498 Y18.4850
G01 F60.00
G01 Z-0.5955
G01 F120.00
G01 X22.3375 Y18.4850
G01 X22.3375 Y18.2990
G01 X21.2358 Y18.2990
G01 X21.4218 Y18.1130
G01 X22.3375 Y18.1130
G01 X22.3375 Y17.9270
G01 X21.6078 Y17.9270
G00 Z2.0000
G00 X21.7046 Y17.7410
G01 F60.00
G01 Z-0.5955
G01 F120.00
G01 X22.3375 Y17.7410
G01 X22.3375 Y17.5550
G01 X21.7075 Y17.5550
G01 X21.7075 Y17.3690
G01 X22.3375 Y17.3690
G01 X22.2389 Y17.1830
G01 X21.7811 Y17.1830
G00 Z2.0000
G00 X21.8300 Y16.9970
G01 F60.00
G01 Z-0.5955
G01 F120.00
G01 X22.1900 Y16.9970
G01 X22.1900 Y16.8110
G01 X21.8300 Y16.8110
G01 X21.8300 Y16.6250
G01 X22.1900 Y16.6250
G01 X22.1900 Y16.4390
G01 X21.8300 Y16.4390
G01 X21.8300 Y16.2530
G01 X22.1900 Y16.2530
G01 X22.1900 Y16.0670
G01 X21.8300 Y16.0670
G01 X21.8300 Y15.8810
G01 X22.1900 Y15.8810
G01 X22.1900 Y15.6950
G01 X21.8300 Y15.6950
G01 X21.8300 Y15.5090
G01 X22.1900 Y15.5090
G01 X22.1900 Y15.3230
G01 X21.8300 Y15.3230
G01 X21.8300 Y15.1370
G01 X22.1900 Y15.1370
G01 X22.1900 Y14.9510
G01 X21.8300 Y14.9510
G00 Z2.0000
G00 X21.7890 Y14.7650
G01 F60.00
G01 Z-0.5955
G01 F120.00
G01 X22.2310 Y14.7650
G00 Z2.0000
G00 X23.0590 Y14.7650
G01 F60.00
G01 Z-0.5955
G01 F120.00
G01 X23.5010 Y14.7650
G00 Z2.0000
G00 X23.4600 Y14.9510
G01 F60.00
G01 Z-0.5955
G01 F120.00
G01 X23.1000 Y14.9510
G01 X23.1000 Y15.1370
G01 X23.4600 Y15.1370
G01 X23.4600 Y15.3230
G01 X23.1000 Y15.3230
G01 X23.1000 Y15.5090
G01 X23.4600 Y15.5090
G01 X23.4600 Y15.6950
G01 X23.1000 Y15.6950
G01 X23.1000 Y15.8810
G01 X23.4600 Y15.8810
G01 X23.4600 Y16.0670
G01 X23.1000 Y16.0670
G01 X23.1000 Y16.2530
G01 X23.4600 Y16.2530
G01 X23.4600 Y16.4390
G01 X23.1000 Y16.4390
G01 X23.1000 Y16.6250
G01 X23.4600 Y16.6250
G01 X23.4600 Y16.8110
G01 X23.1000 Y16.8110
G01 X23.1000 Y16.9970
G01 X23.4600 Y16.9970
G00 Z2.0000
G00 X23.5089 Y17.1830
G01 F60.00
G01 Z-0.5955
G01 F120.00
G01 X23.0511 Y17.1830
G01 X22.9525 Y17.3690
G01 X23.6075 Y17.3690
G01 X23.6075 Y17.5550
G01 X22.9525 Y17.5550
G01 X22.9525 Y17.7410
G01 X23.6075 Y17.7410
G01 X23.6075 Y17.9270
G01 X22.9525 Y17.9270
G01 X22.9525 Y18.1130
G01 X23.6075 Y18.1130
G01 X23.6075 Y18.2990
G01 X22.9525 Y18.2990
G01 X22.9525 Y18.4850
G01 X23.6075 Y18.4850
G01 X23.6075 Y18.6710
G01 X22.9525 Y18.6710
G01 X22.9525 Y18.8570
G01 X23.6075 Y18.8570
G01 X23.6075 Y19.0430
G01 X22.9525 Y19.0430
G01 X22.9525 Y19.2290
G01 X23.6075 Y19.2290
G01 X23.6075 Y19.4150
G01 X22.9074 Y19.4150
G00 Z2.0000
G00 X22.7338 Y19.6010
G01 F60.00
G01 Z-0.5955
G01 F120.00
G01 X23.6075 Y19.6010
G01 X23.6075 Y19.7870
G01 X22.5478 Y19.7870
G01 X22.3618 Y19.9730
G01 X23.6075 Y19.9730
G01 X23.6075 Y20.1590
G01 X22.1758 Y20.1590
G01 X21.9898 Y20.3450
G01 X23.6075 Y20.3450
G00 Z2.0000
G00 X24.2225 Y20.3450
G01 F60.00
G01 Z-0.5955
G01 F120.00
G01 X25.1450 Y20.3450
G01 X25.1450 Y20.1590
G01 X24.2225 Y20.1590
G01 X24.2225 Y19.9730
G01 X25.1450 Y19.9730
G01 X25.1450 Y19.7870
G01 X24.2225 Y19.7870
G01 X24.2225 Y19.6010
G01 X25.1450 Y19.6010
G01 X25.1450 Y19.4150
G01 X24.2225 Y19.4150
G01 X24.2225 Y19.2290
G01 X25.1450 Y19.2290
G01 X25.1450 Y19.0430
G01 X24.2225 Y19.0430
G01 X24.2225 Y18.8570
G01 X25.1450 Y18.8570
G01 X25.1450 Y18.6710
G01 X24.2225 Y18.6710
G01 X24.2225 Y18.4850
G01 X25.1450 Y18.4850
G01 X25.1450 Y18.2990
G01 X24.2225 Y18.2990
G01 X24.2225 Y18.1130
G01 X25.1450 Y18.1130
G01 X25.1450 Y17.9270
G01 X24.2225 Y17.9270
G01 X24.2225 Y17.7410
G01 X25.1450 Y17.7410
G01 X25.1450 Y17.5550
G01 X24.2225 Y17.5550
G01 X24.2225 Y17.3690
G01 X25.1450 Y17.3690
G01 X25.1450 Y17.1830
G01 X24.3211 Y17.1830
G00 Z2.0000
G00 X24.3700 Y16.9970
G01 F60.00
G01 Z-0.5955
G01 F120.00
G01 X25.1450 Y16.9970
G01 X25.1450 Y16.8110
G01 X24.3700 Y16.8110
G01 X24.3700 Y16.6250
G01 X25.1450 Y16.6250
G01 X25.1450 Y16.4390
G01 X24.3700 Y16.4390
G01 X24.3700 Y16.2530
G01 X25.1450 Y16.2530
G01 X25.1450 Y16.0670
G01 X24.3700 Y16.0670
G01 X24.3700 Y15.8810
G01 X25.1450 Y15.8810
G01 X25.1450 Y15.6950
G01 X24.3700 Y15.6950
G01 X24.3700 Y15.5090
G01 X25.1450 Y15.5090
G01 X25.1450 Y15.3230
G01 X24.3700 Y15.3230
G01 X24.3700 Y15.1370
G01 X25.1450 Y15.1370
G01 X25.1450 Y14.9510
G01 X24.3700 Y14.9510
G00 Z2.0000
G00 X24.3290 Y14.7650
G01 F60.00
G01 Z-0.5955
G01 F120.00
G01 X25.1450 Y14.7650
G01 X25.1450 Y14.5790
G01 X9.3550 Y14.5790
G01 X9.3550 Y14.3930
G01 X25.1450 Y14.3930
G01 X25.1450 Y14.2070
G01 X23.3278 Y14.2070
G00 Z2.0000
G00 X20.9610 Y14.7650
G01 F60.00
G01 Z-0.5955
G01 F120.00
G01 X20.5190 Y14.7650
G00 Z2.0000
G00 X20.5600 Y14.9510
G01 F60.00
G01 Z-0.5955
G01 F120.00
G01 X20.9200 Y14.9510
G01 X20.9200 Y15.1370
G01 X20.5600 Y15.1370
G01 X20.5600 Y15.3230
G01 X20.9200 Y15.3230
G01 X20.9200 Y15.5090
G01 X20.5600 Y15.5090
G01 X20.5600 Y15.6950
G01 X20.9200 Y15.6950
G01 X20.9200 Y15.8810
G01 X20.5600 Y15.8810
G01 X20.5600 Y16.0670
G01 X20.9200 Y16.0670
G01 X20.9200 Y16.2530
G01 X20.5600 Y16.2530
G01 X20.5600 Y16.4390
G01 X20.9200 Y16.4390
G01 X20.9200 Y16.6250
G01 X20.5600 Y16.6250
G01 X20.5600 Y16.8110
G01 X20.9200 Y16.8110
G01 X20.9200 Y16.9970
G01 X20.5600 Y16.9970
G00 Z2.0000
G00 X20.5111 Y17.1830
G01 F60.00
G01 Z-0.5955
G01 F120.00
G01 X20.9689 Y17.1830
G00 Z2.0000
G00 X20.8638 Y18.6710
G01 F60.00
G01 Z-0.5955
G01 F120.00
G01 X22.3375 Y18.6710
G01 X22.3375 Y18.8570
G01 X20.5635 Y18.8570
G01 X20.0550 Y19.0430
G01 X22.3375 Y19.0430
G01 X22.2362 Y19.2290
G01 X20.0550 Y19.2290
G01 X20.0550 Y19.4150
G01 X22.0502 Y19.4150
G01 X21.8642 Y19.6010
G01 X20.0550 Y19.6010
G01 X20.0550 Y19.7870
G01 X21.6782 Y19.7870
G01 X21.4922 Y19.9730
G01 X20.0550 Y19.9730
G01 X20.0550 Y20.1590
G01 X21.3062 Y20.1590
G01 X21.1202 Y20.3450
G01 X20.0550 Y20.3450
G00 Z2.0000
G00 X19.6910 Y14.7650
G01 F60.00
G01 Z-0.5955
G01 F120.00
G01 X9.3550 Y14.7650
G00 Z2.0000
M05
G00 Z2.0000
G00 Z15.00
G00 X0.0 Y0.0

