(G-CODE GENERATED BY FLATCAM v8.991 - www.flatcam.org - Version Date: 2019/12/27)

(Name: NCC-0.5mm)
(Type: G-code from Geometry)
(Units: MM)

(Created on Friday, 16 August 2024 at 21:16)

(TOOL DIAMETER: 0.5 mm)
(Feedrate: 50.0 mm/min)
(Feedrate_Z: 60.0 mm/min)
(Feedrate rapids 1500.0 mm/min)

(Z_Cut: -0.15 mm)
(Z_Move: 2.0 mm)
(Z Toolchange: 15.0 mm)
(X,Y Toolchange: 0.0000, 0.0000 mm)
(Z Start: None mm)
(Z End: 15.0 mm)
(Steps per circle: 64)
(Preprocessor Geometry: default)

(X range:    9.4500 ...   25.1500  mm)
(Y range:    4.2500 ...   20.2500  mm)

(Spindle Speed: 9000 RPM)
G21
G90
G94




G01 F50.00
G00 Z2.0000

M03 S9000
G00 X9.4500 Y12.4500
G01 F60.00
G01 Z-0.1500
G01 F50.00
G01 X9.5808 Y12.4500
G01 X9.4500 Y12.7500
G01 X9.8808 Y12.7500
G01 X10.1808 Y13.0500
G01 X9.4500 Y13.0500
G01 X9.4500 Y13.3500
G01 X10.5015 Y13.3500
G00 Z2.0000
G00 X10.8667 Y12.5975
G01 F60.00
G01 Z-0.1500
G01 F50.00
G01 X22.0333 Y12.5975
G01 X22.2425 Y12.3883
G01 X22.2425 Y12.0980
G01 X22.2258 Y12.0897
G01 X22.2097 Y12.0802
G01 X22.1993 Y12.0731
G01 X22.1846 Y12.0617
G01 X22.1706 Y12.0491
G01 X22.1616 Y12.0399
G01 X22.1500 Y12.0265
G01 X22.1392 Y12.0119
G01 X22.1291 Y11.9960
G01 X22.1196 Y11.9782
G01 X22.1127 Y11.9625
G01 X22.1068 Y11.9458
G01 X22.1019 Y11.9283
G01 X22.0985 Y11.9116
G01 X22.0960 Y11.8926
G01 X22.0952 Y11.8791
G01 X22.0950 Y9.6700
G01 X22.0955 Y9.6542
G01 X22.0976 Y9.6340
G01 X22.1006 Y9.6172
G01 X22.1050 Y9.6001
G01 X22.1107 Y9.5828
G01 X22.1172 Y9.5670
G01 X22.1258 Y9.5499
G01 X22.1323 Y9.5386
G01 X22.1428 Y9.5230
G01 X22.1538 Y9.5089
G01 X22.1661 Y9.4954
G01 X22.1752 Y9.4865
G01 X22.1894 Y9.4744
G01 X22.2044 Y9.4633
G01 X22.2150 Y9.4565
G01 X22.2313 Y9.4474
G01 X22.2423 Y9.4421
G01 X22.2592 Y9.4352
G01 X22.2755 Y9.4299
G01 X22.2919 Y9.4257
G01 X22.3084 Y9.4227
G01 X22.3200 Y9.4213
G01 X22.3316 Y9.4204
G01 X22.3450 Y9.4200
G01 X22.9450 Y9.4200
G01 X22.9642 Y9.4207
G01 X22.9758 Y9.4219
G01 X22.9871 Y9.4236
G01 X22.9981 Y9.4257
G01 X23.0090 Y9.4283
G01 X23.0200 Y9.4315
G01 X23.0308 Y9.4352
G01 X23.0477 Y9.4421
G01 X23.0587 Y9.4474
G01 X23.0696 Y9.4533
G01 X23.0856 Y9.4633
G01 X23.0957 Y9.4705
G01 X23.1054 Y9.4783
G01 X23.1194 Y9.4909
G01 X23.1323 Y9.5045
G01 X23.1400 Y9.5135
G01 X23.1472 Y9.5230
G01 X23.1543 Y9.5333
G01 X23.1609 Y9.5440
G01 X23.1704 Y9.5618
G01 X23.1751 Y9.5722
G01 X23.1793 Y9.5828
G01 X23.1832 Y9.5942
G01 X23.1867 Y9.6062
G01 X23.1894 Y9.6172
G01 X23.1915 Y9.6284
G01 X23.1940 Y9.6474
G01 X23.1950 Y9.6700
G01 X23.1950 Y11.8700
G01 X23.1940 Y11.8926
G01 X23.1915 Y11.9116
G01 X23.1881 Y11.9283
G01 X23.1850 Y11.9399
G01 X23.1812 Y11.9518
G01 X23.1751 Y11.9678
G01 X23.1674 Y11.9842
G01 X23.1609 Y11.9960
G01 X23.1543 Y12.0067
G01 X23.1436 Y12.0218
G01 X23.1323 Y12.0355
G01 X23.1239 Y12.0446
G01 X23.1148 Y12.0535
G01 X23.1006 Y12.0656
G01 X23.0856 Y12.0767
G01 X23.0750 Y12.0835
G01 X23.0587 Y12.0926
G01 X23.0475 Y12.0980
G01 X23.0475 Y12.5550
G01 X23.0460 Y12.5896
G01 X23.0440 Y12.6066
G01 X23.0394 Y12.6354
G01 X23.0334 Y12.6600
G01 X23.0283 Y12.6775
G01 X23.0194 Y12.7025
G01 X23.0119 Y12.7202
G01 X22.9993 Y12.7459
G01 X22.9862 Y12.7682
G01 X22.9770 Y12.7825
G01 X22.9590 Y12.8068
G01 X22.9518 Y12.8154
G01 X22.9339 Y12.8352
G01 X22.4846 Y13.2846
G01 X22.4646 Y13.3031
G01 X22.4513 Y13.3144
G01 X22.4244 Y13.3341
G01 X22.4004 Y13.3489
G01 X22.3830 Y13.3584
G01 X22.3552 Y13.3714
G01 X22.3285 Y13.3813
G01 X22.3102 Y13.3871
G01 X22.2851 Y13.3933
G01 X22.2731 Y13.3958
G01 X22.2448 Y13.4000
G01 X22.2272 Y13.4014
G01 X22.2000 Y13.4025
G01 X10.7000 Y13.4025
G01 X10.6877 Y13.4022
G01 X10.6624 Y13.4007
G01 X10.6484 Y13.3990
G01 X10.6269 Y13.3958
G01 X10.6095 Y13.3921
G01 X10.5892 Y13.3869
G01 X10.5775 Y13.3833
G01 X10.5465 Y13.3720
G01 X10.5151 Y13.3575
G01 X10.5043 Y13.3517
G01 X10.4868 Y13.3412
G01 X10.4756 Y13.3341
G01 X10.4664 Y13.3276
G01 X10.4499 Y13.3153
G01 X10.4404 Y13.3075
G01 X10.4154 Y13.2846
G01 X9.4808 Y12.3500
G01 X9.4500 Y12.3500
G01 X9.4500 Y13.5975
G01 X22.9333 Y13.5975
G01 X23.5125 Y13.0183
G01 X23.5125 Y12.0980
G01 X23.4958 Y12.0897
G01 X23.4797 Y12.0802
G01 X23.4693 Y12.0731
G01 X23.4546 Y12.0617
G01 X23.4406 Y12.0491
G01 X23.4316 Y12.0399
G01 X23.4200 Y12.0265
G01 X23.4092 Y12.0119
G01 X23.3991 Y11.9960
G01 X23.3896 Y11.9782
G01 X23.3827 Y11.9625
G01 X23.3768 Y11.9458
G01 X23.3719 Y11.9283
G01 X23.3685 Y11.9116
G01 X23.3660 Y11.8926
G01 X23.3652 Y11.8791
G01 X23.3650 Y9.6700
G01 X23.3660 Y9.6474
G01 X23.3685 Y9.6284
G01 X23.3706 Y9.6172
G01 X23.3733 Y9.6062
G01 X23.3788 Y9.5882
G01 X23.3849 Y9.5722
G01 X23.3926 Y9.5558
G01 X23.3991 Y9.5440
G01 X23.4092 Y9.5281
G01 X23.4200 Y9.5135
G01 X23.4316 Y9.5001
G01 X23.4406 Y9.4909
G01 X23.4546 Y9.4783
G01 X23.4693 Y9.4669
G01 X23.4797 Y9.4598
G01 X23.4958 Y9.4503
G01 X23.5123 Y9.4421
G01 X23.5292 Y9.4352
G01 X23.5455 Y9.4299
G01 X23.5619 Y9.4257
G01 X23.5784 Y9.4227
G01 X23.5958 Y9.4207
G01 X23.6150 Y9.4200
G01 X24.2217 Y9.4201
G01 X24.2342 Y9.4207
G01 X24.2516 Y9.4227
G01 X24.2681 Y9.4257
G01 X24.2790 Y9.4283
G01 X24.2954 Y9.4333
G01 X24.3065 Y9.4373
G01 X24.3232 Y9.4446
G01 X24.3342 Y9.4503
G01 X24.3503 Y9.4598
G01 X24.3607 Y9.4669
G01 X24.3754 Y9.4783
G01 X24.3848 Y9.4865
G01 X24.3939 Y9.4954
G01 X24.4062 Y9.5089
G01 X24.4172 Y9.5230
G01 X24.4243 Y9.5333
G01 X24.4342 Y9.5499
G01 X24.4404 Y9.5618
G01 X24.4451 Y9.5722
G01 X24.4512 Y9.5882
G01 X24.4567 Y9.6062
G01 X24.4605 Y9.6228
G01 X24.4633 Y9.6407
G01 X24.4645 Y9.6542
G01 X24.4650 Y9.6700
G01 X24.4650 Y11.8700
G01 X24.4645 Y11.8858
G01 X24.4624 Y11.9060
G01 X24.4594 Y11.9228
G01 X24.4550 Y11.9399
G01 X24.4493 Y11.9572
G01 X24.4428 Y11.9730
G01 X24.4342 Y11.9901
G01 X24.4243 Y12.0067
G01 X24.4136 Y12.0218
G01 X24.4023 Y12.0355
G01 X24.3894 Y12.0491
G01 X24.3754 Y12.0617
G01 X24.3607 Y12.0731
G01 X24.3503 Y12.0802
G01 X24.3342 Y12.0897
G01 X24.3175 Y12.0980
G01 X24.3175 Y13.1850
G01 X24.3164 Y13.2122
G01 X24.3153 Y13.2271
G01 X24.3118 Y13.2514
G01 X24.3083 Y13.2704
G01 X24.3002 Y13.3015
G01 X24.2913 Y13.3276
G01 X24.2875 Y13.3375
G01 X24.2819 Y13.3502
G01 X24.2693 Y13.3759
G01 X24.2537 Y13.4023
G01 X24.2426 Y13.4186
G01 X24.2254 Y13.4411
G01 X24.2039 Y13.4652
G01 X23.3800 Y14.2891
G01 X23.3607 Y14.3066
G01 X23.3513 Y14.3144
G01 X23.3291 Y14.3309
G01 X23.3132 Y14.3412
G01 X23.2939 Y14.3527
G01 X23.2788 Y14.3605
G01 X23.2552 Y14.3714
G01 X23.2285 Y14.3813
G01 X23.2153 Y14.3856
G01 X23.2050 Y14.3884
G01 X23.1851 Y14.3933
G01 X23.1731 Y14.3958
G01 X23.1516 Y14.3990
G01 X23.1380 Y14.4007
G01 X23.1123 Y14.4022
G01 X23.1000 Y14.4025
G01 X9.4500 Y14.4025
G01 X9.4500 Y14.7500
G01 X18.3000 Y14.7500
G01 X18.3192 Y14.7507
G01 X18.3366 Y14.7527
G01 X18.3585 Y14.7569
G01 X18.3695 Y14.7599
G01 X18.3804 Y14.7633
G01 X18.3971 Y14.7696
G01 X18.4137 Y14.7774
G01 X18.4300 Y14.7865
G01 X18.4457 Y14.7969
G01 X18.4604 Y14.8083
G01 X18.4744 Y14.8209
G01 X18.4873 Y14.8345
G01 X18.4986 Y14.8482
G01 X18.5093 Y14.8633
G01 X18.5192 Y14.8799
G01 X18.5278 Y14.8970
G01 X18.5323 Y14.9075
G01 X18.5362 Y14.9182
G01 X18.5417 Y14.9362
G01 X18.5455 Y14.9528
G01 X18.5483 Y14.9707
G01 X18.5495 Y14.9842
G01 X18.5500 Y15.0000
G01 X18.5500 Y15.6075
G01 X19.5550 Y15.6075
G01 X19.5550 Y14.8700
G01 X19.5555 Y14.8542
G01 X19.5576 Y14.8340
G01 X19.5595 Y14.8228
G01 X19.5619 Y14.8117
G01 X19.5668 Y14.7942
G01 X19.5707 Y14.7828
G01 X19.5749 Y14.7722
G01 X19.5796 Y14.7618
G01 X19.5858 Y14.7499
G01 X19.5957 Y14.7333
G01 X19.6064 Y14.7182
G01 X19.6138 Y14.7089
G01 X19.6216 Y14.7001
G01 X19.6352 Y14.6865
G01 X19.6446 Y14.6783
G01 X19.6543 Y14.6705
G01 X19.6644 Y14.6633
G01 X19.6750 Y14.6565
G01 X19.6858 Y14.6503
G01 X19.6968 Y14.6446
G01 X19.7079 Y14.6396
G01 X19.7192 Y14.6352
G01 X19.7300 Y14.6315
G01 X19.7410 Y14.6283
G01 X19.7519 Y14.6257
G01 X19.7629 Y14.6236
G01 X19.7742 Y14.6219
G01 X19.7858 Y14.6207
G01 X19.8050 Y14.6200
G01 X20.4117 Y14.6201
G01 X20.4300 Y14.6213
G01 X20.4471 Y14.6236
G01 X20.4635 Y14.6269
G01 X20.4800 Y14.6315
G01 X20.4908 Y14.6352
G01 X20.5021 Y14.6396
G01 X20.5187 Y14.6474
G01 X20.5350 Y14.6565
G01 X20.5507 Y14.6669
G01 X20.5654 Y14.6783
G01 X20.5794 Y14.6909
G01 X20.5923 Y14.7045
G01 X20.6036 Y14.7182
G01 X20.6143 Y14.7333
G01 X20.6242 Y14.7499
G01 X20.6328 Y14.7670
G01 X20.6373 Y14.7775
G01 X20.6412 Y14.7882
G01 X20.6467 Y14.8062
G01 X20.6505 Y14.8228
G01 X20.6533 Y14.8407
G01 X20.6548 Y14.8609
G01 X20.6548 Y17.0789
G01 X20.6531 Y17.1011
G01 X20.6512 Y17.1132
G01 X20.6486 Y17.1263
G01 X20.6453 Y17.1391
G01 X20.6412 Y17.1518
G01 X20.6373 Y17.1625
G01 X20.6328 Y17.1730
G01 X20.6276 Y17.1837
G01 X20.6217 Y17.1946
G01 X20.6145 Y17.2064
G01 X20.6065 Y17.2179
G01 X20.5988 Y17.2279
G01 X20.5906 Y17.2375
G01 X20.5818 Y17.2468
G01 X20.5725 Y17.2556
G01 X20.5629 Y17.2638
G01 X20.5529 Y17.2715
G01 X20.5350 Y17.2835
G01 X20.5242 Y17.2897
G01 X20.5132 Y17.2954
G01 X20.5028 Y17.3001
G01 X20.4922 Y17.3043
G01 X20.4805 Y17.3083
G01 X20.4677 Y17.3120
G01 X20.4482 Y17.3162
G01 X20.4361 Y17.3181
G01 X20.4250 Y17.3192
G01 X20.4050 Y17.3200
G01 X19.8050 Y17.3200
G01 X19.7850 Y17.3192
G01 X19.7684 Y17.3173
G01 X19.7487 Y17.3136
G01 X19.7295 Y17.3083
G01 X19.7125 Y17.3023
G01 X19.6968 Y17.2954
G01 X19.6804 Y17.2867
G01 X19.6622 Y17.2752
G01 X19.6471 Y17.2638
G01 X19.6375 Y17.2556
G01 X19.6282 Y17.2468
G01 X19.6194 Y17.2375
G01 X19.6112 Y17.2279
G01 X19.6035 Y17.2179
G01 X19.5955 Y17.2064
G01 X19.5853 Y17.1892
G01 X19.5796 Y17.1782
G01 X19.5749 Y17.1678
G01 X19.5707 Y17.1572
G01 X19.5667 Y17.1455
G01 X19.5630 Y17.1327
G01 X19.5600 Y17.1198
G01 X19.5577 Y17.1066
G01 X19.5563 Y17.0956
G01 X19.5554 Y17.0845
G01 X19.5550 Y17.0700
G01 X19.5550 Y16.4125
G01 X18.5500 Y16.4125
G01 X18.5500 Y18.1475
G01 X20.3833 Y18.1475
G01 X20.9975 Y17.5333
G01 X20.9975 Y17.3077
G01 X20.9772 Y17.3001
G01 X20.9613 Y17.2926
G01 X20.9450 Y17.2835
G01 X20.9322 Y17.2752
G01 X20.9171 Y17.2638
G01 X20.9028 Y17.2512
G01 X20.8894 Y17.2375
G01 X20.8773 Y17.2230
G01 X20.8655 Y17.2064
G01 X20.8553 Y17.1892
G01 X20.8472 Y17.1730
G01 X20.8407 Y17.1572
G01 X20.8347 Y17.1391
G01 X20.8300 Y17.1198
G01 X20.8269 Y17.1011
G01 X20.8254 Y17.0845
G01 X20.8250 Y17.0700
G01 X20.8250 Y14.8700
G01 X20.8260 Y14.8474
G01 X20.8276 Y14.8340
G01 X20.8295 Y14.8228
G01 X20.8319 Y14.8117
G01 X20.8350 Y14.8001
G01 X20.8388 Y14.7882
G01 X20.8427 Y14.7775
G01 X20.8496 Y14.7618
G01 X20.8558 Y14.7499
G01 X20.8623 Y14.7386
G01 X20.8728 Y14.7230
G01 X20.8838 Y14.7089
G01 X20.8961 Y14.6954
G01 X20.9052 Y14.6865
G01 X20.9194 Y14.6744
G01 X20.9344 Y14.6633
G01 X20.9450 Y14.6565
G01 X20.9613 Y14.6474
G01 X20.9779 Y14.6396
G01 X20.9892 Y14.6352
G01 X21.0055 Y14.6299
G01 X21.0219 Y14.6257
G01 X21.0384 Y14.6227
G01 X21.0558 Y14.6207
G01 X21.0750 Y14.6200
G01 X21.6817 Y14.6201
G01 X21.6942 Y14.6207
G01 X21.7058 Y14.6219
G01 X21.7171 Y14.6236
G01 X21.7335 Y14.6269
G01 X21.7500 Y14.6315
G01 X21.7608 Y14.6352
G01 X21.7721 Y14.6396
G01 X21.7832 Y14.6446
G01 X21.7996 Y14.6533
G01 X21.8103 Y14.6598
G01 X21.8207 Y14.6669
G01 X21.8354 Y14.6783
G01 X21.8494 Y14.6909
G01 X21.8584 Y14.7001
G01 X21.8700 Y14.7135
G01 X21.8808 Y14.7281
G01 X21.8909 Y14.7440
G01 X21.8974 Y14.7558
G01 X21.9051 Y14.7722
G01 X21.9112 Y14.7882
G01 X21.9167 Y14.8062
G01 X21.9205 Y14.8228
G01 X21.9233 Y14.8407
G01 X21.9245 Y14.8542
G01 X21.9250 Y14.8700
G01 X21.9250 Y17.0700
G01 X21.9246 Y17.0845
G01 X21.9231 Y17.1011
G01 X21.9200 Y17.1198
G01 X21.9170 Y17.1327
G01 X21.9133 Y17.1455
G01 X21.9073 Y17.1625
G01 X21.9004 Y17.1782
G01 X21.8917 Y17.1946
G01 X21.8845 Y17.2064
G01 X21.8727 Y17.2230
G01 X21.8606 Y17.2375
G01 X21.8518 Y17.2468
G01 X21.8425 Y17.2556
G01 X21.8280 Y17.2677
G01 X21.8178 Y17.2752
G01 X21.8025 Y17.2850
G01 X21.8025 Y17.7000
G01 X21.8014 Y17.7272
G01 X21.8007 Y17.7374
G01 X21.7990 Y17.7516
G01 X21.7954 Y17.7753
G01 X21.7933 Y17.7854
G01 X21.7856 Y17.8153
G01 X21.7813 Y17.8285
G01 X21.7742 Y17.8481
G01 X21.7669 Y17.8652
G01 X21.7563 Y17.8872
G01 X21.7489 Y17.9004
G01 X21.7362 Y17.9213
G01 X21.7276 Y17.9336
G01 X21.7122 Y17.9540
G01 X21.7031 Y17.9646
G01 X21.6889 Y17.9802
G01 X20.8346 Y18.8346
G01 X20.8146 Y18.8531
G01 X20.8040 Y18.8622
G01 X20.7775 Y18.8820
G01 X20.7632 Y18.8912
G01 X20.7372 Y18.9063
G01 X20.7090 Y18.9197
G01 X20.6926 Y18.9263
G01 X20.6653 Y18.9356
G01 X20.6405 Y18.9421
G01 X20.6253 Y18.9454
G01 X20.5926 Y18.9502
G01 X20.5772 Y18.9514
G01 X20.5500 Y18.9525
G01 X20.1500 Y18.9525
G01 X20.1500 Y20.2500
G01 X21.0808 Y20.2500
G01 X22.2425 Y19.0883
G01 X22.2425 Y17.2980
G01 X22.2258 Y17.2897
G01 X22.2086 Y17.2795
G01 X22.1971 Y17.2715
G01 X22.1822 Y17.2597
G01 X22.1682 Y17.2468
G01 X22.1553 Y17.2328
G01 X22.1435 Y17.2179
G01 X22.1355 Y17.2064
G01 X22.1283 Y17.1946
G01 X22.1196 Y17.1782
G01 X22.1127 Y17.1625
G01 X22.1067 Y17.1455
G01 X22.1014 Y17.1263
G01 X22.0988 Y17.1132
G01 X22.0963 Y17.0956
G01 X22.0952 Y17.0789
G01 X22.0950 Y14.8700
G01 X22.0960 Y14.8474
G01 X22.0985 Y14.8284
G01 X22.1006 Y14.8172
G01 X22.1033 Y14.8062
G01 X22.1088 Y14.7882
G01 X22.1149 Y14.7722
G01 X22.1226 Y14.7558
G01 X22.1291 Y14.7440
G01 X22.1392 Y14.7281
G01 X22.1500 Y14.7135
G01 X22.1616 Y14.7001
G01 X22.1706 Y14.6909
G01 X22.1846 Y14.6783
G01 X22.1993 Y14.6669
G01 X22.2097 Y14.6598
G01 X22.2258 Y14.6503
G01 X22.2423 Y14.6421
G01 X22.2535 Y14.6373
G01 X22.2700 Y14.6315
G01 X22.2865 Y14.6269
G01 X22.3029 Y14.6236
G01 X22.3142 Y14.6219
G01 X22.3258 Y14.6207
G01 X22.3450 Y14.6200
G01 X22.9517 Y14.6201
G01 X22.9700 Y14.6213
G01 X22.9816 Y14.6227
G01 X22.9926 Y14.6246
G01 X23.0035 Y14.6269
G01 X23.0145 Y14.6299
G01 X23.0254 Y14.6333
G01 X23.0365 Y14.6373
G01 X23.0532 Y14.6446
G01 X23.0696 Y14.6533
G01 X23.0856 Y14.6633
G01 X23.1006 Y14.6744
G01 X23.1148 Y14.6865
G01 X23.1284 Y14.7001
G01 X23.1400 Y14.7135
G01 X23.1508 Y14.7281
G01 X23.1609 Y14.7440
G01 X23.1704 Y14.7618
G01 X23.1773 Y14.7775
G01 X23.1832 Y14.7942
G01 X23.1881 Y14.8117
G01 X23.1905 Y14.8228
G01 X23.1924 Y14.8340
G01 X23.1945 Y14.8542
G01 X23.1950 Y14.8700
G01 X23.1948 Y17.0789
G01 X23.1937 Y17.0956
G01 X23.1912 Y17.1132
G01 X23.1886 Y17.1263
G01 X23.1833 Y17.1455
G01 X23.1773 Y17.1625
G01 X23.1704 Y17.1782
G01 X23.1617 Y17.1946
G01 X23.1545 Y17.2064
G01 X23.1465 Y17.2179
G01 X23.1347 Y17.2328
G01 X23.1218 Y17.2468
G01 X23.1078 Y17.2597
G01 X23.0929 Y17.2715
G01 X23.0814 Y17.2795
G01 X23.0642 Y17.2897
G01 X23.0475 Y17.2980
G01 X23.0475 Y19.2550
G01 X23.0461 Y19.2873
G01 X23.0440 Y19.3066
G01 X23.0394 Y19.3354
G01 X23.0321 Y19.3652
G01 X23.0263 Y19.3835
G01 X23.0192 Y19.4031
G01 X23.0147 Y19.4140
G01 X23.0013 Y19.4422
G01 X22.9939 Y19.4554
G01 X22.9837 Y19.4723
G01 X22.9726 Y19.4886
G01 X22.9605 Y19.5049
G01 X22.9527 Y19.5144
G01 X22.9296 Y19.5396
G01 X22.2192 Y20.2500
G01 X23.5125 Y20.2500
G01 X23.5125 Y17.2980
G01 X23.5013 Y17.2926
G01 X23.4850 Y17.2835
G01 X23.4722 Y17.2752
G01 X23.4571 Y17.2638
G01 X23.4428 Y17.2512
G01 X23.4338 Y17.2422
G01 X23.4212 Y17.2279
G01 X23.4098 Y17.2128
G01 X23.4015 Y17.2000
G01 X23.3924 Y17.1837
G01 X23.3849 Y17.1678
G01 X23.3788 Y17.1518
G01 X23.3730 Y17.1327
G01 X23.3700 Y17.1198
G01 X23.3669 Y17.1011
G01 X23.3654 Y17.0845
G01 X23.3650 Y17.0700
G01 X23.3650 Y14.8700
G01 X23.3655 Y14.8542
G01 X23.3676 Y14.8340
G01 X23.3695 Y14.8228
G01 X23.3719 Y14.8117
G01 X23.3768 Y14.7942
G01 X23.3827 Y14.7775
G01 X23.3896 Y14.7618
G01 X23.3991 Y14.7440
G01 X23.4092 Y14.7281
G01 X23.4200 Y14.7135
G01 X23.4316 Y14.7001
G01 X23.4452 Y14.6865
G01 X23.4594 Y14.6744
G01 X23.4744 Y14.6633
G01 X23.4904 Y14.6533
G01 X23.5068 Y14.6446
G01 X23.5235 Y14.6373
G01 X23.5400 Y14.6315
G01 X23.5510 Y14.6283
G01 X23.5619 Y14.6257
G01 X23.5784 Y14.6227
G01 X23.5900 Y14.6213
G01 X23.6016 Y14.6204
G01 X23.6150 Y14.6200
G01 X24.2150 Y14.6200
G01 X24.2342 Y14.6207
G01 X24.2458 Y14.6219
G01 X24.2571 Y14.6236
G01 X24.2681 Y14.6257
G01 X24.2790 Y14.6283
G01 X24.2954 Y14.6333
G01 X24.3065 Y14.6373
G01 X24.3177 Y14.6421
G01 X24.3342 Y14.6503
G01 X24.3503 Y14.6598
G01 X24.3657 Y14.6705
G01 X24.3802 Y14.6823
G01 X24.3939 Y14.6954
G01 X24.4062 Y14.7089
G01 X24.4172 Y14.7230
G01 X24.4277 Y14.7386
G01 X24.4374 Y14.7558
G01 X24.4451 Y14.7722
G01 X24.4493 Y14.7828
G01 X24.4532 Y14.7942
G01 X24.4581 Y14.8117
G01 X24.4605 Y14.8228
G01 X24.4624 Y14.8340
G01 X24.4645 Y14.8542
G01 X24.4650 Y14.8700
G01 X24.4650 Y17.0700
G01 X24.4646 Y17.0845
G01 X24.4631 Y17.1011
G01 X24.4600 Y17.1198
G01 X24.4570 Y17.1327
G01 X24.4512 Y17.1518
G01 X24.4451 Y17.1678
G01 X24.4376 Y17.1837
G01 X24.4285 Y17.2000
G01 X24.4202 Y17.2128
G01 X24.4088 Y17.2279
G01 X24.3962 Y17.2422
G01 X24.3872 Y17.2512
G01 X24.3729 Y17.2638
G01 X24.3578 Y17.2752
G01 X24.3450 Y17.2835
G01 X24.3287 Y17.2926
G01 X24.3175 Y17.2980
G01 X24.3175 Y20.2500
G01 X25.1500 Y20.2500
G01 X25.1500 Y16.5449
G01 X25.1309 Y16.5403
G01 X25.1182 Y16.5362
G01 X25.1075 Y16.5323
G01 X25.0970 Y16.5278
G01 X25.0863 Y16.5226
G01 X25.0700 Y16.5135
G01 X25.0521 Y16.5015
G01 X25.0372 Y16.4897
G01 X25.0232 Y16.4768
G01 X25.0144 Y16.4675
G01 X25.0062 Y16.4579
G01 X24.9985 Y16.4479
G01 X24.9905 Y16.4364
G01 X24.9803 Y16.4192
G01 X24.9722 Y16.4030
G01 X24.9677 Y16.3925
G01 X24.9638 Y16.3818
G01 X24.9580 Y16.3627
G01 X24.9538 Y16.3432
G01 X24.9519 Y16.3311
G01 X24.9508 Y16.3200
G01 X24.9500 Y16.3000
G01 X24.9500 Y8.2500
G01 X22.2933 Y8.2499
G01 X22.2750 Y8.2487
G01 X22.2579 Y8.2464
G01 X22.2469 Y8.2443
G01 X22.2360 Y8.2417
G01 X22.2196 Y8.2367
G01 X22.2085 Y8.2327
G01 X22.1973 Y8.2279
G01 X22.1808 Y8.2197
G01 X22.1647 Y8.2102
G01 X22.1493 Y8.1995
G01 X22.1396 Y8.1917
G01 X22.1302 Y8.1835
G01 X22.1211 Y8.1746
G01 X22.1127 Y8.1655
G01 X22.1050 Y8.1565
G01 X22.0978 Y8.1470
G01 X22.0907 Y8.1367
G01 X22.0841 Y8.1260
G01 X22.0776 Y8.1142
G01 X22.0722 Y8.1030
G01 X22.0677 Y8.0925
G01 X22.0638 Y8.0818
G01 X22.0600 Y8.0699
G01 X22.0569 Y8.0583
G01 X22.0535 Y8.0416
G01 X22.0517 Y8.0293
G01 X22.0505 Y8.0158
G01 X22.0500 Y8.0000
G01 X22.0500 Y7.3500
G01 X21.3000 Y7.3500
G01 X21.2808 Y7.3493
G01 X21.2634 Y7.3473
G01 X21.2513 Y7.3452
G01 X21.2335 Y7.3410
G01 X21.2162 Y7.3355
G01 X21.2048 Y7.3312
G01 X21.1937 Y7.3263
G01 X21.1783 Y7.3184
G01 X21.1636 Y7.3095
G01 X21.1493 Y7.2995
G01 X21.1348 Y7.2877
G01 X21.1256 Y7.2791
G01 X21.1166 Y7.2699
G01 X21.1050 Y7.2565
G01 X21.0943 Y7.2421
G01 X21.0877 Y7.2321
G01 X21.0811 Y7.2208
G01 X21.0746 Y7.2082
G01 X21.0699 Y7.1978
G01 X21.0638 Y7.1818
G01 X21.0599 Y7.1695
G01 X21.0568 Y7.1579
G01 X21.0526 Y7.1360
G01 X21.0510 Y7.1226
G01 X21.0502 Y7.1091
G01 X21.0500 Y5.9500
G01 X20.0000 Y5.9500
G01 X19.9866 Y5.9496
G01 X19.9750 Y5.9487
G01 X19.9573 Y5.9463
G01 X19.9453 Y5.9439
G01 X19.9335 Y5.9410
G01 X19.9219 Y5.9375
G01 X19.9048 Y5.9312
G01 X19.8937 Y5.9263
G01 X19.8833 Y5.9211
G01 X19.8683 Y5.9125
G01 X19.8543 Y5.9031
G01 X19.8444 Y5.8957
G01 X19.8348 Y5.8877
G01 X19.8256 Y5.8791
G01 X19.8166 Y5.8699
G01 X19.8050 Y5.8565
G01 X19.7943 Y5.8421
G01 X19.7877 Y5.8321
G01 X19.7811 Y5.8208
G01 X19.7722 Y5.8030
G01 X19.7657 Y5.7872
G01 X19.7617 Y5.7757
G01 X19.7568 Y5.7579
G01 X19.7535 Y5.7415
G01 X19.7510 Y5.7226
G01 X19.7502 Y5.7091
G01 X19.7500 Y4.2500
G01 X16.8853 Y4.2500
G01 X21.6596 Y9.0244
G01 X21.6781 Y9.0444
G01 X21.6861 Y9.0537
G01 X21.7026 Y9.0754
G01 X21.7112 Y9.0877
G01 X21.7239 Y9.1086
G01 X21.7300 Y9.1193
G01 X21.7419 Y9.1438
G01 X21.7468 Y9.1550
G01 X21.7563 Y9.1805
G01 X21.7602 Y9.1925
G01 X21.7671 Y9.2185
G01 X21.7704 Y9.2337
G01 X21.7740 Y9.2574
G01 X21.7755 Y9.2696
G01 X21.7774 Y9.3029
G01 X21.7775 Y9.4420
G01 X21.7942 Y9.4503
G01 X21.8103 Y9.4598
G01 X21.8207 Y9.4669
G01 X21.8354 Y9.4783
G01 X21.8494 Y9.4909
G01 X21.8584 Y9.5001
G01 X21.8700 Y9.5135
G01 X21.8808 Y9.5281
G01 X21.8909 Y9.5440
G01 X21.8974 Y9.5558
G01 X21.9051 Y9.5722
G01 X21.9112 Y9.5882
G01 X21.9167 Y9.6062
G01 X21.9205 Y9.6228
G01 X21.9233 Y9.6407
G01 X21.9245 Y9.6542
G01 X21.9250 Y9.6700
G01 X21.9248 Y11.8791
G01 X21.9233 Y11.8993
G01 X21.9205 Y11.9172
G01 X21.9167 Y11.9338
G01 X21.9112 Y11.9518
G01 X21.9073 Y11.9625
G01 X21.9028 Y11.9730
G01 X21.8942 Y11.9901
G01 X21.8843 Y12.0067
G01 X21.8736 Y12.0218
G01 X21.8662 Y12.0311
G01 X21.8584 Y12.0399
G01 X21.8494 Y12.0491
G01 X21.8402 Y12.0577
G01 X21.8306 Y12.0656
G01 X21.8207 Y12.0731
G01 X21.8103 Y12.0802
G01 X21.7996 Y12.0867
G01 X21.7887 Y12.0926
G01 X21.7777 Y12.0979
G01 X21.7665 Y12.1027
G01 X21.7554 Y12.1067
G01 X21.7445 Y12.1101
G01 X21.7335 Y12.1131
G01 X21.7171 Y12.1164
G01 X21.7058 Y12.1181
G01 X21.6884 Y12.1196
G01 X21.6750 Y12.1200
G01 X21.0750 Y12.1200
G01 X21.0616 Y12.1196
G01 X21.0442 Y12.1181
G01 X21.0274 Y12.1154
G01 X21.0110 Y12.1117
G01 X20.9946 Y12.1067
G01 X20.9779 Y12.1004
G01 X20.9613 Y12.0926
G01 X20.9450 Y12.0835
G01 X20.9293 Y12.0731
G01 X20.9146 Y12.0617
G01 X20.9006 Y12.0491
G01 X20.8877 Y12.0355
G01 X20.8764 Y12.0218
G01 X20.8657 Y12.0067
G01 X20.8558 Y11.9901
G01 X20.8472 Y11.9730
G01 X20.8407 Y11.9572
G01 X20.8368 Y11.9458
G01 X20.8333 Y11.9338
G01 X20.8306 Y11.9228
G01 X20.8285 Y11.9116
G01 X20.8260 Y11.8926
G01 X20.8250 Y11.8700
G01 X20.8252 Y9.6609
G01 X20.8260 Y9.6474
G01 X20.8285 Y9.6284
G01 X20.8319 Y9.6117
G01 X20.8350 Y9.6001
G01 X20.8407 Y9.5828
G01 X20.8472 Y9.5670
G01 X20.8558 Y9.5499
G01 X20.8623 Y9.5386
G01 X20.8692 Y9.5281
G01 X20.8800 Y9.5135
G01 X20.8916 Y9.5001
G01 X20.9006 Y9.4909
G01 X20.9098 Y9.4823
G01 X20.9243 Y9.4705
G01 X20.9344 Y9.4633
G01 X20.9502 Y9.4534
G01 X16.1994 Y4.7025
G01 X15.7500 Y4.7025
G01 X15.7500 Y5.4475
G01 X16.5850 Y5.4475
G01 X16.6188 Y5.4490
G01 X16.6310 Y5.4502
G01 X16.6514 Y5.4532
G01 X16.6701 Y5.4567
G01 X16.7003 Y5.4644
G01 X16.7135 Y5.4687
G01 X16.7339 Y5.4761
G01 X16.7452 Y5.4808
G01 X16.7680 Y5.4916
G01 X16.7854 Y5.5011
G01 X16.8094 Y5.5159
G01 X16.8363 Y5.5356
G01 X16.8496 Y5.5469
G01 X16.8696 Y5.5654
G01 X20.3896 Y9.0854
G01 X20.3981 Y9.0943
G01 X20.4154 Y9.1139
G01 X20.4326 Y9.1364
G01 X20.4412 Y9.1487
G01 X20.4593 Y9.1791
G01 X20.4655 Y9.1912
G01 X20.4754 Y9.2126
G01 X20.4794 Y9.2225
G01 X20.4883 Y9.2475
G01 X20.4919 Y9.2592
G01 X20.4983 Y9.2846
G01 X20.5004 Y9.2947
G01 X20.5040 Y9.3184
G01 X20.5053 Y9.3279
G01 X20.5064 Y9.3428
G01 X20.5075 Y9.3700
G01 X20.5075 Y9.4420
G01 X20.5242 Y9.4503
G01 X20.5403 Y9.4598
G01 X20.5507 Y9.4669
G01 X20.5654 Y9.4783
G01 X20.5794 Y9.4909
G01 X20.5884 Y9.5001
G01 X20.6000 Y9.5135
G01 X20.6108 Y9.5281
G01 X20.6209 Y9.5440
G01 X20.6274 Y9.5558
G01 X20.6351 Y9.5722
G01 X20.6412 Y9.5882
G01 X20.6467 Y9.6062
G01 X20.6505 Y9.6228
G01 X20.6533 Y9.6407
G01 X20.6545 Y9.6542
G01 X20.6550 Y9.6700
G01 X20.6550 Y11.8700
G01 X20.6545 Y11.8858
G01 X20.6524 Y11.9060
G01 X20.6494 Y11.9228
G01 X20.6450 Y11.9399
G01 X20.6393 Y11.9572
G01 X20.6328 Y11.9730
G01 X20.6242 Y11.9901
G01 X20.6143 Y12.0067
G01 X20.6072 Y12.0170
G01 X20.5962 Y12.0311
G01 X20.5884 Y12.0399
G01 X20.5794 Y12.0491
G01 X20.5702 Y12.0577
G01 X20.5606 Y12.0656
G01 X20.5507 Y12.0731
G01 X20.5403 Y12.0802
G01 X20.5296 Y12.0867
G01 X20.5187 Y12.0926
G01 X20.5077 Y12.0979
G01 X20.4908 Y12.1048
G01 X20.4800 Y12.1085
G01 X20.4690 Y12.1117
G01 X20.4581 Y12.1143
G01 X20.4416 Y12.1173
G01 X20.4242 Y12.1193
G01 X20.4050 Y12.1200
G01 X19.8050 Y12.1200
G01 X19.7916 Y12.1196
G01 X19.7742 Y12.1181
G01 X19.7574 Y12.1154
G01 X19.7410 Y12.1117
G01 X19.7246 Y12.1067
G01 X19.7079 Y12.1004
G01 X19.6913 Y12.0926
G01 X19.6750 Y12.0835
G01 X19.6593 Y12.0731
G01 X19.6446 Y12.0617
G01 X19.6306 Y12.0491
G01 X19.6177 Y12.0355
G01 X19.6064 Y12.0218
G01 X19.5957 Y12.0067
G01 X19.5858 Y11.9901
G01 X19.5772 Y11.9730
G01 X19.5707 Y11.9572
G01 X19.5668 Y11.9458
G01 X19.5633 Y11.9338
G01 X19.5606 Y11.9228
G01 X19.5585 Y11.9116
G01 X19.5560 Y11.8926
G01 X19.5550 Y11.8700
G01 X19.5552 Y9.6609
G01 X19.5560 Y9.6474
G01 X19.5576 Y9.6340
G01 X19.5595 Y9.6228
G01 X19.5619 Y9.6117
G01 X19.5650 Y9.6001
G01 X19.5688 Y9.5882
G01 X19.5727 Y9.5775
G01 X19.5796 Y9.5618
G01 X19.5858 Y9.5499
G01 X19.5923 Y9.5386
G01 X19.5992 Y9.5281
G01 X19.6064 Y9.5182
G01 X19.6177 Y9.5045
G01 X19.6261 Y9.4954
G01 X19.6352 Y9.4865
G01 X19.6443 Y9.4785
G01 X16.4183 Y6.2525
G01 X15.7500 Y6.2525
G01 X15.7500 Y7.6500
G01 X16.0000 Y7.6500
G01 X16.0134 Y7.6504
G01 X16.0308 Y7.6519
G01 X16.0487 Y7.6548
G01 X16.0665 Y7.6590
G01 X16.0838 Y7.6645
G01 X16.0952 Y7.6688
G01 X16.1115 Y7.6763
G01 X16.1217 Y7.6816
G01 X16.1364 Y7.6905
G01 X16.1507 Y7.7005
G01 X16.1604 Y7.7083
G01 X16.1698 Y7.7165
G01 X16.1789 Y7.7254
G01 X16.1873 Y7.7345
G01 X16.1950 Y7.7435
G01 X16.2057 Y7.7579
G01 X16.2123 Y7.7679
G01 X16.2189 Y7.7792
G01 X16.2254 Y7.7918
G01 X16.2301 Y7.8022
G01 X16.2362 Y7.8182
G01 X16.2419 Y7.8367
G01 X16.2465 Y7.8585
G01 X16.2490 Y7.8774
G01 X16.2500 Y7.9000
G01 X16.2500 Y9.0500
G01 X18.3000 Y9.0500
G01 X18.3134 Y9.0504
G01 X18.3308 Y9.0519
G01 X18.3476 Y9.0546
G01 X18.3640 Y9.0583
G01 X18.3804 Y9.0633
G01 X18.3971 Y9.0696
G01 X18.4137 Y9.0774
G01 X18.4300 Y9.0865
G01 X18.4406 Y9.0933
G01 X18.4507 Y9.1005
G01 X18.4652 Y9.1123
G01 X18.4789 Y9.1254
G01 X18.4912 Y9.1389
G01 X18.5022 Y9.1530
G01 X18.5127 Y9.1686
G01 X18.5192 Y9.1799
G01 X18.5278 Y9.1970
G01 X18.5343 Y9.2128
G01 X18.5382 Y9.2242
G01 X18.5417 Y9.2362
G01 X18.5444 Y9.2472
G01 X18.5465 Y9.2584
G01 X18.5483 Y9.2707
G01 X18.5495 Y9.2842
G01 X18.5500 Y9.3000
G01 X18.5500 Y12.1000
G01 X18.5490 Y12.1226
G01 X18.5465 Y12.1416
G01 X18.5444 Y12.1528
G01 X18.5417 Y12.1638
G01 X18.5382 Y12.1758
G01 X18.5343 Y12.1872
G01 X18.5301 Y12.1978
G01 X18.5254 Y12.2082
G01 X18.5159 Y12.2260
G01 X18.5058 Y12.2419
G01 X18.4986 Y12.2518
G01 X18.4912 Y12.2611
G01 X18.4789 Y12.2746
G01 X18.4698 Y12.2835
G01 X18.4604 Y12.2917
G01 X18.4507 Y12.2995
G01 X18.4406 Y12.3067
G01 X18.4300 Y12.3135
G01 X18.4192 Y12.3197
G01 X18.4082 Y12.3254
G01 X18.3971 Y12.3304
G01 X18.3804 Y12.3367
G01 X18.3695 Y12.3401
G01 X18.3531 Y12.3443
G01 X18.3366 Y12.3473
G01 X18.3250 Y12.3487
G01 X18.3134 Y12.3496
G01 X18.3000 Y12.3500
G01 X10.6192 Y12.3500
G01 X10.8667 Y12.5975
G01 X10.7192 Y12.4500
G01 X22.1808 Y12.4500
G01 X22.2425 Y12.1500
G01 X18.5449 Y12.1500
G00 Z2.0000
G00 X18.5500 Y11.8500
G01 F60.00
G01 Z-0.1500
G01 F50.00
G01 X19.5550 Y11.8500
G01 X19.5550 Y11.5500
G01 X18.5500 Y11.5500
G01 X18.5500 Y11.2500
G01 X19.5550 Y11.2500
G01 X19.5550 Y10.9500
G01 X18.5500 Y10.9500
G01 X18.5500 Y10.6500
G01 X19.5550 Y10.6500
G01 X19.5550 Y10.3500
G01 X18.5500 Y10.3500
G01 X18.5500 Y10.0500
G01 X19.5550 Y10.0500
G01 X19.5550 Y9.7500
G01 X18.5500 Y9.7500
G01 X18.5500 Y9.4500
G01 X19.6158 Y9.4500
G01 X19.3158 Y9.1500
G01 X18.5000 Y9.1500
G01 X19.0158 Y8.8500
G01 X16.2500 Y8.8500
G01 X16.2500 Y8.5500
G01 X18.7158 Y8.5500
G01 X18.4158 Y8.2500
G01 X16.2500 Y8.2500
G01 X16.2500 Y7.9500
G01 X18.1158 Y7.9500
G01 X17.8158 Y7.6500
G01 X15.7500 Y7.6500
G01 X15.7500 Y7.3500
G01 X17.5158 Y7.3500
G01 X17.2158 Y7.0500
G01 X15.7500 Y7.0500
G01 X15.7500 Y6.7500
G01 X16.9158 Y6.7500
G01 X16.6158 Y6.4500
G01 X15.7500 Y6.4500
G00 Z2.0000
G00 X15.7500 Y5.2500
G01 F60.00
G01 Z-0.1500
G01 F50.00
G01 X16.7469 Y5.2500
G01 X16.8530 Y5.5500
G01 X17.0469 Y5.5500
G01 X17.1542 Y5.8500
G01 X17.3469 Y5.8500
G01 X17.4542 Y6.1500
G01 X17.6469 Y6.1500
G01 X17.7542 Y6.4500
G01 X17.9469 Y6.4500
G01 X18.0542 Y6.7500
G01 X18.2469 Y6.7500
G01 X18.3542 Y7.0500
G01 X18.5469 Y7.0500
G01 X18.6542 Y7.3500
G01 X18.8469 Y7.3500
G01 X18.9542 Y7.6500
G01 X19.1469 Y7.6500
G01 X19.2542 Y7.9500
G01 X19.4468 Y7.9500
G01 X19.5542 Y8.2500
G01 X19.7468 Y8.2500
G01 X19.8542 Y8.5500
G01 X20.0468 Y8.5500
G01 X20.1542 Y8.8500
G01 X20.3468 Y8.8500
G01 X20.4420 Y9.1500
G01 X20.6468 Y9.1500
G01 X20.5237 Y9.4500
G01 X20.9468 Y9.4500
G00 Z2.0000
G00 X20.8250 Y9.7500
G01 F60.00
G01 Z-0.1500
G01 F50.00
G01 X20.6550 Y9.7500
G01 X20.6550 Y10.0500
G01 X20.8250 Y10.0500
G01 X20.8250 Y10.3500
G01 X20.6550 Y10.3500
G01 X20.6550 Y10.6500
G01 X20.8250 Y10.6500
G01 X20.8250 Y10.9500
G01 X20.6550 Y10.9500
G01 X20.6550 Y11.2500
G01 X20.8250 Y11.2500
G01 X20.8250 Y11.5500
G01 X20.6550 Y11.5500
G01 X20.6550 Y11.8500
G01 X20.8250 Y11.8500
G00 Z2.0000
G00 X21.9250 Y11.8500
G01 F60.00
G01 Z-0.1500
G01 F50.00
G01 X22.0950 Y11.8500
G01 X22.0950 Y11.5500
G01 X21.9250 Y11.5500
G01 X21.9250 Y11.2500
G01 X22.0950 Y11.2500
G01 X22.0950 Y10.9500
G01 X21.9250 Y10.9500
G01 X21.9250 Y10.6500
G01 X22.0950 Y10.6500
G01 X22.0950 Y10.3500
G01 X21.9250 Y10.3500
G01 X21.9250 Y10.0500
G01 X22.0950 Y10.0500
G01 X22.0950 Y9.7500
G01 X21.9250 Y9.7500
G00 Z2.0000
G00 X21.7937 Y9.4500
G01 F60.00
G01 Z-0.1500
G01 F50.00
G01 X22.2263 Y9.4500
G01 X21.7447 Y9.1500
G01 X24.9500 Y9.1500
G01 X24.9500 Y8.8500
G01 X21.4852 Y8.8500
G01 X21.1852 Y8.5500
G01 X24.9500 Y8.5500
G01 X24.9500 Y9.4500
G01 X24.3337 Y9.4500
G00 Z2.0000
G00 X24.4650 Y9.7500
G01 F60.00
G01 Z-0.1500
G01 F50.00
G01 X24.9500 Y9.7500
G01 X24.9500 Y10.0500
G01 X24.4650 Y10.0500
G01 X24.4650 Y10.3500
G01 X24.9500 Y10.3500
G01 X24.9500 Y10.6500
G01 X24.4650 Y10.6500
G01 X24.4650 Y10.9500
G01 X24.9500 Y10.9500
G01 X24.9500 Y11.2500
G01 X24.4650 Y11.2500
G01 X24.4650 Y11.5500
G01 X24.9500 Y11.5500
G01 X24.9500 Y11.8500
G01 X24.4650 Y11.8500
G00 Z2.0000
G00 X24.3175 Y12.1500
G01 F60.00
G01 Z-0.1500
G01 F50.00
G01 X24.9500 Y12.1500
G01 X24.9500 Y12.4500
G01 X24.3175 Y12.4500
G01 X24.3175 Y12.7500
G01 X24.9500 Y12.7500
G01 X24.9500 Y13.0500
G01 X24.3175 Y13.0500
G00 Z2.0000
G00 X24.2820 Y13.3500
G01 F60.00
G01 Z-0.1500
G01 F50.00
G01 X24.9500 Y13.3500
G01 X24.9500 Y13.6500
G01 X24.0192 Y13.6500
G01 X23.7192 Y13.9500
G01 X24.9500 Y13.9500
G01 X24.9500 Y14.2500
G01 X23.4192 Y14.2500
G00 Z2.0000
G00 X23.3658 Y14.8500
G01 F60.00
G01 Z-0.1500
G01 F50.00
G01 X23.1942 Y14.8500
G00 Z2.0000
G00 X23.1950 Y15.1500
G01 F60.00
G01 Z-0.1500
G01 F50.00
G01 X23.3650 Y15.1500
G01 X23.3650 Y15.4500
G01 X23.1950 Y15.4500
G01 X23.1950 Y15.7500
G01 X23.3650 Y15.7500
G01 X23.3650 Y16.0500
G01 X23.1950 Y16.0500
G01 X23.1950 Y16.3500
G01 X23.3650 Y16.3500
G01 X23.3650 Y16.6500
G01 X23.1950 Y16.6500
G01 X23.1950 Y16.9500
G01 X23.3650 Y16.9500
G00 Z2.0000
G00 X23.4415 Y17.2500
G01 F60.00
G01 Z-0.1500
G01 F50.00
G01 X23.1185 Y17.2500
G01 X23.0475 Y17.5500
G01 X23.5125 Y17.5500
G01 X23.5125 Y17.8500
G01 X23.0475 Y17.8500
G01 X23.0475 Y18.1500
G01 X23.5125 Y18.1500
G01 X23.5125 Y18.4500
G01 X23.0475 Y18.4500
G01 X23.0475 Y18.7500
G01 X23.5125 Y18.7500
G01 X23.5125 Y19.0500
G01 X23.0475 Y19.0500
G00 Z2.0000
G00 X23.0359 Y19.3500
G01 F60.00
G01 Z-0.1500
G01 F50.00
G01 X23.5125 Y19.3500
G01 X23.5125 Y19.6500
G01 X22.8192 Y19.6500
G01 X22.5192 Y19.9500
G01 X23.5125 Y19.9500
G01 X23.5125 Y20.2500
G01 X22.2192 Y20.2500
G00 Z2.0000
G00 X21.6808 Y19.6500
G01 F60.00
G01 Z-0.1500
G01 F50.00
G01 X20.1500 Y19.6500
G01 X20.1500 Y19.9500
G01 X21.3808 Y19.9500
G01 X21.0808 Y20.2500
G01 X20.1500 Y20.2500
G01 X20.1500 Y19.3500
G01 X21.9808 Y19.3500
G01 X22.2425 Y19.0500
G01 X20.1500 Y19.0500
G00 Z2.0000
G00 X20.9192 Y18.7500
G01 F60.00
G01 Z-0.1500
G01 F50.00
G01 X22.2425 Y18.7500
G01 X22.2425 Y18.4500
G01 X21.2192 Y18.4500
G01 X21.5192 Y18.1500
G01 X22.2425 Y18.1500
G01 X22.2425 Y17.8500
G01 X21.7734 Y17.8500
G00 Z2.0000
G00 X21.8025 Y17.5500
G01 F60.00
G01 Z-0.1500
G01 F50.00
G01 X22.2425 Y17.5500
G01 X22.1715 Y17.2500
G01 X21.8485 Y17.2500
G00 Z2.0000
G00 X21.9250 Y16.9500
G01 F60.00
G01 Z-0.1500
G01 F50.00
G01 X22.0950 Y16.9500
G01 X22.0950 Y16.6500
G01 X21.9250 Y16.6500
G01 X21.9250 Y16.3500
G01 X22.0950 Y16.3500
G01 X22.0950 Y16.0500
G01 X21.9250 Y16.0500
G01 X21.9250 Y15.7500
G01 X22.0950 Y15.7500
G01 X22.0950 Y15.4500
G01 X21.9250 Y15.4500
G01 X21.9250 Y15.1500
G01 X22.0950 Y15.1500
G00 Z2.0000
G00 X22.0958 Y14.8500
G01 F60.00
G01 Z-0.1500
G01 F50.00
G01 X21.9242 Y14.8500
G00 Z2.0000
G00 X20.8258 Y14.8500
G01 F60.00
G01 Z-0.1500
G01 F50.00
G01 X20.6542 Y14.8500
G00 Z2.0000
G00 X20.6550 Y15.1500
G01 F60.00
G01 Z-0.1500
G01 F50.00
G01 X20.8250 Y15.1500
G01 X20.8250 Y15.4500
G01 X20.6550 Y15.4500
G01 X20.6550 Y15.7500
G01 X20.8250 Y15.7500
G01 X20.8250 Y16.0500
G01 X20.6550 Y16.0500
G01 X20.6550 Y16.3500
G01 X20.8250 Y16.3500
G01 X20.8250 Y16.6500
G01 X20.6550 Y16.6500
G01 X20.6550 Y16.9500
G01 X20.8250 Y16.9500
G00 Z2.0000
G00 X20.9015 Y17.2500
G01 F60.00
G01 Z-0.1500
G01 F50.00
G01 X20.5785 Y17.2500
G01 X20.9808 Y17.5500
G01 X18.5500 Y17.5500
G01 X18.5500 Y17.2500
G01 X19.6315 Y17.2500
G00 Z2.0000
G00 X19.5550 Y16.9500
G01 F60.00
G01 Z-0.1500
G01 F50.00
G01 X18.5500 Y16.9500
G01 X18.5500 Y16.6500
G01 X19.5550 Y16.6500
G00 Z2.0000
G00 X19.5550 Y15.4500
G01 F60.00
G01 Z-0.1500
G01 F50.00
G01 X18.5500 Y15.4500
G01 X18.5500 Y15.1500
G01 X19.5550 Y15.1500
G00 Z2.0000
G00 X19.5558 Y14.8500
G01 F60.00
G01 Z-0.1500
G01 F50.00
G01 X18.5000 Y14.8500
G00 Z2.0000
G00 X18.5500 Y17.8500
G01 F60.00
G01 Z-0.1500
G01 F50.00
G01 X20.6808 Y17.8500
G00 Z2.0000
G00 X24.3175 Y17.8500
G01 F60.00
G01 Z-0.1500
G01 F50.00
G01 X25.1500 Y17.8500
G01 X25.1500 Y17.5500
G01 X24.3175 Y17.5500
G01 X24.3885 Y17.2500
G01 X25.1500 Y17.2500
G01 X25.1500 Y16.9500
G01 X24.4650 Y16.9500
G01 X24.4650 Y16.6500
G01 X25.1500 Y16.6500
G00 Z2.0000
G00 X24.9551 Y16.3500
G01 F60.00
G01 Z-0.1500
G01 F50.00
G01 X24.4650 Y16.3500
G01 X24.4650 Y16.0500
G01 X24.9500 Y16.0500
G01 X24.9500 Y15.7500
G01 X24.4650 Y15.7500
G01 X24.4650 Y15.4500
G01 X24.9500 Y15.4500
G01 X24.9500 Y15.1500
G01 X24.4650 Y15.1500
G00 Z2.0000
G00 X24.4642 Y14.8500
G01 F60.00
G01 Z-0.1500
G01 F50.00
G01 X24.9500 Y14.8500
G01 X24.9500 Y14.5500
G01 X9.4500 Y14.5500
G00 Z2.0000
G00 X15.7500 Y4.9500
G01 F60.00
G01 Z-0.1500
G01 F50.00
G01 X16.4469 Y4.9500
G00 Z2.0000
G00 X16.9853 Y4.3500
G01 F60.00
G01 Z-0.1500
G01 F50.00
G01 X19.7500 Y4.3500
G01 X19.7500 Y4.6500
G01 X17.2853 Y4.6500
G01 X17.5853 Y4.9500
G01 X19.7500 Y4.9500
G01 X19.7500 Y5.2500
G01 X17.8853 Y5.2500
G01 X18.1853 Y5.5500
G01 X19.7500 Y5.5500
G00 Z2.0000
G00 X19.8000 Y5.8500
G01 F60.00
G01 Z-0.1500
G01 F50.00
G01 X18.4853 Y5.8500
G01 X18.7852 Y6.1500
G01 X21.0500 Y6.1500
G01 X21.0500 Y6.4500
G01 X19.0852 Y6.4500
G01 X19.3852 Y6.7500
G01 X21.0500 Y6.7500
G01 X21.0500 Y7.0500
G01 X19.6852 Y7.0500
G01 X19.9852 Y7.3500
G01 X21.3000 Y7.3500
G01 X22.0500 Y7.6500
G01 X20.2852 Y7.6500
G01 X20.5852 Y7.9500
G01 X22.0500 Y7.9500
G00 Z2.0000
G00 X22.3000 Y8.2500
G01 F60.00
G01 Z-0.1500
G01 F50.00
G01 X20.8852 Y8.2500
G01 X23.0637 Y9.4500
G01 X23.4963 Y9.4500
G00 Z2.0000
G00 X23.3650 Y9.7500
G01 F60.00
G01 Z-0.1500
G01 F50.00
G01 X23.1950 Y9.7500
G01 X23.1950 Y10.0500
G01 X23.3650 Y10.0500
G01 X23.3650 Y10.3500
G01 X23.1950 Y10.3500
G01 X23.1950 Y10.6500
G01 X23.3650 Y10.6500
G01 X23.3650 Y10.9500
G01 X23.1950 Y10.9500
G01 X23.1950 Y11.2500
G01 X23.3650 Y11.2500
G01 X23.3650 Y11.5500
G01 X23.1950 Y11.5500
G01 X23.1950 Y11.8500
G01 X23.3650 Y11.8500
G00 Z2.0000
G00 X23.5125 Y12.1500
G01 F60.00
G01 Z-0.1500
G01 F50.00
G01 X23.0475 Y12.1500
G01 X23.0475 Y12.4500
G01 X23.5125 Y12.4500
G01 X23.5125 Y12.7500
G01 X22.9970 Y12.7500
G00 Z2.0000
G00 X22.7192 Y13.0500
G01 F60.00
G01 Z-0.1500
G01 F50.00
G01 X23.4808 Y13.0500
G01 X23.1808 Y13.3500
G01 X22.3985 Y13.3500
G00 Z2.0000
G00 X24.3175 Y18.1500
G01 F60.00
G01 Z-0.1500
G01 F50.00
G01 X25.1500 Y18.1500
G01 X25.1500 Y18.4500
G01 X24.3175 Y18.4500
G01 X24.3175 Y18.7500
G01 X25.1500 Y18.7500
G01 X25.1500 Y19.0500
G01 X24.3175 Y19.0500
G01 X24.3175 Y19.3500
G01 X25.1500 Y19.3500
G01 X25.1500 Y19.6500
G01 X24.3175 Y19.6500
G01 X24.3175 Y19.9500
G01 X25.1500 Y19.9500
G01 X25.1500 Y20.2500
G01 X24.3175 Y20.2500
G00 Z2.0000
M05
G00 Z2.0000
G00 Z15.00
G00 X0.0 Y0.0

