(contorno laterale)
(T1 D=3.175 CR=0 - ZMIN=-5 - Fresa cilindrica)
G90 G94
G17
G21
(When using Fusion 360 for Personal Use, the feedrate of)
(rapid moves is reduced to match the feedrate of cutting)
(moves, which can increase machining time. Unrestricted rapid)
(moves are available with a Fusion 360 Subscription.)
G28 G91 Z0
G90

(Contornatura 2D2)
M0
(MANUAL TOOL CHANGE TO T1)
S9000 M3
G17 G90 G94
G54
G0 X11.946 Y52.305
Z16
G1 Z6 F650
Z1.635 F260
Z0.567
X11.953 Y52.31 Z0.497 F520
X11.972 Y52.324 Z0.43
X12.002 Y52.346 Z0.37
X12.042 Y52.376 Z0.319
X12.091 Y52.412 Z0.281
X12.145 Y52.452 Z0.258
X12.201 Y52.494 Z0.25
X12.456 Y52.684
G3 X12.522 Y53.128 I-0.189 J0.255
G1 X12.372 Y53.329 F650
X12.027 Y53.794
X11.337 Y54.724
X9.957 Y56.582
G2 X10.407 Y58.885 I1.275 J0.946
G3 X10.633 Y59.08 I-0.474 J0.78
G2 X12.147 Y59.621 I1.218 J-1.018
G1 X14.933 Y59.092
X15.202 Y59.041
X14.994 Y59.172
X14.947 Y59.203
X14.268 Y59.668
X14.222 Y59.701
X13.552 Y60.195
X13.507 Y60.229
X12.847 Y60.754
X12.804 Y60.789
X12.154 Y61.344
X12.114 Y61.379
X11.475 Y61.962
X11.439 Y61.995
X10.81 Y62.605
X10.778 Y62.638
X10.159 Y63.273
X10.13 Y63.304
X9.52 Y63.965
X9.493 Y63.994
X8.892 Y64.678
X8.869 Y64.706
X8.276 Y65.413
X8.254 Y65.44
X8.145 Y65.575
X5.621
X5.513 Y65.44
X5.491 Y65.413
X4.898 Y64.706
X4.874 Y64.678
X4.273 Y63.994
X4.247 Y63.965
X3.637 Y63.304
X3.608 Y63.273
X2.989 Y62.638
X2.956 Y62.605
X2.327 Y61.995
X2.292 Y61.962
X1.652 Y61.379
X1.613 Y61.344
X0.963 Y60.789
X0.92 Y60.754
X0.259 Y60.229
X0.215 Y60.195
X-0.455 Y59.701
X-0.501 Y59.668
X-1.18 Y59.203
X-1.228 Y59.172
X-1.435 Y59.041
X-0.28 Y59.26
X2.802 Y59.846
G2 X4.372 Y57.34 I0.296 J-1.56
G1 X1.472 Y53.434
X1.291 Y53.19
X1.288 Y53.185
X1.098 Y52.932
X1.088 Y52.918
X0.706 Y52.419
X0.692 Y52.4
X0.308 Y51.915
X0.292 Y51.895
X-0.093 Y51.423
X-0.11 Y51.402
X-0.497 Y50.943
X-0.516 Y50.922
X-0.905 Y50.476
X-0.925 Y50.454
X-1.318 Y50.022
X-1.34 Y49.999
X-1.736 Y49.58
X-1.761 Y49.555
X-2.161 Y49.15
X-2.188 Y49.124
X-2.593 Y48.733
X-2.623 Y48.705
X-3.032 Y48.331
X-3.065 Y48.301
X-3.479 Y47.943
X-3.516 Y47.912
X-3.935 Y47.571
X-3.975 Y47.539
X-4.4 Y47.215
X-4.444 Y47.183
X-4.874 Y46.878
X-4.922 Y46.845
X-5.358 Y46.558
X-5.41 Y46.526
X-5.853 Y46.259
X-5.908 Y46.228
X-5.73 Y46.186
X-5.129 Y46.065
X-4.491 Y45.962
X-4.162 Y45.918
X-3.774 Y45.869
X-2.985 Y45.77
X0.171 Y45.372
G2 X1.044 Y42.625 I-0.198 J-1.575
G1 X-1.048 Y40.714
X-2.094 Y39.758
X-2.099 Y39.754
X-2.636 Y39.268
X-2.65 Y39.255
X-3.188 Y38.779
X-3.203 Y38.766
X-3.738 Y38.305
X-3.755 Y38.291
X-4.288 Y37.844
X-4.305 Y37.83
X-4.836 Y37.397
X-4.855 Y37.382
X-5.385 Y36.964
X-5.404 Y36.948
X-5.933 Y36.544
X-5.956 Y36.527
X-6.484 Y36.138
X-6.508 Y36.12
X-7.035 Y35.747
X-7.063 Y35.728
X-7.589 Y35.371
X-7.619 Y35.351
X-8.146 Y35.012
X-8.179 Y34.992
X-8.705 Y34.67
X-8.742 Y34.649
X-9.268 Y34.346
X-9.308 Y34.324
X-9.835 Y34.042
X-9.878 Y34.019
X-10.405 Y33.757
X-10.453 Y33.734
X-10.981 Y33.493
X-11.032 Y33.47
X-11.561 Y33.25
X-11.616 Y33.229
X-12.147 Y33.031
X-12.206 Y33.01
X-12.738 Y32.836
X-12.802 Y32.817
X-13.335 Y32.666
X-13.403 Y32.649
X-13.774 Y32.562
X-13.726 Y32.525
X-13.458 Y32.338
X-13.17 Y32.15
X-12.862 Y31.962
X-12.534 Y31.774
X-12.188 Y31.587
X-11.822 Y31.402
X-11.439 Y31.218
X-11.039 Y31.037
X-10.621 Y30.858
X-10.187 Y30.682
X-9.736 Y30.509
X-9.27 Y30.339
X-8.788 Y30.173
X-8.292 Y30.011
X-7.778 Y29.852
X-7.51 Y29.773
X-7.225 Y29.688
X-6.652 Y29.519
X-4.357 Y28.841
G2 X-3.681 Y26.2 I-0.45 J-1.522
G1 X-5.698 Y24.168
X-6.207 Y23.656
X-6.217 Y23.646
X-6.74 Y23.128
X-6.753 Y23.115
X-7.278 Y22.607
X-7.293 Y22.594
X-7.821 Y22.096
X-7.836 Y22.081
X-8.367 Y21.594
X-8.383 Y21.579
X-8.917 Y21.103
X-8.935 Y21.087
X-9.471 Y20.622
X-9.49 Y20.606
X-10.03 Y20.152
X-10.05 Y20.136
X-10.594 Y19.694
X-10.616 Y19.677
X-11.164 Y19.248
X-11.186 Y19.23
X-11.738 Y18.813
X-11.762 Y18.796
X-12.318 Y18.392
X-12.343 Y18.374
X-12.904 Y17.983
X-12.931 Y17.965
X-13.496 Y17.588
X-13.524 Y17.57
X-14.095 Y17.207
X-14.124 Y17.189
X-14.699 Y16.841
X-14.731 Y16.822
X-15.312 Y16.489
X-15.345 Y16.47
X-15.93 Y16.152
X-15.966 Y16.134
X-16.556 Y15.832
X-16.591 Y15.815
X-17.185 Y15.529
X-17.221 Y15.513
X-17.818 Y15.244
X-17.854 Y15.229
X-18.455 Y14.975
X-18.491 Y14.961
X-18.928 Y14.789
X-18.839 Y14.752
X-18.34 Y14.571
X-17.811 Y14.405
X-17.252 Y14.255
X-16.663 Y14.121
X-16.045 Y14.004
X-15.397 Y13.904
X-14.72 Y13.821
X-14.014 Y13.757
X-13.28 Y13.711
X-12.518 Y13.683
X-11.727 Y13.674
X-10.91 Y13.683
X-10.067 Y13.709
X-9.201 Y13.753
X-8.312 Y13.814
X-7.4 Y13.892
X-6.468 Y13.987
X-5.514 Y14.099
X-4.54 Y14.226
X-3.547 Y14.37
X-2.535 Y14.529
X-1.504 Y14.704
X-0.447 Y14.896
X1.735 Y15.299
G2 X3.611 Y13.738 I0.289 J-1.561
G1 Y0
G2 X2.024 Y-1.587 I-1.588 J0
G1 X0
G2 X-1.587 Y0 I0 J1.587
G1 Y9.419
X-2.151 Y9.326
X-2.172 Y9.323
X-3.346 Y9.146
X-3.369 Y9.142
X-4.522 Y8.985
X-4.546 Y8.982
X-5.678 Y8.846
X-5.704 Y8.843
X-6.814 Y8.727
X-6.842 Y8.725
X-7.931 Y8.631
X-7.961 Y8.628
X-9.027 Y8.556
X-9.059 Y8.555
X-10.102 Y8.506
X-10.137 Y8.504
X-11.156 Y8.479
X-11.194
X-12.188 Y8.478
X-12.23
X-13.199 Y8.503
X-13.244 Y8.504
X-14.187 Y8.555
X-14.236 Y8.559
X-15.151 Y8.636
X-15.205 Y8.642
X-16.093 Y8.748
X-16.135 Y8.753
X-16.568 Y8.817
X-16.598 Y8.822
X-17.024 Y8.892
X-17.055 Y8.898
X-17.474 Y8.976
X-17.506 Y8.982
X-17.917 Y9.068
X-17.95 Y9.075
X-18.354 Y9.168
X-18.389 Y9.176
X-18.785 Y9.277
X-18.819 Y9.286
X-19.208 Y9.394
X-19.244 Y9.405
X-19.626 Y9.52
X-19.662 Y9.532
X-20.036 Y9.655
X-20.073 Y9.668
X-20.44 Y9.799
X-20.476 Y9.812
X-20.836 Y9.95
X-20.873 Y9.966
X-21.225 Y10.112
X-21.263 Y10.128
X-21.607 Y10.281
X-21.645 Y10.299
X-21.982 Y10.459
X-22.019 Y10.478
X-22.349 Y10.646
X-22.386 Y10.666
X-22.709 Y10.842
X-22.746 Y10.863
X-23.061 Y11.045
X-23.098 Y11.068
X-23.406 Y11.258
X-23.46 Y11.293
X-24.055 Y11.694
X-24.125 Y11.744
X-24.692 Y12.174
X-24.759 Y12.227
X-25.299 Y12.684
X-25.362 Y12.741
X-25.875 Y13.225
X-25.935 Y13.284
X-26.421 Y13.795
X-26.476 Y13.856
X-26.936 Y14.392
X-26.988 Y14.456
X-27.422 Y15.018
X-27.469 Y15.082
X-27.877 Y15.67
G2 X-26.79 Y18.148 I1.304 J0.906
G1 X-26.203 Y18.229
X-25.634 Y18.32
X-25.067 Y18.422
X-24.504 Y18.537
X-23.943 Y18.664
X-23.385 Y18.803
X-22.831 Y18.955
X-22.28 Y19.12
X-21.732 Y19.298
X-21.187 Y19.49
X-20.647 Y19.696
X-20.109 Y19.916
X-19.575 Y20.151
X-19.044 Y20.401
X-18.515 Y20.667
X-17.989 Y20.948
X-17.466 Y21.245
X-16.944 Y21.558
X-16.424 Y21.887
X-15.905 Y22.231
X-15.388 Y22.591
X-14.871 Y22.966
X-14.356 Y23.355
X-13.842 Y23.759
X-13.328 Y24.177
X-12.816 Y24.608
X-12.304 Y25.052
X-11.793 Y25.509
X-11.626 Y25.663
X-12.191 Y25.881
X-12.221 Y25.893
X-12.771 Y26.118
X-12.804 Y26.132
X-13.337 Y26.364
X-13.371 Y26.38
X-13.887 Y26.619
X-13.924 Y26.637
X-14.422 Y26.883
X-14.461 Y26.903
X-14.942 Y27.158
X-14.982 Y27.18
X-15.445 Y27.442
X-15.488 Y27.468
X-15.931 Y27.739
X-15.977 Y27.768
X-16.401 Y28.047
X-16.449 Y28.08
X-16.852 Y28.367
X-16.903 Y28.405
X-17.286 Y28.701
X-17.338 Y28.743
X-17.7 Y29.048
X-17.753 Y29.095
X-18.093 Y29.41
X-18.147 Y29.462
X-18.466 Y29.785
X-18.519 Y29.842
X-18.817 Y30.175
X-18.869 Y30.236
X-19.144 Y30.578
X-19.194 Y30.644
X-19.448 Y30.995
X-19.496 Y31.064
X-19.729 Y31.424
X-19.772 Y31.495
X-19.984 Y31.864
X-20.023 Y31.937
X-20.215 Y32.315
X-20.25 Y32.389
X-20.422 Y32.776
X-20.453 Y32.85
X-20.605 Y33.245
X-20.631 Y33.319
X-20.763 Y33.722
X-20.786 Y33.796
X-20.899 Y34.207
X-20.917 Y34.28
X-21.012 Y34.699
X-21.026 Y34.77
X-21.102 Y35.198
X-21.113 Y35.267
X-21.171 Y35.702
X-21.178 Y35.77
X-21.218 Y36.213
G2 X-19.148 Y37.864 I1.581 J0.141
G1 X-18.778 Y37.745
X-18.439 Y37.652
X-18.099 Y37.575
X-17.755 Y37.514
X-17.409 Y37.47
X-17.06 Y37.442
X-16.707 Y37.431
X-16.351 Y37.436
X-15.99 Y37.46
X-15.623 Y37.501
X-15.251 Y37.561
X-14.872 Y37.641
X-14.486 Y37.74
X-14.091 Y37.861
X-13.688 Y38.002
X-13.277 Y38.166
X-12.856 Y38.351
X-12.427 Y38.558
X-11.99 Y38.786
X-11.544 Y39.036
X-11.091 Y39.307
X-10.63 Y39.599
X-10.162 Y39.91
X-9.688 Y40.24
X-9.207 Y40.589
X-8.721 Y40.956
X-8.229 Y41.341
X-8.108 Y41.439
X-8.262 Y41.485
X-8.304 Y41.498
X-8.663 Y41.616
X-8.707 Y41.632
X-9.056 Y41.758
X-9.102 Y41.776
X-9.442 Y41.911
X-9.49 Y41.931
X-9.82 Y42.075
X-9.87 Y42.098
X-10.19 Y42.252
X-10.242 Y42.278
X-10.552 Y42.44
X-10.605 Y42.469
X-10.904 Y42.641
X-10.959 Y42.674
X-11.247 Y42.856
X-11.302 Y42.891
X-11.58 Y43.083
X-11.634 Y43.122
X-11.902 Y43.323
X-11.955 Y43.365
X-12.212 Y43.575
X-12.264 Y43.62
X-12.51 Y43.84
X-12.559 Y43.886
X-12.795 Y44.116
X-12.842 Y44.164
X-13.067 Y44.403
X-13.111 Y44.452
X-13.327 Y44.7
X-13.368 Y44.75
X-13.573 Y45.007
X-13.611 Y45.057
X-13.807 Y45.323
X-13.842 Y45.372
X-14.028 Y45.647
X-14.06 Y45.697
X-14.237 Y45.98
X-14.267 Y46.029
X-14.435 Y46.321
X-14.461 Y46.369
X-14.62 Y46.668
X-14.644 Y46.717
X-14.794 Y47.024
X-14.816 Y47.072
X-14.957 Y47.387
X-14.977 Y47.434
X-15.109 Y47.757
G2 X-13.379 Y49.923 I1.47 J0.6
G1 X-13.023 Y49.864
X-12.701 Y49.825
X-12.381 Y49.799
X-12.064 Y49.787
X-11.749 Y49.79
X-11.436 Y49.806
X-11.125 Y49.837
X-10.816 Y49.883
X-10.507 Y49.944
X-10.199 Y50.02
X-9.891 Y50.112
X-9.583 Y50.221
X-9.272 Y50.347
X-8.96 Y50.491
X-8.645 Y50.653
X-8.326 Y50.835
X-8.005 Y51.037
X-7.68 Y51.258
X-7.351 Y51.5
X-7.02 Y51.761
X-6.686 Y52.041
X-6.348 Y52.341
X-6.009 Y52.66
X-5.668 Y52.996
X-5.324 Y53.35
X-4.98 Y53.721
X-4.887 Y53.825
X-5.017 Y53.86
X-5.104 Y53.886
X-5.342 Y53.965
X-5.428 Y53.996
X-5.661 Y54.088
X-5.748 Y54.126
X-5.975 Y54.232
X-6.059 Y54.274
X-6.28 Y54.394
X-6.361 Y54.441
X-6.576 Y54.574
X-6.654 Y54.626
X-6.862 Y54.773
X-6.934 Y54.826
X-7.136 Y54.987
X-7.202 Y55.043
X-7.399 Y55.217
X-7.459 Y55.273
X-7.65 Y55.46
X-7.703 Y55.515
X-7.888 Y55.716
X-7.936 Y55.77
X-8.116 Y55.983
X-8.158 Y56.035
X-8.332 Y56.261
X-8.37 Y56.312
X-8.538 Y56.549
X-8.571 Y56.597
X-8.735 Y56.846
X-8.764 Y56.893
X-8.923 Y57.153
X-8.949 Y57.197
X-9.102 Y57.469
X-9.125 Y57.511
X-9.273 Y57.794
X-9.294 Y57.834
X-9.438 Y58.127
X-9.456 Y58.165
X-9.595 Y58.469
X-9.611 Y58.506
X-9.745 Y58.821
X-9.76 Y58.856
X-9.889 Y59.181
G2 X-8.885 Y61.285 I1.474 J0.588
G1 X-8.426 Y61.427
X-7.989 Y61.576
X-7.555 Y61.735
X-7.123 Y61.907
X-6.693 Y62.09
X-6.267 Y62.286
X-5.843 Y62.493
X-5.422 Y62.714
X-5.004 Y62.947
X-4.588 Y63.193
X-4.175 Y63.453
X-3.765 Y63.727
X-3.356 Y64.015
X-2.951 Y64.317
X-2.547 Y64.635
X-2.145 Y64.967
X-1.744 Y65.315
X-1.345 Y65.678
X-0.948 Y66.057
X-0.552 Y66.45
X-0.157 Y66.858
X0.236 Y67.281
X0.627 Y67.717
X1.017 Y68.167
X1.406 Y68.631
X1.793 Y69.107
X1.986 Y69.353
X0.232 Y69.158
G2 X-1.342 Y71.487 I-0.175 J1.578
G1 X0.724 Y75.333
X-3.122 Y78.632
G2 X-2.088 Y81.424 I1.034 J1.205
G1 X3.011
X5.475 Y86.158
G2 X8.291 Y86.158 I1.408 J-0.733
G1 X10.755 Y81.424
X15.855
G2 X16.888 Y78.632 I0 J-1.588
G1 X13.043 Y75.333
X15.108 Y71.487
G2 X13.534 Y69.158 I-1.399 J-0.751
G1 X11.78 Y69.353
X11.974 Y69.107
X12.361 Y68.631
X12.749 Y68.167
X13.139 Y67.717
X13.531 Y67.281
X13.924 Y66.858
X14.319 Y66.45
X14.715 Y66.057
X15.112 Y65.678
X15.511 Y65.315
X15.911 Y64.967
X16.313 Y64.635
X16.717 Y64.317
X17.123 Y64.015
X17.531 Y63.727
X17.942 Y63.453
X18.355 Y63.193
X18.77 Y62.947
X19.189 Y62.714
X19.61 Y62.493
X20.033 Y62.286
X20.46 Y62.09
X20.889 Y61.907
X21.321 Y61.735
X21.756 Y61.575
X22.193 Y61.427
X22.652 Y61.285
G2 X23.656 Y59.18 I-0.471 J-1.516
G1 X23.526 Y58.856
X23.512 Y58.821
X23.378 Y58.506
X23.361 Y58.469
X23.222 Y58.165
X23.204 Y58.127
X23.06 Y57.834
X23.04 Y57.794
X22.892 Y57.511
X22.869 Y57.469
X22.715 Y57.197
X22.689 Y57.153
X22.531 Y56.893
X22.501 Y56.846
X22.338 Y56.597
X22.305 Y56.549
X22.136 Y56.312
X22.099 Y56.261
X21.925 Y56.036
X21.882 Y55.983
X21.703 Y55.77
X21.655 Y55.715
X21.47 Y55.515
X21.416 Y55.46
X21.225 Y55.273
X21.166 Y55.217
X20.969 Y55.043
X20.903 Y54.987
X20.7 Y54.826
X20.629 Y54.773
X20.42 Y54.626
X20.342 Y54.574
X20.128 Y54.441
X20.046 Y54.394
X19.825 Y54.274
X19.742 Y54.232
X19.515 Y54.126
X19.427 Y54.088
X19.195 Y53.996
X19.109 Y53.965
X18.87 Y53.886
X18.784 Y53.86
X18.653 Y53.825
X18.746 Y53.721
X19.091 Y53.35
X19.434 Y52.996
X19.776 Y52.659
X20.115 Y52.341
X20.452 Y52.041
X20.786 Y51.761
X21.118 Y51.5
X21.446 Y51.258
X21.771 Y51.037
X22.093 Y50.835
X22.411 Y50.653
X22.726 Y50.491
X23.039 Y50.347
X23.349 Y50.221
X23.658 Y50.112
X23.966 Y50.02
X24.274 Y49.944
X24.582 Y49.883
X24.892 Y49.837
X25.203 Y49.806
X25.515 Y49.79
X25.831 Y49.787
X26.148 Y49.799
X26.468 Y49.825
X26.79 Y49.864
X27.146 Y49.923
G2 X28.876 Y47.757 I0.26 J-1.566
G1 X28.744 Y47.434
X28.724 Y47.387
X28.583 Y47.072
X28.56 Y47.024
X28.411 Y46.716
X28.386 Y46.668
X28.228 Y46.369
X28.201 Y46.32
X28.033 Y46.029
X28.004 Y45.98
X27.827 Y45.697
X27.795 Y45.647
X27.609 Y45.372
X27.573 Y45.323
X27.378 Y45.057
X27.34 Y45.007
X27.134 Y44.75
X27.093 Y44.7
X26.878 Y44.452
X26.834 Y44.403
X26.608 Y44.164
X26.561 Y44.116
X26.326 Y43.886
X26.276 Y43.84
X26.03 Y43.62
X25.978 Y43.575
X25.722 Y43.365
X25.668 Y43.323
X25.401 Y43.122
X25.347 Y43.083
X25.069 Y42.892
X25.014 Y42.856
X24.725 Y42.674
X24.671 Y42.641
X24.371 Y42.469
X24.318 Y42.44
X24.008 Y42.278
X23.957 Y42.252
X23.637 Y42.098
X23.587 Y42.076
X23.257 Y41.931
X23.208 Y41.911
X22.868 Y41.776
X22.823 Y41.758
X22.473 Y41.632
X22.429 Y41.616
X22.071 Y41.498
X22.029 Y41.485
X21.875 Y41.439
X21.996 Y41.341
X22.488 Y40.956
X22.974 Y40.589
X23.454 Y40.24
X23.928 Y39.91
X24.396 Y39.599
X24.857 Y39.307
X25.311 Y39.036
X25.756 Y38.786
X26.194 Y38.558
X26.623 Y38.351
X27.043 Y38.166
X27.455 Y38.002
X27.858 Y37.861
X28.252 Y37.74
X28.638 Y37.641
X29.017 Y37.561
X29.39 Y37.501
X29.756 Y37.46
X30.117 Y37.436
X30.474 Y37.431
X30.826 Y37.442
X31.176 Y37.47
X31.522 Y37.514
X31.865 Y37.575
X32.206 Y37.652
X32.545 Y37.745
X32.915 Y37.864
G2 X34.985 Y36.213 I0.489 J-1.51
G1 X34.945 Y35.77
X34.938 Y35.702
X34.88 Y35.267
X34.869 Y35.197
X34.793 Y34.77
X34.778 Y34.699
X34.684 Y34.28
X34.666 Y34.207
X34.552 Y33.796
X34.53 Y33.723
X34.398 Y33.319
X34.371 Y33.245
X34.219 Y32.85
X34.188 Y32.776
X34.017 Y32.389
X33.982 Y32.315
X33.79 Y31.937
X33.751 Y31.864
X33.538 Y31.495
X33.495 Y31.424
X33.262 Y31.064
X33.215 Y30.995
X32.961 Y30.644
X32.911 Y30.579
X32.635 Y30.237
X32.583 Y30.175
X32.286 Y29.842
X32.233 Y29.785
X31.914 Y29.462
X31.86 Y29.41
X31.519 Y29.095
X31.466 Y29.048
X31.104 Y28.743
X31.052 Y28.701
X30.669 Y28.405
X30.619 Y28.367
X30.215 Y28.08
X30.167 Y28.047
X29.744 Y27.768
X29.698 Y27.739
X29.255 Y27.468
X29.211 Y27.443
X28.749 Y27.18
X28.708 Y27.158
X28.228 Y26.903
X28.189 Y26.883
X27.69 Y26.637
X27.654 Y26.619
X27.138 Y26.38
X27.103 Y26.364
X26.57 Y26.132
X26.538 Y26.118
X25.988 Y25.893
X25.957 Y25.881
X25.392 Y25.663
X25.56 Y25.509
X26.07 Y25.052
X26.582 Y24.608
X27.095 Y24.177
X27.608 Y23.759
X28.123 Y23.355
X28.638 Y22.966
X29.154 Y22.591
X29.672 Y22.231
X30.19 Y21.887
X30.711 Y21.558
X31.232 Y21.245
X31.756 Y20.948
X32.282 Y20.667
X32.81 Y20.401
X33.341 Y20.151
X33.876 Y19.916
X34.413 Y19.696
X34.954 Y19.49
X35.498 Y19.298
X36.046 Y19.12
X36.597 Y18.955
X37.152 Y18.803
X37.71 Y18.664
X38.27 Y18.537
X38.834 Y18.422
X39.4 Y18.32
X39.969 Y18.229
X40.557 Y18.148
G2 X41.644 Y15.67 I-0.217 J-1.573
G1 X41.236 Y15.082
X41.188 Y15.018
X40.754 Y14.456
X40.703 Y14.392
X40.243 Y13.856
X40.187 Y13.795
X39.701 Y13.284
X39.641 Y13.225
X39.129 Y12.741
X39.065 Y12.684
X38.526 Y12.228
X38.459 Y12.174
X37.892 Y11.744
X37.821 Y11.694
X37.227 Y11.293
X37.172 Y11.258
X36.865 Y11.068
X36.828 Y11.045
X36.513 Y10.863
X36.475 Y10.842
X36.153 Y10.666
X36.115 Y10.646
X35.786 Y10.478
X35.748 Y10.459
X35.411 Y10.299
X35.374 Y10.281
X35.029 Y10.128
X34.992 Y10.112
X34.64 Y9.966
X34.602 Y9.95
X34.243 Y9.812
X34.206 Y9.799
X33.84 Y9.668
X33.802 Y9.655
X33.428 Y9.532
X33.392 Y9.52
X33.011 Y9.405
X32.975 Y9.394
X32.586 Y9.286
X32.552 Y9.277
X32.155 Y9.176
X32.121 Y9.168
X31.717 Y9.075
X31.684 Y9.068
X31.273 Y8.982
X31.241 Y8.976
X30.822 Y8.898
X30.791 Y8.892
X30.365 Y8.822
X30.335 Y8.817
X29.902 Y8.753
X29.859 Y8.748
X28.971 Y8.642
X28.918 Y8.636
X28.002 Y8.559
X27.953 Y8.555
X27.01 Y8.504
X26.965 Y8.503
X25.996 Y8.478
X25.955
X24.961 Y8.479
X24.923
X23.904 Y8.504
X23.869 Y8.506
X22.826 Y8.555
X22.793 Y8.556
X21.727 Y8.628
X21.697 Y8.631
X20.609 Y8.725
X20.581 Y8.727
X19.47 Y8.843
X19.445 Y8.846
X18.313 Y8.982
X18.289 Y8.985
X17.135 Y9.142
X17.113 Y9.146
X15.939 Y9.323
X15.917 Y9.326
X15.354 Y9.419
Y0
G2 X13.767 Y-1.587 I-1.588 J0
G1 X11.743
G2 X10.155 Y0 I0 J1.587
G1 Y13.738
G2 X12.032 Y15.299 I1.587 J0
G1 X14.213 Y14.896
X15.271 Y14.704
X16.301 Y14.529
X17.313 Y14.37
X18.307 Y14.226
X19.281 Y14.099
X20.234 Y13.987
X21.167 Y13.892
X22.078 Y13.814
X22.968 Y13.753
X23.834 Y13.709
X24.676 Y13.683
X25.494 Y13.674
X26.285 Y13.683
X27.047 Y13.711
X27.781 Y13.757
X28.487 Y13.821
X29.164 Y13.904
X29.811 Y14.004
X30.43 Y14.121
X31.019 Y14.255
X31.578 Y14.405
X32.106 Y14.571
X32.605 Y14.752
X32.695 Y14.789
X32.257 Y14.961
X32.222 Y14.975
X31.62 Y15.228
X31.585 Y15.244
X30.987 Y15.513
X30.951 Y15.53
X30.357 Y15.815
X30.322 Y15.832
X29.732 Y16.134
X29.697 Y16.152
X29.111 Y16.47
X29.078 Y16.489
X28.498 Y16.822
X28.466 Y16.841
X27.891 Y17.189
X27.861 Y17.207
X27.291 Y17.57
X27.263 Y17.588
X26.697 Y17.965
X26.67 Y17.983
X26.11 Y18.374
X26.085 Y18.392
X25.529 Y18.796
X25.504 Y18.813
X24.953 Y19.23
X24.93 Y19.248
X24.382 Y19.677
X24.361 Y19.694
X23.817 Y20.136
X23.797 Y20.152
X23.257 Y20.606
X23.238 Y20.622
X22.701 Y21.087
X22.683 Y21.103
X22.15 Y21.579
X22.133 Y21.594
X21.603 Y22.081
X21.587 Y22.096
X21.059 Y22.594
X21.045 Y22.607
X20.52 Y23.115
X20.506 Y23.128
X19.983 Y23.646
X19.974 Y23.656
X19.465 Y24.168
X17.448 Y26.2
G2 X18.124 Y28.841 I1.127 J1.118
G1 X20.418 Y29.519
X20.991 Y29.688
X21.277 Y29.773
X21.544 Y29.852
X22.058 Y30.011
X22.555 Y30.173
X23.036 Y30.339
X23.503 Y30.509
X23.953 Y30.682
X24.388 Y30.858
X24.805 Y31.037
X25.206 Y31.218
X25.589 Y31.402
X25.954 Y31.587
X26.301 Y31.774
X26.628 Y31.962
X26.936 Y32.15
X27.225 Y32.338
X27.493 Y32.525
X27.541 Y32.562
X27.17 Y32.649
X27.102 Y32.666
X26.569 Y32.817
X26.505 Y32.836
X25.973 Y33.01
X25.913 Y33.031
X25.383 Y33.229
X25.328 Y33.25
X24.799 Y33.47
X24.747 Y33.493
X24.219 Y33.734
X24.172 Y33.757
X23.645 Y34.019
X23.601 Y34.042
X23.074 Y34.324
X23.035 Y34.346
X22.508 Y34.649
X22.472 Y34.67
X21.945 Y34.992
X21.912 Y35.012
X21.386 Y35.351
X21.356 Y35.371
X20.829 Y35.728
X20.802 Y35.747
X20.275 Y36.12
X20.25 Y36.138
X19.722 Y36.527
X19.7 Y36.544
X19.171 Y36.948
X19.151 Y36.964
X18.621 Y37.382
X18.603 Y37.397
X18.072 Y37.83
X18.054 Y37.844
X17.521 Y38.291
X17.505 Y38.305
X16.97 Y38.766
X16.954 Y38.779
X16.417 Y39.255
X16.402 Y39.268
X15.866 Y39.754
X15.861 Y39.758
X14.815 Y40.714
X12.723 Y42.625
G2 X13.595 Y45.372 I1.071 J1.172
G1 X16.751 Y45.77
X17.54 Y45.869
X17.928 Y45.918
X18.258 Y45.962
X18.895 Y46.065
X19.497 Y46.186
X19.677 Y46.228
X19.368 Y46.408
X19.317 Y46.439
X18.899 Y46.704
X18.852 Y46.735
X18.44 Y47.017
X18.396 Y47.048
X17.989 Y47.348
X17.949 Y47.378
X17.547 Y47.694
X17.511 Y47.724
X17.114 Y48.055
X17.08 Y48.084
X16.688 Y48.43
X16.658 Y48.457
X16.269 Y48.818
X16.242 Y48.845
X15.857 Y49.22
X15.832 Y49.245
X15.452 Y49.633
X15.429 Y49.656
X15.053 Y50.057
X15.032 Y50.079
X14.659 Y50.491
X14.64 Y50.512
X14.27 Y50.936
X14.252 Y50.957
X13.883 Y51.393
X13.867 Y51.413
X13.501 Y51.862
X13.485 Y51.881
X13.121 Y52.341
X13.107 Y52.36
X12.743 Y52.832
X12.733 Y52.846
X12.552 Y53.087
X12.547 Y53.093
X12.522 Y53.128
G3 X12.077 Y53.193 I-0.255 J-0.189 F520
G1 X11.823 Y53.004
X11.766 Y52.962 Z0.258
X11.712 Y52.922 Z0.281
X11.664 Y52.886 Z0.319
X11.623 Y52.856 Z0.37
X11.593 Y52.833 Z0.43
X11.574 Y52.819 Z0.497
X11.568 Y52.815 Z0.567
Z6 F650
X11.946 Y52.305
Z0.885 F260
Z-0.183
X11.953 Y52.31 Z-0.253 F520
X11.972 Y52.324 Z-0.32
X12.002 Y52.346 Z-0.38
X12.042 Y52.376 Z-0.431
X12.091 Y52.412 Z-0.469
X12.145 Y52.452 Z-0.492
X12.201 Y52.494 Z-0.5
X12.456 Y52.684
G3 X12.522 Y53.128 I-0.189 J0.255
G1 X12.372 Y53.329 F650
X12.027 Y53.794
X11.337 Y54.724
X9.957 Y56.582
G2 X10.407 Y58.885 I1.275 J0.946
G3 X10.633 Y59.08 I-0.474 J0.78
G2 X12.147 Y59.621 I1.218 J-1.018
G1 X14.933 Y59.092
X15.202 Y59.041
X14.994 Y59.172
X14.947 Y59.203
X14.268 Y59.668
X14.222 Y59.701
X13.552 Y60.195
X13.507 Y60.229
X12.847 Y60.754
X12.804 Y60.789
X12.154 Y61.344
X12.114 Y61.379
X11.475 Y61.962
X11.439 Y61.995
X10.81 Y62.605
X10.778 Y62.638
X10.159 Y63.273
X10.13 Y63.304
X9.52 Y63.965
X9.493 Y63.994
X8.892 Y64.678
X8.869 Y64.706
X8.276 Y65.413
X8.254 Y65.44
X8.145 Y65.575
X5.621
X5.513 Y65.44
X5.491 Y65.413
X4.898 Y64.706
X4.874 Y64.678
X4.273 Y63.994
X4.247 Y63.965
X3.637 Y63.304
X3.608 Y63.273
X2.989 Y62.638
X2.956 Y62.605
X2.327 Y61.995
X2.292 Y61.962
X1.652 Y61.379
X1.613 Y61.344
X0.963 Y60.789
X0.92 Y60.754
X0.259 Y60.229
X0.215 Y60.195
X-0.455 Y59.701
X-0.501 Y59.668
X-1.18 Y59.203
X-1.228 Y59.172
X-1.435 Y59.041
X-0.28 Y59.26
X2.802 Y59.846
G2 X4.372 Y57.34 I0.296 J-1.56
G1 X1.472 Y53.434
X1.291 Y53.19
X1.288 Y53.185
X1.098 Y52.932
X1.088 Y52.918
X0.706 Y52.419
X0.692 Y52.4
X0.308 Y51.915
X0.292 Y51.895
X-0.093 Y51.423
X-0.11 Y51.402
X-0.497 Y50.943
X-0.516 Y50.922
X-0.905 Y50.476
X-0.925 Y50.454
X-1.318 Y50.022
X-1.34 Y49.999
X-1.736 Y49.58
X-1.761 Y49.555
X-2.161 Y49.15
X-2.188 Y49.124
X-2.593 Y48.733
X-2.623 Y48.705
X-3.032 Y48.331
X-3.065 Y48.301
X-3.479 Y47.943
X-3.516 Y47.912
X-3.935 Y47.571
X-3.975 Y47.539
X-4.4 Y47.215
X-4.444 Y47.183
X-4.874 Y46.878
X-4.922 Y46.845
X-5.358 Y46.558
X-5.41 Y46.526
X-5.853 Y46.259
X-5.908 Y46.228
X-5.73 Y46.186
X-5.129 Y46.065
X-4.491 Y45.962
X-4.162 Y45.918
X-3.774 Y45.869
X-2.985 Y45.77
X0.171 Y45.372
G2 X1.044 Y42.625 I-0.198 J-1.575
G1 X-1.048 Y40.714
X-2.094 Y39.758
X-2.099 Y39.754
X-2.636 Y39.268
X-2.65 Y39.255
X-3.188 Y38.779
X-3.203 Y38.766
X-3.738 Y38.305
X-3.755 Y38.291
X-4.288 Y37.844
X-4.305 Y37.83
X-4.836 Y37.397
X-4.855 Y37.382
X-5.385 Y36.964
X-5.404 Y36.948
X-5.933 Y36.544
X-5.956 Y36.527
X-6.484 Y36.138
X-6.508 Y36.12
X-7.035 Y35.747
X-7.063 Y35.728
X-7.589 Y35.371
X-7.619 Y35.351
X-8.146 Y35.012
X-8.179 Y34.992
X-8.705 Y34.67
X-8.742 Y34.649
X-9.268 Y34.346
X-9.308 Y34.324
X-9.835 Y34.042
X-9.878 Y34.019
X-10.405 Y33.757
X-10.453 Y33.734
X-10.981 Y33.493
X-11.032 Y33.47
X-11.561 Y33.25
X-11.616 Y33.229
X-12.147 Y33.031
X-12.206 Y33.01
X-12.738 Y32.836
X-12.802 Y32.817
X-13.335 Y32.666
X-13.403 Y32.649
X-13.774 Y32.562
X-13.726 Y32.525
X-13.458 Y32.338
X-13.17 Y32.15
X-12.862 Y31.962
X-12.534 Y31.774
X-12.188 Y31.587
X-11.822 Y31.402
X-11.439 Y31.218
X-11.039 Y31.037
X-10.621 Y30.858
X-10.187 Y30.682
X-9.736 Y30.509
X-9.27 Y30.339
X-8.788 Y30.173
X-8.292 Y30.011
X-7.778 Y29.852
X-7.51 Y29.773
X-7.225 Y29.688
X-6.652 Y29.519
X-4.357 Y28.841
G2 X-3.681 Y26.2 I-0.45 J-1.522
G1 X-5.698 Y24.168
X-6.207 Y23.656
X-6.217 Y23.646
X-6.74 Y23.128
X-6.753 Y23.115
X-7.278 Y22.607
X-7.293 Y22.594
X-7.821 Y22.096
X-7.836 Y22.081
X-8.367 Y21.594
X-8.383 Y21.579
X-8.917 Y21.103
X-8.935 Y21.087
X-9.471 Y20.622
X-9.49 Y20.606
X-10.03 Y20.152
X-10.05 Y20.136
X-10.594 Y19.694
X-10.616 Y19.677
X-11.164 Y19.248
X-11.186 Y19.23
X-11.738 Y18.813
X-11.762 Y18.796
X-12.318 Y18.392
X-12.343 Y18.374
X-12.904 Y17.983
X-12.931 Y17.965
X-13.496 Y17.588
X-13.524 Y17.57
X-14.095 Y17.207
X-14.124 Y17.189
X-14.699 Y16.841
X-14.731 Y16.822
X-15.312 Y16.489
X-15.345 Y16.47
X-15.93 Y16.152
X-15.966 Y16.134
X-16.556 Y15.832
X-16.591 Y15.815
X-17.185 Y15.529
X-17.221 Y15.513
X-17.818 Y15.244
X-17.854 Y15.229
X-18.455 Y14.975
X-18.491 Y14.961
X-18.928 Y14.789
X-18.839 Y14.752
X-18.34 Y14.571
X-17.811 Y14.405
X-17.252 Y14.255
X-16.663 Y14.121
X-16.045 Y14.004
X-15.397 Y13.904
X-14.72 Y13.821
X-14.014 Y13.757
X-13.28 Y13.711
X-12.518 Y13.683
X-11.727 Y13.674
X-10.91 Y13.683
X-10.067 Y13.709
X-9.201 Y13.753
X-8.312 Y13.814
X-7.4 Y13.892
X-6.468 Y13.987
X-5.514 Y14.099
X-4.54 Y14.226
X-3.547 Y14.37
X-2.535 Y14.529
X-1.504 Y14.704
X-0.447 Y14.896
X1.735 Y15.299
G2 X3.611 Y13.738 I0.289 J-1.561
G1 Y0
G2 X2.024 Y-1.587 I-1.588 J0
G1 X0
G2 X-1.587 Y0 I0 J1.587
G1 Y9.419
X-2.151 Y9.326
X-2.172 Y9.323
X-3.346 Y9.146
X-3.369 Y9.142
X-4.522 Y8.985
X-4.546 Y8.982
X-5.678 Y8.846
X-5.704 Y8.843
X-6.814 Y8.727
X-6.842 Y8.725
X-7.931 Y8.631
X-7.961 Y8.628
X-9.027 Y8.556
X-9.059 Y8.555
X-10.102 Y8.506
X-10.137 Y8.504
X-11.156 Y8.479
X-11.194
X-12.188 Y8.478
X-12.23
X-13.199 Y8.503
X-13.244 Y8.504
X-14.187 Y8.555
X-14.236 Y8.559
X-15.151 Y8.636
X-15.205 Y8.642
X-16.093 Y8.748
X-16.135 Y8.753
X-16.568 Y8.817
X-16.598 Y8.822
X-17.024 Y8.892
X-17.055 Y8.898
X-17.474 Y8.976
X-17.506 Y8.982
X-17.917 Y9.068
X-17.95 Y9.075
X-18.354 Y9.168
X-18.389 Y9.176
X-18.785 Y9.277
X-18.819 Y9.286
X-19.208 Y9.394
X-19.244 Y9.405
X-19.626 Y9.52
X-19.662 Y9.532
X-20.036 Y9.655
X-20.073 Y9.668
X-20.44 Y9.799
X-20.476 Y9.812
X-20.836 Y9.95
X-20.873 Y9.966
X-21.225 Y10.112
X-21.263 Y10.128
X-21.607 Y10.281
X-21.645 Y10.299
X-21.982 Y10.459
X-22.019 Y10.478
X-22.349 Y10.646
X-22.386 Y10.666
X-22.709 Y10.842
X-22.746 Y10.863
X-23.061 Y11.045
X-23.098 Y11.068
X-23.406 Y11.258
X-23.46 Y11.293
X-24.055 Y11.694
X-24.125 Y11.744
X-24.692 Y12.174
X-24.759 Y12.227
X-25.299 Y12.684
X-25.362 Y12.741
X-25.875 Y13.225
X-25.935 Y13.284
X-26.421 Y13.795
X-26.476 Y13.856
X-26.936 Y14.392
X-26.988 Y14.456
X-27.422 Y15.018
X-27.469 Y15.082
X-27.877 Y15.67
G2 X-26.79 Y18.148 I1.304 J0.906
G1 X-26.203 Y18.229
X-25.634 Y18.32
X-25.067 Y18.422
X-24.504 Y18.537
X-23.943 Y18.664
X-23.385 Y18.803
X-22.831 Y18.955
X-22.28 Y19.12
X-21.732 Y19.298
X-21.187 Y19.49
X-20.647 Y19.696
X-20.109 Y19.916
X-19.575 Y20.151
X-19.044 Y20.401
X-18.515 Y20.667
X-17.989 Y20.948
X-17.466 Y21.245
X-16.944 Y21.558
X-16.424 Y21.887
X-15.905 Y22.231
X-15.388 Y22.591
X-14.871 Y22.966
X-14.356 Y23.355
X-13.842 Y23.759
X-13.328 Y24.177
X-12.816 Y24.608
X-12.304 Y25.052
X-11.793 Y25.509
X-11.626 Y25.663
X-12.191 Y25.881
X-12.221 Y25.893
X-12.771 Y26.118
X-12.804 Y26.132
X-13.337 Y26.364
X-13.371 Y26.38
X-13.887 Y26.619
X-13.924 Y26.637
X-14.422 Y26.883
X-14.461 Y26.903
X-14.942 Y27.158
X-14.982 Y27.18
X-15.445 Y27.442
X-15.488 Y27.468
X-15.931 Y27.739
X-15.977 Y27.768
X-16.401 Y28.047
X-16.449 Y28.08
X-16.852 Y28.367
X-16.903 Y28.405
X-17.286 Y28.701
X-17.338 Y28.743
X-17.7 Y29.048
X-17.753 Y29.095
X-18.093 Y29.41
X-18.147 Y29.462
X-18.466 Y29.785
X-18.519 Y29.842
X-18.817 Y30.175
X-18.869 Y30.236
X-19.144 Y30.578
X-19.194 Y30.644
X-19.448 Y30.995
X-19.496 Y31.064
X-19.729 Y31.424
X-19.772 Y31.495
X-19.984 Y31.864
X-20.023 Y31.937
X-20.215 Y32.315
X-20.25 Y32.389
X-20.422 Y32.776
X-20.453 Y32.85
X-20.605 Y33.245
X-20.631 Y33.319
X-20.763 Y33.722
X-20.786 Y33.796
X-20.899 Y34.207
X-20.917 Y34.28
X-21.012 Y34.699
X-21.026 Y34.77
X-21.102 Y35.198
X-21.113 Y35.267
X-21.171 Y35.702
X-21.178 Y35.77
X-21.218 Y36.213
G2 X-19.148 Y37.864 I1.581 J0.141
G1 X-18.778 Y37.745
X-18.439 Y37.652
X-18.099 Y37.575
X-17.755 Y37.514
X-17.409 Y37.47
X-17.06 Y37.442
X-16.707 Y37.431
X-16.351 Y37.436
X-15.99 Y37.46
X-15.623 Y37.501
X-15.251 Y37.561
X-14.872 Y37.641
X-14.486 Y37.74
X-14.091 Y37.861
X-13.688 Y38.002
X-13.277 Y38.166
X-12.856 Y38.351
X-12.427 Y38.558
X-11.99 Y38.786
X-11.544 Y39.036
X-11.091 Y39.307
X-10.63 Y39.599
X-10.162 Y39.91
X-9.688 Y40.24
X-9.207 Y40.589
X-8.721 Y40.956
X-8.229 Y41.341
X-8.108 Y41.439
X-8.262 Y41.485
X-8.304 Y41.498
X-8.663 Y41.616
X-8.707 Y41.632
X-9.056 Y41.758
X-9.102 Y41.776
X-9.442 Y41.911
X-9.49 Y41.931
X-9.82 Y42.075
X-9.87 Y42.098
X-10.19 Y42.252
X-10.242 Y42.278
X-10.552 Y42.44
X-10.605 Y42.469
X-10.904 Y42.641
X-10.959 Y42.674
X-11.247 Y42.856
X-11.302 Y42.891
X-11.58 Y43.083
X-11.634 Y43.122
X-11.902 Y43.323
X-11.955 Y43.365
X-12.212 Y43.575
X-12.264 Y43.62
X-12.51 Y43.84
X-12.559 Y43.886
X-12.795 Y44.116
X-12.842 Y44.164
X-13.067 Y44.403
X-13.111 Y44.452
X-13.327 Y44.7
X-13.368 Y44.75
X-13.573 Y45.007
X-13.611 Y45.057
X-13.807 Y45.323
X-13.842 Y45.372
X-14.028 Y45.647
X-14.06 Y45.697
X-14.237 Y45.98
X-14.267 Y46.029
X-14.435 Y46.321
X-14.461 Y46.369
X-14.62 Y46.668
X-14.644 Y46.717
X-14.794 Y47.024
X-14.816 Y47.072
X-14.957 Y47.387
X-14.977 Y47.434
X-15.109 Y47.757
G2 X-13.379 Y49.923 I1.47 J0.6
G1 X-13.023 Y49.864
X-12.701 Y49.825
X-12.381 Y49.799
X-12.064 Y49.787
X-11.749 Y49.79
X-11.436 Y49.806
X-11.125 Y49.837
X-10.816 Y49.883
X-10.507 Y49.944
X-10.199 Y50.02
X-9.891 Y50.112
X-9.583 Y50.221
X-9.272 Y50.347
X-8.96 Y50.491
X-8.645 Y50.653
X-8.326 Y50.835
X-8.005 Y51.037
X-7.68 Y51.258
X-7.351 Y51.5
X-7.02 Y51.761
X-6.686 Y52.041
X-6.348 Y52.341
X-6.009 Y52.66
X-5.668 Y52.996
X-5.324 Y53.35
X-4.98 Y53.721
X-4.887 Y53.825
X-5.017 Y53.86
X-5.104 Y53.886
X-5.342 Y53.965
X-5.428 Y53.996
X-5.661 Y54.088
X-5.748 Y54.126
X-5.975 Y54.232
X-6.059 Y54.274
X-6.28 Y54.394
X-6.361 Y54.441
X-6.576 Y54.574
X-6.654 Y54.626
X-6.862 Y54.773
X-6.934 Y54.826
X-7.136 Y54.987
X-7.202 Y55.043
X-7.399 Y55.217
X-7.459 Y55.273
X-7.65 Y55.46
X-7.703 Y55.515
X-7.888 Y55.716
X-7.936 Y55.77
X-8.116 Y55.983
X-8.158 Y56.035
X-8.332 Y56.261
X-8.37 Y56.312
X-8.538 Y56.549
X-8.571 Y56.597
X-8.735 Y56.846
X-8.764 Y56.893
X-8.923 Y57.153
X-8.949 Y57.197
X-9.102 Y57.469
X-9.125 Y57.511
X-9.273 Y57.794
X-9.294 Y57.834
X-9.438 Y58.127
X-9.456 Y58.165
X-9.595 Y58.469
X-9.611 Y58.506
X-9.745 Y58.821
X-9.76 Y58.856
X-9.889 Y59.181
G2 X-8.885 Y61.285 I1.474 J0.588
G1 X-8.426 Y61.427
X-7.989 Y61.576
X-7.555 Y61.735
X-7.123 Y61.907
X-6.693 Y62.09
X-6.267 Y62.286
X-5.843 Y62.493
X-5.422 Y62.714
X-5.004 Y62.947
X-4.588 Y63.193
X-4.175 Y63.453
X-3.765 Y63.727
X-3.356 Y64.015
X-2.951 Y64.317
X-2.547 Y64.635
X-2.145 Y64.967
X-1.744 Y65.315
X-1.345 Y65.678
X-0.948 Y66.057
X-0.552 Y66.45
X-0.157 Y66.858
X0.236 Y67.281
X0.627 Y67.717
X1.017 Y68.167
X1.406 Y68.631
X1.793 Y69.107
X1.986 Y69.353
X0.232 Y69.158
G2 X-1.342 Y71.487 I-0.175 J1.578
G1 X0.724 Y75.333
X-3.122 Y78.632
G2 X-2.088 Y81.424 I1.034 J1.205
G1 X3.011
X5.475 Y86.158
G2 X8.291 Y86.158 I1.408 J-0.733
G1 X10.755 Y81.424
X15.855
G2 X16.888 Y78.632 I0 J-1.588
G1 X13.043 Y75.333
X15.108 Y71.487
G2 X13.534 Y69.158 I-1.399 J-0.751
G1 X11.78 Y69.353
X11.974 Y69.107
X12.361 Y68.631
X12.749 Y68.167
X13.139 Y67.717
X13.531 Y67.281
X13.924 Y66.858
X14.319 Y66.45
X14.715 Y66.057
X15.112 Y65.678
X15.511 Y65.315
X15.911 Y64.967
X16.313 Y64.635
X16.717 Y64.317
X17.123 Y64.015
X17.531 Y63.727
X17.942 Y63.453
X18.355 Y63.193
X18.77 Y62.947
X19.189 Y62.714
X19.61 Y62.493
X20.033 Y62.286
X20.46 Y62.09
X20.889 Y61.907
X21.321 Y61.735
X21.756 Y61.575
X22.193 Y61.427
X22.652 Y61.285
G2 X23.656 Y59.18 I-0.471 J-1.516
G1 X23.526 Y58.856
X23.512 Y58.821
X23.378 Y58.506
X23.361 Y58.469
X23.222 Y58.165
X23.204 Y58.127
X23.06 Y57.834
X23.04 Y57.794
X22.892 Y57.511
X22.869 Y57.469
X22.715 Y57.197
X22.689 Y57.153
X22.531 Y56.893
X22.501 Y56.846
X22.338 Y56.597
X22.305 Y56.549
X22.136 Y56.312
X22.099 Y56.261
X21.925 Y56.036
X21.882 Y55.983
X21.703 Y55.77
X21.655 Y55.715
X21.47 Y55.515
X21.416 Y55.46
X21.225 Y55.273
X21.166 Y55.217
X20.969 Y55.043
X20.903 Y54.987
X20.7 Y54.826
X20.629 Y54.773
X20.42 Y54.626
X20.342 Y54.574
X20.128 Y54.441
X20.046 Y54.394
X19.825 Y54.274
X19.742 Y54.232
X19.515 Y54.126
X19.427 Y54.088
X19.195 Y53.996
X19.109 Y53.965
X18.87 Y53.886
X18.784 Y53.86
X18.653 Y53.825
X18.746 Y53.721
X19.091 Y53.35
X19.434 Y52.996
X19.776 Y52.659
X20.115 Y52.341
X20.452 Y52.041
X20.786 Y51.761
X21.118 Y51.5
X21.446 Y51.258
X21.771 Y51.037
X22.093 Y50.835
X22.411 Y50.653
X22.726 Y50.491
X23.039 Y50.347
X23.349 Y50.221
X23.658 Y50.112
X23.966 Y50.02
X24.274 Y49.944
X24.582 Y49.883
X24.892 Y49.837
X25.203 Y49.806
X25.515 Y49.79
X25.831 Y49.787
X26.148 Y49.799
X26.468 Y49.825
X26.79 Y49.864
X27.146 Y49.923
G2 X28.876 Y47.757 I0.26 J-1.566
G1 X28.744 Y47.434
X28.724 Y47.387
X28.583 Y47.072
X28.56 Y47.024
X28.411 Y46.716
X28.386 Y46.668
X28.228 Y46.369
X28.201 Y46.32
X28.033 Y46.029
X28.004 Y45.98
X27.827 Y45.697
X27.795 Y45.647
X27.609 Y45.372
X27.573 Y45.323
X27.378 Y45.057
X27.34 Y45.007
X27.134 Y44.75
X27.093 Y44.7
X26.878 Y44.452
X26.834 Y44.403
X26.608 Y44.164
X26.561 Y44.116
X26.326 Y43.886
X26.276 Y43.84
X26.03 Y43.62
X25.978 Y43.575
X25.722 Y43.365
X25.668 Y43.323
X25.401 Y43.122
X25.347 Y43.083
X25.069 Y42.892
X25.014 Y42.856
X24.725 Y42.674
X24.671 Y42.641
X24.371 Y42.469
X24.318 Y42.44
X24.008 Y42.278
X23.957 Y42.252
X23.637 Y42.098
X23.587 Y42.076
X23.257 Y41.931
X23.208 Y41.911
X22.868 Y41.776
X22.823 Y41.758
X22.473 Y41.632
X22.429 Y41.616
X22.071 Y41.498
X22.029 Y41.485
X21.875 Y41.439
X21.996 Y41.341
X22.488 Y40.956
X22.974 Y40.589
X23.454 Y40.24
X23.928 Y39.91
X24.396 Y39.599
X24.857 Y39.307
X25.311 Y39.036
X25.756 Y38.786
X26.194 Y38.558
X26.623 Y38.351
X27.043 Y38.166
X27.455 Y38.002
X27.858 Y37.861
X28.252 Y37.74
X28.638 Y37.641
X29.017 Y37.561
X29.39 Y37.501
X29.756 Y37.46
X30.117 Y37.436
X30.474 Y37.431
X30.826 Y37.442
X31.176 Y37.47
X31.522 Y37.514
X31.865 Y37.575
X32.206 Y37.652
X32.545 Y37.745
X32.915 Y37.864
G2 X34.985 Y36.213 I0.489 J-1.51
G1 X34.945 Y35.77
X34.938 Y35.702
X34.88 Y35.267
X34.869 Y35.197
X34.793 Y34.77
X34.778 Y34.699
X34.684 Y34.28
X34.666 Y34.207
X34.552 Y33.796
X34.53 Y33.723
X34.398 Y33.319
X34.371 Y33.245
X34.219 Y32.85
X34.188 Y32.776
X34.017 Y32.389
X33.982 Y32.315
X33.79 Y31.937
X33.751 Y31.864
X33.538 Y31.495
X33.495 Y31.424
X33.262 Y31.064
X33.215 Y30.995
X32.961 Y30.644
X32.911 Y30.579
X32.635 Y30.237
X32.583 Y30.175
X32.286 Y29.842
X32.233 Y29.785
X31.914 Y29.462
X31.86 Y29.41
X31.519 Y29.095
X31.466 Y29.048
X31.104 Y28.743
X31.052 Y28.701
X30.669 Y28.405
X30.619 Y28.367
X30.215 Y28.08
X30.167 Y28.047
X29.744 Y27.768
X29.698 Y27.739
X29.255 Y27.468
X29.211 Y27.443
X28.749 Y27.18
X28.708 Y27.158
X28.228 Y26.903
X28.189 Y26.883
X27.69 Y26.637
X27.654 Y26.619
X27.138 Y26.38
X27.103 Y26.364
X26.57 Y26.132
X26.538 Y26.118
X25.988 Y25.893
X25.957 Y25.881
X25.392 Y25.663
X25.56 Y25.509
X26.07 Y25.052
X26.582 Y24.608
X27.095 Y24.177
X27.608 Y23.759
X28.123 Y23.355
X28.638 Y22.966
X29.154 Y22.591
X29.672 Y22.231
X30.19 Y21.887
X30.711 Y21.558
X31.232 Y21.245
X31.756 Y20.948
X32.282 Y20.667
X32.81 Y20.401
X33.341 Y20.151
X33.876 Y19.916
X34.413 Y19.696
X34.954 Y19.49
X35.498 Y19.298
X36.046 Y19.12
X36.597 Y18.955
X37.152 Y18.803
X37.71 Y18.664
X38.27 Y18.537
X38.834 Y18.422
X39.4 Y18.32
X39.969 Y18.229
X40.557 Y18.148
G2 X41.644 Y15.67 I-0.217 J-1.573
G1 X41.236 Y15.082
X41.188 Y15.018
X40.754 Y14.456
X40.703 Y14.392
X40.243 Y13.856
X40.187 Y13.795
X39.701 Y13.284
X39.641 Y13.225
X39.129 Y12.741
X39.065 Y12.684
X38.526 Y12.228
X38.459 Y12.174
X37.892 Y11.744
X37.821 Y11.694
X37.227 Y11.293
X37.172 Y11.258
X36.865 Y11.068
X36.828 Y11.045
X36.513 Y10.863
X36.475 Y10.842
X36.153 Y10.666
X36.115 Y10.646
X35.786 Y10.478
X35.748 Y10.459
X35.411 Y10.299
X35.374 Y10.281
X35.029 Y10.128
X34.992 Y10.112
X34.64 Y9.966
X34.602 Y9.95
X34.243 Y9.812
X34.206 Y9.799
X33.84 Y9.668
X33.802 Y9.655
X33.428 Y9.532
X33.392 Y9.52
X33.011 Y9.405
X32.975 Y9.394
X32.586 Y9.286
X32.552 Y9.277
X32.155 Y9.176
X32.121 Y9.168
X31.717 Y9.075
X31.684 Y9.068
X31.273 Y8.982
X31.241 Y8.976
X30.822 Y8.898
X30.791 Y8.892
X30.365 Y8.822
X30.335 Y8.817
X29.902 Y8.753
X29.859 Y8.748
X28.971 Y8.642
X28.918 Y8.636
X28.002 Y8.559
X27.953 Y8.555
X27.01 Y8.504
X26.965 Y8.503
X25.996 Y8.478
X25.955
X24.961 Y8.479
X24.923
X23.904 Y8.504
X23.869 Y8.506
X22.826 Y8.555
X22.793 Y8.556
X21.727 Y8.628
X21.697 Y8.631
X20.609 Y8.725
X20.581 Y8.727
X19.47 Y8.843
X19.445 Y8.846
X18.313 Y8.982
X18.289 Y8.985
X17.135 Y9.142
X17.113 Y9.146
X15.939 Y9.323
X15.917 Y9.326
X15.354 Y9.419
Y0
G2 X13.767 Y-1.587 I-1.588 J0
G1 X11.743
G2 X10.155 Y0 I0 J1.587
G1 Y13.738
G2 X12.032 Y15.299 I1.587 J0
G1 X14.213 Y14.896
X15.271 Y14.704
X16.301 Y14.529
X17.313 Y14.37
X18.307 Y14.226
X19.281 Y14.099
X20.234 Y13.987
X21.167 Y13.892
X22.078 Y13.814
X22.968 Y13.753
X23.834 Y13.709
X24.676 Y13.683
X25.494 Y13.674
X26.285 Y13.683
X27.047 Y13.711
X27.781 Y13.757
X28.487 Y13.821
X29.164 Y13.904
X29.811 Y14.004
X30.43 Y14.121
X31.019 Y14.255
X31.578 Y14.405
X32.106 Y14.571
X32.605 Y14.752
X32.695 Y14.789
X32.257 Y14.961
X32.222 Y14.975
X31.62 Y15.228
X31.585 Y15.244
X30.987 Y15.513
X30.951 Y15.53
X30.357 Y15.815
X30.322 Y15.832
X29.732 Y16.134
X29.697 Y16.152
X29.111 Y16.47
X29.078 Y16.489
X28.498 Y16.822
X28.466 Y16.841
X27.891 Y17.189
X27.861 Y17.207
X27.291 Y17.57
X27.263 Y17.588
X26.697 Y17.965
X26.67 Y17.983
X26.11 Y18.374
X26.085 Y18.392
X25.529 Y18.796
X25.504 Y18.813
X24.953 Y19.23
X24.93 Y19.248
X24.382 Y19.677
X24.361 Y19.694
X23.817 Y20.136
X23.797 Y20.152
X23.257 Y20.606
X23.238 Y20.622
X22.701 Y21.087
X22.683 Y21.103
X22.15 Y21.579
X22.133 Y21.594
X21.603 Y22.081
X21.587 Y22.096
X21.059 Y22.594
X21.045 Y22.607
X20.52 Y23.115
X20.506 Y23.128
X19.983 Y23.646
X19.974 Y23.656
X19.465 Y24.168
X17.448 Y26.2
G2 X18.124 Y28.841 I1.127 J1.118
G1 X20.418 Y29.519
X20.991 Y29.688
X21.277 Y29.773
X21.544 Y29.852
X22.058 Y30.011
X22.555 Y30.173
X23.036 Y30.339
X23.503 Y30.509
X23.953 Y30.682
X24.388 Y30.858
X24.805 Y31.037
X25.206 Y31.218
X25.589 Y31.402
X25.954 Y31.587
X26.301 Y31.774
X26.628 Y31.962
X26.936 Y32.15
X27.225 Y32.338
X27.493 Y32.525
X27.541 Y32.562
X27.17 Y32.649
X27.102 Y32.666
X26.569 Y32.817
X26.505 Y32.836
X25.973 Y33.01
X25.913 Y33.031
X25.383 Y33.229
X25.328 Y33.25
X24.799 Y33.47
X24.747 Y33.493
X24.219 Y33.734
X24.172 Y33.757
X23.645 Y34.019
X23.601 Y34.042
X23.074 Y34.324
X23.035 Y34.346
X22.508 Y34.649
X22.472 Y34.67
X21.945 Y34.992
X21.912 Y35.012
X21.386 Y35.351
X21.356 Y35.371
X20.829 Y35.728
X20.802 Y35.747
X20.275 Y36.12
X20.25 Y36.138
X19.722 Y36.527
X19.7 Y36.544
X19.171 Y36.948
X19.151 Y36.964
X18.621 Y37.382
X18.603 Y37.397
X18.072 Y37.83
X18.054 Y37.844
X17.521 Y38.291
X17.505 Y38.305
X16.97 Y38.766
X16.954 Y38.779
X16.417 Y39.255
X16.402 Y39.268
X15.866 Y39.754
X15.861 Y39.758
X14.815 Y40.714
X12.723 Y42.625
G2 X13.595 Y45.372 I1.071 J1.172
G1 X16.751 Y45.77
X17.54 Y45.869
X17.928 Y45.918
X18.258 Y45.962
X18.895 Y46.065
X19.497 Y46.186
X19.677 Y46.228
X19.368 Y46.408
X19.317 Y46.439
X18.899 Y46.704
X18.852 Y46.735
X18.44 Y47.017
X18.396 Y47.048
X17.989 Y47.348
X17.949 Y47.378
X17.547 Y47.694
X17.511 Y47.724
X17.114 Y48.055
X17.08 Y48.084
X16.688 Y48.43
X16.658 Y48.457
X16.269 Y48.818
X16.242 Y48.845
X15.857 Y49.22
X15.832 Y49.245
X15.452 Y49.633
X15.429 Y49.656
X15.053 Y50.057
X15.032 Y50.079
X14.659 Y50.491
X14.64 Y50.512
X14.27 Y50.936
X14.252 Y50.957
X13.883 Y51.393
X13.867 Y51.413
X13.501 Y51.862
X13.485 Y51.881
X13.121 Y52.341
X13.107 Y52.36
X12.743 Y52.832
X12.733 Y52.846
X12.552 Y53.087
X12.547 Y53.093
X12.522 Y53.128
G3 X12.077 Y53.193 I-0.255 J-0.189 F520
G1 X11.823 Y53.004
X11.766 Y52.962 Z-0.492
X11.712 Y52.922 Z-0.469
X11.664 Y52.886 Z-0.431
X11.623 Y52.856 Z-0.38
X11.593 Y52.833 Z-0.32
X11.574 Y52.819 Z-0.253
X11.568 Y52.815 Z-0.183
Z6 F650
X11.946 Y52.305
Z0.135 F260
Z-0.933
X11.953 Y52.31 Z-1.003 F520
X11.972 Y52.324 Z-1.07
X12.002 Y52.346 Z-1.13
X12.042 Y52.376 Z-1.181
X12.091 Y52.412 Z-1.219
X12.145 Y52.452 Z-1.242
X12.201 Y52.494 Z-1.25
X12.456 Y52.684
G3 X12.522 Y53.128 I-0.189 J0.255
G1 X12.372 Y53.329 F650
X12.027 Y53.794
X11.337 Y54.724
X9.957 Y56.582
G2 X10.407 Y58.885 I1.275 J0.946
G3 X10.633 Y59.08 I-0.474 J0.78
G2 X12.147 Y59.621 I1.218 J-1.018
G1 X14.933 Y59.092
X15.202 Y59.041
X14.994 Y59.172
X14.947 Y59.203
X14.268 Y59.668
X14.222 Y59.701
X13.552 Y60.195
X13.507 Y60.229
X12.847 Y60.754
X12.804 Y60.789
X12.154 Y61.344
X12.114 Y61.379
X11.475 Y61.962
X11.439 Y61.995
X10.81 Y62.605
X10.778 Y62.638
X10.159 Y63.273
X10.13 Y63.304
X9.52 Y63.965
X9.493 Y63.994
X8.892 Y64.678
X8.869 Y64.706
X8.276 Y65.413
X8.254 Y65.44
X8.145 Y65.575
X5.621
X5.513 Y65.44
X5.491 Y65.413
X4.898 Y64.706
X4.874 Y64.678
X4.273 Y63.994
X4.247 Y63.965
X3.637 Y63.304
X3.608 Y63.273
X2.989 Y62.638
X2.956 Y62.605
X2.327 Y61.995
X2.292 Y61.962
X1.652 Y61.379
X1.613 Y61.344
X0.963 Y60.789
X0.92 Y60.754
X0.259 Y60.229
X0.215 Y60.195
X-0.455 Y59.701
X-0.501 Y59.668
X-1.18 Y59.203
X-1.228 Y59.172
X-1.435 Y59.041
X-0.28 Y59.26
X2.802 Y59.846
G2 X4.372 Y57.34 I0.296 J-1.56
G1 X1.472 Y53.434
X1.291 Y53.19
X1.288 Y53.185
X1.098 Y52.932
X1.088 Y52.918
X0.706 Y52.419
X0.692 Y52.4
X0.308 Y51.915
X0.292 Y51.895
X-0.093 Y51.423
X-0.11 Y51.402
X-0.497 Y50.943
X-0.516 Y50.922
X-0.905 Y50.476
X-0.925 Y50.454
X-1.318 Y50.022
X-1.34 Y49.999
X-1.736 Y49.58
X-1.761 Y49.555
X-2.161 Y49.15
X-2.188 Y49.124
X-2.593 Y48.733
X-2.623 Y48.705
X-3.032 Y48.331
X-3.065 Y48.301
X-3.479 Y47.943
X-3.516 Y47.912
X-3.935 Y47.571
X-3.975 Y47.539
X-4.4 Y47.215
X-4.444 Y47.183
X-4.874 Y46.878
X-4.922 Y46.845
X-5.358 Y46.558
X-5.41 Y46.526
X-5.853 Y46.259
X-5.908 Y46.228
X-5.73 Y46.186
X-5.129 Y46.065
X-4.491 Y45.962
X-4.162 Y45.918
X-3.774 Y45.869
X-2.985 Y45.77
X0.171 Y45.372
G2 X1.044 Y42.625 I-0.198 J-1.575
G1 X-1.048 Y40.714
X-2.094 Y39.758
X-2.099 Y39.754
X-2.636 Y39.268
X-2.65 Y39.255
X-3.188 Y38.779
X-3.203 Y38.766
X-3.738 Y38.305
X-3.755 Y38.291
X-4.288 Y37.844
X-4.305 Y37.83
X-4.836 Y37.397
X-4.855 Y37.382
X-5.385 Y36.964
X-5.404 Y36.948
X-5.933 Y36.544
X-5.956 Y36.527
X-6.484 Y36.138
X-6.508 Y36.12
X-7.035 Y35.747
X-7.063 Y35.728
X-7.589 Y35.371
X-7.619 Y35.351
X-8.146 Y35.012
X-8.179 Y34.992
X-8.705 Y34.67
X-8.742 Y34.649
X-9.268 Y34.346
X-9.308 Y34.324
X-9.835 Y34.042
X-9.878 Y34.019
X-10.405 Y33.757
X-10.453 Y33.734
X-10.981 Y33.493
X-11.032 Y33.47
X-11.561 Y33.25
X-11.616 Y33.229
X-12.147 Y33.031
X-12.206 Y33.01
X-12.738 Y32.836
X-12.802 Y32.817
X-13.335 Y32.666
X-13.403 Y32.649
X-13.774 Y32.562
X-13.726 Y32.525
X-13.458 Y32.338
X-13.17 Y32.15
X-12.862 Y31.962
X-12.534 Y31.774
X-12.188 Y31.587
X-11.822 Y31.402
X-11.439 Y31.218
X-11.039 Y31.037
X-10.621 Y30.858
X-10.187 Y30.682
X-9.736 Y30.509
X-9.27 Y30.339
X-8.788 Y30.173
X-8.292 Y30.011
X-7.778 Y29.852
X-7.51 Y29.773
X-7.225 Y29.688
X-6.652 Y29.519
X-4.357 Y28.841
G2 X-3.681 Y26.2 I-0.45 J-1.522
G1 X-5.698 Y24.168
X-6.207 Y23.656
X-6.217 Y23.646
X-6.74 Y23.128
X-6.753 Y23.115
X-7.278 Y22.607
X-7.293 Y22.594
X-7.821 Y22.096
X-7.836 Y22.081
X-8.367 Y21.594
X-8.383 Y21.579
X-8.917 Y21.103
X-8.935 Y21.087
X-9.471 Y20.622
X-9.49 Y20.606
X-10.03 Y20.152
X-10.05 Y20.136
X-10.594 Y19.694
X-10.616 Y19.677
X-11.164 Y19.248
X-11.186 Y19.23
X-11.738 Y18.813
X-11.762 Y18.796
X-12.318 Y18.392
X-12.343 Y18.374
X-12.904 Y17.983
X-12.931 Y17.965
X-13.496 Y17.588
X-13.524 Y17.57
X-14.095 Y17.207
X-14.124 Y17.189
X-14.699 Y16.841
X-14.731 Y16.822
X-15.312 Y16.489
X-15.345 Y16.47
X-15.93 Y16.152
X-15.966 Y16.134
X-16.556 Y15.832
X-16.591 Y15.815
X-17.185 Y15.529
X-17.221 Y15.513
X-17.818 Y15.244
X-17.854 Y15.229
X-18.455 Y14.975
X-18.491 Y14.961
X-18.928 Y14.789
X-18.839 Y14.752
X-18.34 Y14.571
X-17.811 Y14.405
X-17.252 Y14.255
X-16.663 Y14.121
X-16.045 Y14.004
X-15.397 Y13.904
X-14.72 Y13.821
X-14.014 Y13.757
X-13.28 Y13.711
X-12.518 Y13.683
X-11.727 Y13.674
X-10.91 Y13.683
X-10.067 Y13.709
X-9.201 Y13.753
X-8.312 Y13.814
X-7.4 Y13.892
X-6.468 Y13.987
X-5.514 Y14.099
X-4.54 Y14.226
X-3.547 Y14.37
X-2.535 Y14.529
X-1.504 Y14.704
X-0.447 Y14.896
X1.735 Y15.299
G2 X3.611 Y13.738 I0.289 J-1.561
G1 Y0
G2 X2.024 Y-1.587 I-1.588 J0
G1 X0
G2 X-1.587 Y0 I0 J1.587
G1 Y9.419
X-2.151 Y9.326
X-2.172 Y9.323
X-3.346 Y9.146
X-3.369 Y9.142
X-4.522 Y8.985
X-4.546 Y8.982
X-5.678 Y8.846
X-5.704 Y8.843
X-6.814 Y8.727
X-6.842 Y8.725
X-7.931 Y8.631
X-7.961 Y8.628
X-9.027 Y8.556
X-9.059 Y8.555
X-10.102 Y8.506
X-10.137 Y8.504
X-11.156 Y8.479
X-11.194
X-12.188 Y8.478
X-12.23
X-13.199 Y8.503
X-13.244 Y8.504
X-14.187 Y8.555
X-14.236 Y8.559
X-15.151 Y8.636
X-15.205 Y8.642
X-16.093 Y8.748
X-16.135 Y8.753
X-16.568 Y8.817
X-16.598 Y8.822
X-17.024 Y8.892
X-17.055 Y8.898
X-17.474 Y8.976
X-17.506 Y8.982
X-17.917 Y9.068
X-17.95 Y9.075
X-18.354 Y9.168
X-18.389 Y9.176
X-18.785 Y9.277
X-18.819 Y9.286
X-19.208 Y9.394
X-19.244 Y9.405
X-19.626 Y9.52
X-19.662 Y9.532
X-20.036 Y9.655
X-20.073 Y9.668
X-20.44 Y9.799
X-20.476 Y9.812
X-20.836 Y9.95
X-20.873 Y9.966
X-21.225 Y10.112
X-21.263 Y10.128
X-21.607 Y10.281
X-21.645 Y10.299
X-21.982 Y10.459
X-22.019 Y10.478
X-22.349 Y10.646
X-22.386 Y10.666
X-22.709 Y10.842
X-22.746 Y10.863
X-23.061 Y11.045
X-23.098 Y11.068
X-23.406 Y11.258
X-23.46 Y11.293
X-24.055 Y11.694
X-24.125 Y11.744
X-24.692 Y12.174
X-24.759 Y12.227
X-25.299 Y12.684
X-25.362 Y12.741
X-25.875 Y13.225
X-25.935 Y13.284
X-26.421 Y13.795
X-26.476 Y13.856
X-26.936 Y14.392
X-26.988 Y14.456
X-27.422 Y15.018
X-27.469 Y15.082
X-27.877 Y15.67
G2 X-26.79 Y18.148 I1.304 J0.906
G1 X-26.203 Y18.229
X-25.634 Y18.32
X-25.067 Y18.422
X-24.504 Y18.537
X-23.943 Y18.664
X-23.385 Y18.803
X-22.831 Y18.955
X-22.28 Y19.12
X-21.732 Y19.298
X-21.187 Y19.49
X-20.647 Y19.696
X-20.109 Y19.916
X-19.575 Y20.151
X-19.044 Y20.401
X-18.515 Y20.667
X-17.989 Y20.948
X-17.466 Y21.245
X-16.944 Y21.558
X-16.424 Y21.887
X-15.905 Y22.231
X-15.388 Y22.591
X-14.871 Y22.966
X-14.356 Y23.355
X-13.842 Y23.759
X-13.328 Y24.177
X-12.816 Y24.608
X-12.304 Y25.052
X-11.793 Y25.509
X-11.626 Y25.663
X-12.191 Y25.881
X-12.221 Y25.893
X-12.771 Y26.118
X-12.804 Y26.132
X-13.337 Y26.364
X-13.371 Y26.38
X-13.887 Y26.619
X-13.924 Y26.637
X-14.422 Y26.883
X-14.461 Y26.903
X-14.942 Y27.158
X-14.982 Y27.18
X-15.445 Y27.442
X-15.488 Y27.468
X-15.931 Y27.739
X-15.977 Y27.768
X-16.401 Y28.047
X-16.449 Y28.08
X-16.852 Y28.367
X-16.903 Y28.405
X-17.286 Y28.701
X-17.338 Y28.743
X-17.7 Y29.048
X-17.753 Y29.095
X-18.093 Y29.41
X-18.147 Y29.462
X-18.466 Y29.785
X-18.519 Y29.842
X-18.817 Y30.175
X-18.869 Y30.236
X-19.144 Y30.578
X-19.194 Y30.644
X-19.448 Y30.995
X-19.496 Y31.064
X-19.729 Y31.424
X-19.772 Y31.495
X-19.984 Y31.864
X-20.023 Y31.937
X-20.215 Y32.315
X-20.25 Y32.389
X-20.422 Y32.776
X-20.453 Y32.85
X-20.605 Y33.245
X-20.631 Y33.319
X-20.763 Y33.722
X-20.786 Y33.796
X-20.899 Y34.207
X-20.917 Y34.28
X-21.012 Y34.699
X-21.026 Y34.77
X-21.102 Y35.198
X-21.113 Y35.267
X-21.171 Y35.702
X-21.178 Y35.77
X-21.218 Y36.213
G2 X-19.148 Y37.864 I1.581 J0.141
G1 X-18.778 Y37.745
X-18.439 Y37.652
X-18.099 Y37.575
X-17.755 Y37.514
X-17.409 Y37.47
X-17.06 Y37.442
X-16.707 Y37.431
X-16.351 Y37.436
X-15.99 Y37.46
X-15.623 Y37.501
X-15.251 Y37.561
X-14.872 Y37.641
X-14.486 Y37.74
X-14.091 Y37.861
X-13.688 Y38.002
X-13.277 Y38.166
X-12.856 Y38.351
X-12.427 Y38.558
X-11.99 Y38.786
X-11.544 Y39.036
X-11.091 Y39.307
X-10.63 Y39.599
X-10.162 Y39.91
X-9.688 Y40.24
X-9.207 Y40.589
X-8.721 Y40.956
X-8.229 Y41.341
X-8.108 Y41.439
X-8.262 Y41.485
X-8.304 Y41.498
X-8.663 Y41.616
X-8.707 Y41.632
X-9.056 Y41.758
X-9.102 Y41.776
X-9.442 Y41.911
X-9.49 Y41.931
X-9.82 Y42.075
X-9.87 Y42.098
X-10.19 Y42.252
X-10.242 Y42.278
X-10.552 Y42.44
X-10.605 Y42.469
X-10.904 Y42.641
X-10.959 Y42.674
X-11.247 Y42.856
X-11.302 Y42.891
X-11.58 Y43.083
X-11.634 Y43.122
X-11.902 Y43.323
X-11.955 Y43.365
X-12.212 Y43.575
X-12.264 Y43.62
X-12.51 Y43.84
X-12.559 Y43.886
X-12.795 Y44.116
X-12.842 Y44.164
X-13.067 Y44.403
X-13.111 Y44.452
X-13.327 Y44.7
X-13.368 Y44.75
X-13.573 Y45.007
X-13.611 Y45.057
X-13.807 Y45.323
X-13.842 Y45.372
X-14.028 Y45.647
X-14.06 Y45.697
X-14.237 Y45.98
X-14.267 Y46.029
X-14.435 Y46.321
X-14.461 Y46.369
X-14.62 Y46.668
X-14.644 Y46.717
X-14.794 Y47.024
X-14.816 Y47.072
X-14.957 Y47.387
X-14.977 Y47.434
X-15.109 Y47.757
G2 X-13.379 Y49.923 I1.47 J0.6
G1 X-13.023 Y49.864
X-12.701 Y49.825
X-12.381 Y49.799
X-12.064 Y49.787
X-11.749 Y49.79
X-11.436 Y49.806
X-11.125 Y49.837
X-10.816 Y49.883
X-10.507 Y49.944
X-10.199 Y50.02
X-9.891 Y50.112
X-9.583 Y50.221
X-9.272 Y50.347
X-8.96 Y50.491
X-8.645 Y50.653
X-8.326 Y50.835
X-8.005 Y51.037
X-7.68 Y51.258
X-7.351 Y51.5
X-7.02 Y51.761
X-6.686 Y52.041
X-6.348 Y52.341
X-6.009 Y52.66
X-5.668 Y52.996
X-5.324 Y53.35
X-4.98 Y53.721
X-4.887 Y53.825
X-5.017 Y53.86
X-5.104 Y53.886
X-5.342 Y53.965
X-5.428 Y53.996
X-5.661 Y54.088
X-5.748 Y54.126
X-5.975 Y54.232
X-6.059 Y54.274
X-6.28 Y54.394
X-6.361 Y54.441
X-6.576 Y54.574
X-6.654 Y54.626
X-6.862 Y54.773
X-6.934 Y54.826
X-7.136 Y54.987
X-7.202 Y55.043
X-7.399 Y55.217
X-7.459 Y55.273
X-7.65 Y55.46
X-7.703 Y55.515
X-7.888 Y55.716
X-7.936 Y55.77
X-8.116 Y55.983
X-8.158 Y56.035
X-8.332 Y56.261
X-8.37 Y56.312
X-8.538 Y56.549
X-8.571 Y56.597
X-8.735 Y56.846
X-8.764 Y56.893
X-8.923 Y57.153
X-8.949 Y57.197
X-9.102 Y57.469
X-9.125 Y57.511
X-9.273 Y57.794
X-9.294 Y57.834
X-9.438 Y58.127
X-9.456 Y58.165
X-9.595 Y58.469
X-9.611 Y58.506
X-9.745 Y58.821
X-9.76 Y58.856
X-9.889 Y59.181
G2 X-8.885 Y61.285 I1.474 J0.588
G1 X-8.426 Y61.427
X-7.989 Y61.576
X-7.555 Y61.735
X-7.123 Y61.907
X-6.693 Y62.09
X-6.267 Y62.286
X-5.843 Y62.493
X-5.422 Y62.714
X-5.004 Y62.947
X-4.588 Y63.193
X-4.175 Y63.453
X-3.765 Y63.727
X-3.356 Y64.015
X-2.951 Y64.317
X-2.547 Y64.635
X-2.145 Y64.967
X-1.744 Y65.315
X-1.345 Y65.678
X-0.948 Y66.057
X-0.552 Y66.45
X-0.157 Y66.858
X0.236 Y67.281
X0.627 Y67.717
X1.017 Y68.167
X1.406 Y68.631
X1.793 Y69.107
X1.986 Y69.353
X0.232 Y69.158
G2 X-1.342 Y71.487 I-0.175 J1.578
G1 X0.724 Y75.333
X-3.122 Y78.632
G2 X-2.088 Y81.424 I1.034 J1.205
G1 X3.011
X5.475 Y86.158
G2 X8.291 Y86.158 I1.408 J-0.733
G1 X10.755 Y81.424
X15.855
G2 X16.888 Y78.632 I0 J-1.588
G1 X13.043 Y75.333
X15.108 Y71.487
G2 X13.534 Y69.158 I-1.399 J-0.751
G1 X11.78 Y69.353
X11.974 Y69.107
X12.361 Y68.631
X12.749 Y68.167
X13.139 Y67.717
X13.531 Y67.281
X13.924 Y66.858
X14.319 Y66.45
X14.715 Y66.057
X15.112 Y65.678
X15.511 Y65.315
X15.911 Y64.967
X16.313 Y64.635
X16.717 Y64.317
X17.123 Y64.015
X17.531 Y63.727
X17.942 Y63.453
X18.355 Y63.193
X18.77 Y62.947
X19.189 Y62.714
X19.61 Y62.493
X20.033 Y62.286
X20.46 Y62.09
X20.889 Y61.907
X21.321 Y61.735
X21.756 Y61.575
X22.193 Y61.427
X22.652 Y61.285
G2 X23.656 Y59.18 I-0.471 J-1.516
G1 X23.526 Y58.856
X23.512 Y58.821
X23.378 Y58.506
X23.361 Y58.469
X23.222 Y58.165
X23.204 Y58.127
X23.06 Y57.834
X23.04 Y57.794
X22.892 Y57.511
X22.869 Y57.469
X22.715 Y57.197
X22.689 Y57.153
X22.531 Y56.893
X22.501 Y56.846
X22.338 Y56.597
X22.305 Y56.549
X22.136 Y56.312
X22.099 Y56.261
X21.925 Y56.036
X21.882 Y55.983
X21.703 Y55.77
X21.655 Y55.715
X21.47 Y55.515
X21.416 Y55.46
X21.225 Y55.273
X21.166 Y55.217
X20.969 Y55.043
X20.903 Y54.987
X20.7 Y54.826
X20.629 Y54.773
X20.42 Y54.626
X20.342 Y54.574
X20.128 Y54.441
X20.046 Y54.394
X19.825 Y54.274
X19.742 Y54.232
X19.515 Y54.126
X19.427 Y54.088
X19.195 Y53.996
X19.109 Y53.965
X18.87 Y53.886
X18.784 Y53.86
X18.653 Y53.825
X18.746 Y53.721
X19.091 Y53.35
X19.434 Y52.996
X19.776 Y52.659
X20.115 Y52.341
X20.452 Y52.041
X20.786 Y51.761
X21.118 Y51.5
X21.446 Y51.258
X21.771 Y51.037
X22.093 Y50.835
X22.411 Y50.653
X22.726 Y50.491
X23.039 Y50.347
X23.349 Y50.221
X23.658 Y50.112
X23.966 Y50.02
X24.274 Y49.944
X24.582 Y49.883
X24.892 Y49.837
X25.203 Y49.806
X25.515 Y49.79
X25.831 Y49.787
X26.148 Y49.799
X26.468 Y49.825
X26.79 Y49.864
X27.146 Y49.923
G2 X28.876 Y47.757 I0.26 J-1.566
G1 X28.744 Y47.434
X28.724 Y47.387
X28.583 Y47.072
X28.56 Y47.024
X28.411 Y46.716
X28.386 Y46.668
X28.228 Y46.369
X28.201 Y46.32
X28.033 Y46.029
X28.004 Y45.98
X27.827 Y45.697
X27.795 Y45.647
X27.609 Y45.372
X27.573 Y45.323
X27.378 Y45.057
X27.34 Y45.007
X27.134 Y44.75
X27.093 Y44.7
X26.878 Y44.452
X26.834 Y44.403
X26.608 Y44.164
X26.561 Y44.116
X26.326 Y43.886
X26.276 Y43.84
X26.03 Y43.62
X25.978 Y43.575
X25.722 Y43.365
X25.668 Y43.323
X25.401 Y43.122
X25.347 Y43.083
X25.069 Y42.892
X25.014 Y42.856
X24.725 Y42.674
X24.671 Y42.641
X24.371 Y42.469
X24.318 Y42.44
X24.008 Y42.278
X23.957 Y42.252
X23.637 Y42.098
X23.587 Y42.076
X23.257 Y41.931
X23.208 Y41.911
X22.868 Y41.776
X22.823 Y41.758
X22.473 Y41.632
X22.429 Y41.616
X22.071 Y41.498
X22.029 Y41.485
X21.875 Y41.439
X21.996 Y41.341
X22.488 Y40.956
X22.974 Y40.589
X23.454 Y40.24
X23.928 Y39.91
X24.396 Y39.599
X24.857 Y39.307
X25.311 Y39.036
X25.756 Y38.786
X26.194 Y38.558
X26.623 Y38.351
X27.043 Y38.166
X27.455 Y38.002
X27.858 Y37.861
X28.252 Y37.74
X28.638 Y37.641
X29.017 Y37.561
X29.39 Y37.501
X29.756 Y37.46
X30.117 Y37.436
X30.474 Y37.431
X30.826 Y37.442
X31.176 Y37.47
X31.522 Y37.514
X31.865 Y37.575
X32.206 Y37.652
X32.545 Y37.745
X32.915 Y37.864
G2 X34.985 Y36.213 I0.489 J-1.51
G1 X34.945 Y35.77
X34.938 Y35.702
X34.88 Y35.267
X34.869 Y35.197
X34.793 Y34.77
X34.778 Y34.699
X34.684 Y34.28
X34.666 Y34.207
X34.552 Y33.796
X34.53 Y33.723
X34.398 Y33.319
X34.371 Y33.245
X34.219 Y32.85
X34.188 Y32.776
X34.017 Y32.389
X33.982 Y32.315
X33.79 Y31.937
X33.751 Y31.864
X33.538 Y31.495
X33.495 Y31.424
X33.262 Y31.064
X33.215 Y30.995
X32.961 Y30.644
X32.911 Y30.579
X32.635 Y30.237
X32.583 Y30.175
X32.286 Y29.842
X32.233 Y29.785
X31.914 Y29.462
X31.86 Y29.41
X31.519 Y29.095
X31.466 Y29.048
X31.104 Y28.743
X31.052 Y28.701
X30.669 Y28.405
X30.619 Y28.367
X30.215 Y28.08
X30.167 Y28.047
X29.744 Y27.768
X29.698 Y27.739
X29.255 Y27.468
X29.211 Y27.443
X28.749 Y27.18
X28.708 Y27.158
X28.228 Y26.903
X28.189 Y26.883
X27.69 Y26.637
X27.654 Y26.619
X27.138 Y26.38
X27.103 Y26.364
X26.57 Y26.132
X26.538 Y26.118
X25.988 Y25.893
X25.957 Y25.881
X25.392 Y25.663
X25.56 Y25.509
X26.07 Y25.052
X26.582 Y24.608
X27.095 Y24.177
X27.608 Y23.759
X28.123 Y23.355
X28.638 Y22.966
X29.154 Y22.591
X29.672 Y22.231
X30.19 Y21.887
X30.711 Y21.558
X31.232 Y21.245
X31.756 Y20.948
X32.282 Y20.667
X32.81 Y20.401
X33.341 Y20.151
X33.876 Y19.916
X34.413 Y19.696
X34.954 Y19.49
X35.498 Y19.298
X36.046 Y19.12
X36.597 Y18.955
X37.152 Y18.803
X37.71 Y18.664
X38.27 Y18.537
X38.834 Y18.422
X39.4 Y18.32
X39.969 Y18.229
X40.557 Y18.148
G2 X41.644 Y15.67 I-0.217 J-1.573
G1 X41.236 Y15.082
X41.188 Y15.018
X40.754 Y14.456
X40.703 Y14.392
X40.243 Y13.856
X40.187 Y13.795
X39.701 Y13.284
X39.641 Y13.225
X39.129 Y12.741
X39.065 Y12.684
X38.526 Y12.228
X38.459 Y12.174
X37.892 Y11.744
X37.821 Y11.694
X37.227 Y11.293
X37.172 Y11.258
X36.865 Y11.068
X36.828 Y11.045
X36.513 Y10.863
X36.475 Y10.842
X36.153 Y10.666
X36.115 Y10.646
X35.786 Y10.478
X35.748 Y10.459
X35.411 Y10.299
X35.374 Y10.281
X35.029 Y10.128
X34.992 Y10.112
X34.64 Y9.966
X34.602 Y9.95
X34.243 Y9.812
X34.206 Y9.799
X33.84 Y9.668
X33.802 Y9.655
X33.428 Y9.532
X33.392 Y9.52
X33.011 Y9.405
X32.975 Y9.394
X32.586 Y9.286
X32.552 Y9.277
X32.155 Y9.176
X32.121 Y9.168
X31.717 Y9.075
X31.684 Y9.068
X31.273 Y8.982
X31.241 Y8.976
X30.822 Y8.898
X30.791 Y8.892
X30.365 Y8.822
X30.335 Y8.817
X29.902 Y8.753
X29.859 Y8.748
X28.971 Y8.642
X28.918 Y8.636
X28.002 Y8.559
X27.953 Y8.555
X27.01 Y8.504
X26.965 Y8.503
X25.996 Y8.478
X25.955
X24.961 Y8.479
X24.923
X23.904 Y8.504
X23.869 Y8.506
X22.826 Y8.555
X22.793 Y8.556
X21.727 Y8.628
X21.697 Y8.631
X20.609 Y8.725
X20.581 Y8.727
X19.47 Y8.843
X19.445 Y8.846
X18.313 Y8.982
X18.289 Y8.985
X17.135 Y9.142
X17.113 Y9.146
X15.939 Y9.323
X15.917 Y9.326
X15.354 Y9.419
Y0
G2 X13.767 Y-1.587 I-1.588 J0
G1 X11.743
G2 X10.155 Y0 I0 J1.587
G1 Y13.738
G2 X12.032 Y15.299 I1.587 J0
G1 X14.213 Y14.896
X15.271 Y14.704
X16.301 Y14.529
X17.313 Y14.37
X18.307 Y14.226
X19.281 Y14.099
X20.234 Y13.987
X21.167 Y13.892
X22.078 Y13.814
X22.968 Y13.753
X23.834 Y13.709
X24.676 Y13.683
X25.494 Y13.674
X26.285 Y13.683
X27.047 Y13.711
X27.781 Y13.757
X28.487 Y13.821
X29.164 Y13.904
X29.811 Y14.004
X30.43 Y14.121
X31.019 Y14.255
X31.578 Y14.405
X32.106 Y14.571
X32.605 Y14.752
X32.695 Y14.789
X32.257 Y14.961
X32.222 Y14.975
X31.62 Y15.228
X31.585 Y15.244
X30.987 Y15.513
X30.951 Y15.53
X30.357 Y15.815
X30.322 Y15.832
X29.732 Y16.134
X29.697 Y16.152
X29.111 Y16.47
X29.078 Y16.489
X28.498 Y16.822
X28.466 Y16.841
X27.891 Y17.189
X27.861 Y17.207
X27.291 Y17.57
X27.263 Y17.588
X26.697 Y17.965
X26.67 Y17.983
X26.11 Y18.374
X26.085 Y18.392
X25.529 Y18.796
X25.504 Y18.813
X24.953 Y19.23
X24.93 Y19.248
X24.382 Y19.677
X24.361 Y19.694
X23.817 Y20.136
X23.797 Y20.152
X23.257 Y20.606
X23.238 Y20.622
X22.701 Y21.087
X22.683 Y21.103
X22.15 Y21.579
X22.133 Y21.594
X21.603 Y22.081
X21.587 Y22.096
X21.059 Y22.594
X21.045 Y22.607
X20.52 Y23.115
X20.506 Y23.128
X19.983 Y23.646
X19.974 Y23.656
X19.465 Y24.168
X17.448 Y26.2
G2 X18.124 Y28.841 I1.127 J1.118
G1 X20.418 Y29.519
X20.991 Y29.688
X21.277 Y29.773
X21.544 Y29.852
X22.058 Y30.011
X22.555 Y30.173
X23.036 Y30.339
X23.503 Y30.509
X23.953 Y30.682
X24.388 Y30.858
X24.805 Y31.037
X25.206 Y31.218
X25.589 Y31.402
X25.954 Y31.587
X26.301 Y31.774
X26.628 Y31.962
X26.936 Y32.15
X27.225 Y32.338
X27.493 Y32.525
X27.541 Y32.562
X27.17 Y32.649
X27.102 Y32.666
X26.569 Y32.817
X26.505 Y32.836
X25.973 Y33.01
X25.913 Y33.031
X25.383 Y33.229
X25.328 Y33.25
X24.799 Y33.47
X24.747 Y33.493
X24.219 Y33.734
X24.172 Y33.757
X23.645 Y34.019
X23.601 Y34.042
X23.074 Y34.324
X23.035 Y34.346
X22.508 Y34.649
X22.472 Y34.67
X21.945 Y34.992
X21.912 Y35.012
X21.386 Y35.351
X21.356 Y35.371
X20.829 Y35.728
X20.802 Y35.747
X20.275 Y36.12
X20.25 Y36.138
X19.722 Y36.527
X19.7 Y36.544
X19.171 Y36.948
X19.151 Y36.964
X18.621 Y37.382
X18.603 Y37.397
X18.072 Y37.83
X18.054 Y37.844
X17.521 Y38.291
X17.505 Y38.305
X16.97 Y38.766
X16.954 Y38.779
X16.417 Y39.255
X16.402 Y39.268
X15.866 Y39.754
X15.861 Y39.758
X14.815 Y40.714
X12.723 Y42.625
G2 X13.595 Y45.372 I1.071 J1.172
G1 X16.751 Y45.77
X17.54 Y45.869
X17.928 Y45.918
X18.258 Y45.962
X18.895 Y46.065
X19.497 Y46.186
X19.677 Y46.228
X19.368 Y46.408
X19.317 Y46.439
X18.899 Y46.704
X18.852 Y46.735
X18.44 Y47.017
X18.396 Y47.048
X17.989 Y47.348
X17.949 Y47.378
X17.547 Y47.694
X17.511 Y47.724
X17.114 Y48.055
X17.08 Y48.084
X16.688 Y48.43
X16.658 Y48.457
X16.269 Y48.818
X16.242 Y48.845
X15.857 Y49.22
X15.832 Y49.245
X15.452 Y49.633
X15.429 Y49.656
X15.053 Y50.057
X15.032 Y50.079
X14.659 Y50.491
X14.64 Y50.512
X14.27 Y50.936
X14.252 Y50.957
X13.883 Y51.393
X13.867 Y51.413
X13.501 Y51.862
X13.485 Y51.881
X13.121 Y52.341
X13.107 Y52.36
X12.743 Y52.832
X12.733 Y52.846
X12.552 Y53.087
X12.547 Y53.093
X12.522 Y53.128
G3 X12.077 Y53.193 I-0.255 J-0.189 F520
G1 X11.823 Y53.004
X11.766 Y52.962 Z-1.242
X11.712 Y52.922 Z-1.219
X11.664 Y52.886 Z-1.181
X11.623 Y52.856 Z-1.13
X11.593 Y52.833 Z-1.07
X11.574 Y52.819 Z-1.003
X11.568 Y52.815 Z-0.933
Z6 F650
X11.946 Y52.305
Z-0.615 F260
Z-1.683
X11.953 Y52.31 Z-1.753 F520
X11.972 Y52.324 Z-1.82
X12.002 Y52.346 Z-1.88
X12.042 Y52.376 Z-1.931
X12.091 Y52.412 Z-1.969
X12.145 Y52.452 Z-1.992
X12.201 Y52.494 Z-2
X12.456 Y52.684
G3 X12.522 Y53.128 I-0.189 J0.255
G1 X12.372 Y53.329 F650
X12.027 Y53.794
X11.337 Y54.724
X9.957 Y56.582
G2 X10.407 Y58.885 I1.275 J0.946
G3 X10.633 Y59.08 I-0.474 J0.78
G2 X12.147 Y59.621 I1.218 J-1.018
G1 X14.933 Y59.092
X15.202 Y59.041
X14.994 Y59.172
X14.947 Y59.203
X14.268 Y59.668
X14.222 Y59.701
X13.552 Y60.195
X13.507 Y60.229
X12.847 Y60.754
X12.804 Y60.789
X12.154 Y61.344
X12.114 Y61.379
X11.475 Y61.962
X11.439 Y61.995
X10.81 Y62.605
X10.778 Y62.638
X10.159 Y63.273
X10.13 Y63.304
X9.52 Y63.965
X9.493 Y63.994
X8.892 Y64.678
X8.869 Y64.706
X8.276 Y65.413
X8.254 Y65.44
X8.145 Y65.575
X5.621
X5.513 Y65.44
X5.491 Y65.413
X4.898 Y64.706
X4.874 Y64.678
X4.273 Y63.994
X4.247 Y63.965
X3.637 Y63.304
X3.608 Y63.273
X2.989 Y62.638
X2.956 Y62.605
X2.327 Y61.995
X2.292 Y61.962
X1.652 Y61.379
X1.613 Y61.344
X0.963 Y60.789
X0.92 Y60.754
X0.259 Y60.229
X0.215 Y60.195
X-0.455 Y59.701
X-0.501 Y59.668
X-1.18 Y59.203
X-1.228 Y59.172
X-1.435 Y59.041
X-0.28 Y59.26
X2.802 Y59.846
G2 X4.372 Y57.34 I0.296 J-1.56
G1 X1.472 Y53.434
X1.291 Y53.19
X1.288 Y53.185
X1.098 Y52.932
X1.088 Y52.918
X0.706 Y52.419
X0.692 Y52.4
X0.308 Y51.915
X0.292 Y51.895
X-0.093 Y51.423
X-0.11 Y51.402
X-0.497 Y50.943
X-0.516 Y50.922
X-0.905 Y50.476
X-0.925 Y50.454
X-1.318 Y50.022
X-1.34 Y49.999
X-1.736 Y49.58
X-1.761 Y49.555
X-2.161 Y49.15
X-2.188 Y49.124
X-2.593 Y48.733
X-2.623 Y48.705
X-3.032 Y48.331
X-3.065 Y48.301
X-3.479 Y47.943
X-3.516 Y47.912
X-3.935 Y47.571
X-3.975 Y47.539
X-4.4 Y47.215
X-4.444 Y47.183
X-4.874 Y46.878
X-4.922 Y46.845
X-5.358 Y46.558
X-5.41 Y46.526
X-5.853 Y46.259
X-5.908 Y46.228
X-5.73 Y46.186
X-5.129 Y46.065
X-4.491 Y45.962
X-4.162 Y45.918
X-3.774 Y45.869
X-2.985 Y45.77
X0.171 Y45.372
G2 X1.044 Y42.625 I-0.198 J-1.575
G1 X-1.048 Y40.714
X-2.094 Y39.758
X-2.099 Y39.754
X-2.636 Y39.268
X-2.65 Y39.255
X-3.188 Y38.779
X-3.203 Y38.766
X-3.738 Y38.305
X-3.755 Y38.291
X-4.288 Y37.844
X-4.305 Y37.83
X-4.836 Y37.397
X-4.855 Y37.382
X-5.385 Y36.964
X-5.404 Y36.948
X-5.933 Y36.544
X-5.956 Y36.527
X-6.484 Y36.138
X-6.508 Y36.12
X-7.035 Y35.747
X-7.063 Y35.728
X-7.589 Y35.371
X-7.619 Y35.351
X-8.146 Y35.012
X-8.179 Y34.992
X-8.705 Y34.67
X-8.742 Y34.649
X-9.268 Y34.346
X-9.308 Y34.324
X-9.835 Y34.042
X-9.878 Y34.019
X-10.405 Y33.757
X-10.453 Y33.734
X-10.981 Y33.493
X-11.032 Y33.47
X-11.561 Y33.25
X-11.616 Y33.229
X-12.147 Y33.031
X-12.206 Y33.01
X-12.738 Y32.836
X-12.802 Y32.817
X-13.335 Y32.666
X-13.403 Y32.649
X-13.774 Y32.562
X-13.726 Y32.525
X-13.458 Y32.338
X-13.17 Y32.15
X-12.862 Y31.962
X-12.534 Y31.774
X-12.188 Y31.587
X-11.822 Y31.402
X-11.439 Y31.218
X-11.039 Y31.037
X-10.621 Y30.858
X-10.187 Y30.682
X-9.736 Y30.509
X-9.27 Y30.339
X-8.788 Y30.173
X-8.292 Y30.011
X-7.778 Y29.852
X-7.51 Y29.773
X-7.225 Y29.688
X-6.652 Y29.519
X-4.357 Y28.841
G2 X-3.681 Y26.2 I-0.45 J-1.522
G1 X-5.698 Y24.168
X-6.207 Y23.656
X-6.217 Y23.646
X-6.74 Y23.128
X-6.753 Y23.115
X-7.278 Y22.607
X-7.293 Y22.594
X-7.821 Y22.096
X-7.836 Y22.081
X-8.367 Y21.594
X-8.383 Y21.579
X-8.917 Y21.103
X-8.935 Y21.087
X-9.471 Y20.622
X-9.49 Y20.606
X-10.03 Y20.152
X-10.05 Y20.136
X-10.594 Y19.694
X-10.616 Y19.677
X-11.164 Y19.248
X-11.186 Y19.23
X-11.738 Y18.813
X-11.762 Y18.796
X-12.318 Y18.392
X-12.343 Y18.374
X-12.904 Y17.983
X-12.931 Y17.965
X-13.496 Y17.588
X-13.524 Y17.57
X-14.095 Y17.207
X-14.124 Y17.189
X-14.699 Y16.841
X-14.731 Y16.822
X-15.312 Y16.489
X-15.345 Y16.47
X-15.93 Y16.152
X-15.966 Y16.134
X-16.556 Y15.832
X-16.591 Y15.815
X-17.185 Y15.529
X-17.221 Y15.513
X-17.818 Y15.244
X-17.854 Y15.229
X-18.455 Y14.975
X-18.491 Y14.961
X-18.928 Y14.789
X-18.839 Y14.752
X-18.34 Y14.571
X-17.811 Y14.405
X-17.252 Y14.255
X-16.663 Y14.121
X-16.045 Y14.004
X-15.397 Y13.904
X-14.72 Y13.821
X-14.014 Y13.757
X-13.28 Y13.711
X-12.518 Y13.683
X-11.727 Y13.674
X-10.91 Y13.683
X-10.067 Y13.709
X-9.201 Y13.753
X-8.312 Y13.814
X-7.4 Y13.892
X-6.468 Y13.987
X-5.514 Y14.099
X-4.54 Y14.226
X-3.547 Y14.37
X-2.535 Y14.529
X-1.504 Y14.704
X-0.447 Y14.896
X1.735 Y15.299
G2 X3.611 Y13.738 I0.289 J-1.561
G1 Y0
G2 X2.024 Y-1.587 I-1.588 J0
G1 X0
G2 X-1.587 Y0 I0 J1.587
G1 Y9.419
X-2.151 Y9.326
X-2.172 Y9.323
X-3.346 Y9.146
X-3.369 Y9.142
X-4.522 Y8.985
X-4.546 Y8.982
X-5.678 Y8.846
X-5.704 Y8.843
X-6.814 Y8.727
X-6.842 Y8.725
X-7.931 Y8.631
X-7.961 Y8.628
X-9.027 Y8.556
X-9.059 Y8.555
X-10.102 Y8.506
X-10.137 Y8.504
X-11.156 Y8.479
X-11.194
X-12.188 Y8.478
X-12.23
X-13.199 Y8.503
X-13.244 Y8.504
X-14.187 Y8.555
X-14.236 Y8.559
X-15.151 Y8.636
X-15.205 Y8.642
X-16.093 Y8.748
X-16.135 Y8.753
X-16.568 Y8.817
X-16.598 Y8.822
X-17.024 Y8.892
X-17.055 Y8.898
X-17.474 Y8.976
X-17.506 Y8.982
X-17.917 Y9.068
X-17.95 Y9.075
X-18.354 Y9.168
X-18.389 Y9.176
X-18.785 Y9.277
X-18.819 Y9.286
X-19.208 Y9.394
X-19.244 Y9.405
X-19.626 Y9.52
X-19.662 Y9.532
X-20.036 Y9.655
X-20.073 Y9.668
X-20.44 Y9.799
X-20.476 Y9.812
X-20.836 Y9.95
X-20.873 Y9.966
X-21.225 Y10.112
X-21.263 Y10.128
X-21.607 Y10.281
X-21.645 Y10.299
X-21.982 Y10.459
X-22.019 Y10.478
X-22.349 Y10.646
X-22.386 Y10.666
X-22.709 Y10.842
X-22.746 Y10.863
X-23.061 Y11.045
X-23.098 Y11.068
X-23.406 Y11.258
X-23.46 Y11.293
X-24.055 Y11.694
X-24.125 Y11.744
X-24.692 Y12.174
X-24.759 Y12.227
X-25.299 Y12.684
X-25.362 Y12.741
X-25.875 Y13.225
X-25.935 Y13.284
X-26.421 Y13.795
X-26.476 Y13.856
X-26.936 Y14.392
X-26.988 Y14.456
X-27.422 Y15.018
X-27.469 Y15.082
X-27.877 Y15.67
G2 X-26.79 Y18.148 I1.304 J0.906
G1 X-26.203 Y18.229
X-25.634 Y18.32
X-25.067 Y18.422
X-24.504 Y18.537
X-23.943 Y18.664
X-23.385 Y18.803
X-22.831 Y18.955
X-22.28 Y19.12
X-21.732 Y19.298
X-21.187 Y19.49
X-20.647 Y19.696
X-20.109 Y19.916
X-19.575 Y20.151
X-19.044 Y20.401
X-18.515 Y20.667
X-17.989 Y20.948
X-17.466 Y21.245
X-16.944 Y21.558
X-16.424 Y21.887
X-15.905 Y22.231
X-15.388 Y22.591
X-14.871 Y22.966
X-14.356 Y23.355
X-13.842 Y23.759
X-13.328 Y24.177
X-12.816 Y24.608
X-12.304 Y25.052
X-11.793 Y25.509
X-11.626 Y25.663
X-12.191 Y25.881
X-12.221 Y25.893
X-12.771 Y26.118
X-12.804 Y26.132
X-13.337 Y26.364
X-13.371 Y26.38
X-13.887 Y26.619
X-13.924 Y26.637
X-14.422 Y26.883
X-14.461 Y26.903
X-14.942 Y27.158
X-14.982 Y27.18
X-15.445 Y27.442
X-15.488 Y27.468
X-15.931 Y27.739
X-15.977 Y27.768
X-16.401 Y28.047
X-16.449 Y28.08
X-16.852 Y28.367
X-16.903 Y28.405
X-17.286 Y28.701
X-17.338 Y28.743
X-17.7 Y29.048
X-17.753 Y29.095
X-18.093 Y29.41
X-18.147 Y29.462
X-18.466 Y29.785
X-18.519 Y29.842
X-18.817 Y30.175
X-18.869 Y30.236
X-19.144 Y30.578
X-19.194 Y30.644
X-19.448 Y30.995
X-19.496 Y31.064
X-19.729 Y31.424
X-19.772 Y31.495
X-19.984 Y31.864
X-20.023 Y31.937
X-20.215 Y32.315
X-20.25 Y32.389
X-20.422 Y32.776
X-20.453 Y32.85
X-20.605 Y33.245
X-20.631 Y33.319
X-20.763 Y33.722
X-20.786 Y33.796
X-20.899 Y34.207
X-20.917 Y34.28
X-21.012 Y34.699
X-21.026 Y34.77
X-21.102 Y35.198
X-21.113 Y35.267
X-21.171 Y35.702
X-21.178 Y35.77
X-21.218 Y36.213
G2 X-19.148 Y37.864 I1.581 J0.141
G1 X-18.778 Y37.745
X-18.439 Y37.652
X-18.099 Y37.575
X-17.755 Y37.514
X-17.409 Y37.47
X-17.06 Y37.442
X-16.707 Y37.431
X-16.351 Y37.436
X-15.99 Y37.46
X-15.623 Y37.501
X-15.251 Y37.561
X-14.872 Y37.641
X-14.486 Y37.74
X-14.091 Y37.861
X-13.688 Y38.002
X-13.277 Y38.166
X-12.856 Y38.351
X-12.427 Y38.558
X-11.99 Y38.786
X-11.544 Y39.036
X-11.091 Y39.307
X-10.63 Y39.599
X-10.162 Y39.91
X-9.688 Y40.24
X-9.207 Y40.589
X-8.721 Y40.956
X-8.229 Y41.341
X-8.108 Y41.439
X-8.262 Y41.485
X-8.304 Y41.498
X-8.663 Y41.616
X-8.707 Y41.632
X-9.056 Y41.758
X-9.102 Y41.776
X-9.442 Y41.911
X-9.49 Y41.931
X-9.82 Y42.075
X-9.87 Y42.098
X-10.19 Y42.252
X-10.242 Y42.278
X-10.552 Y42.44
X-10.605 Y42.469
X-10.904 Y42.641
X-10.959 Y42.674
X-11.247 Y42.856
X-11.302 Y42.891
X-11.58 Y43.083
X-11.634 Y43.122
X-11.902 Y43.323
X-11.955 Y43.365
X-12.212 Y43.575
X-12.264 Y43.62
X-12.51 Y43.84
X-12.559 Y43.886
X-12.795 Y44.116
X-12.842 Y44.164
X-13.067 Y44.403
X-13.111 Y44.452
X-13.327 Y44.7
X-13.368 Y44.75
X-13.573 Y45.007
X-13.611 Y45.057
X-13.807 Y45.323
X-13.842 Y45.372
X-14.028 Y45.647
X-14.06 Y45.697
X-14.237 Y45.98
X-14.267 Y46.029
X-14.435 Y46.321
X-14.461 Y46.369
X-14.62 Y46.668
X-14.644 Y46.717
X-14.794 Y47.024
X-14.816 Y47.072
X-14.957 Y47.387
X-14.977 Y47.434
X-15.109 Y47.757
G2 X-13.379 Y49.923 I1.47 J0.6
G1 X-13.023 Y49.864
X-12.701 Y49.825
X-12.381 Y49.799
X-12.064 Y49.787
X-11.749 Y49.79
X-11.436 Y49.806
X-11.125 Y49.837
X-10.816 Y49.883
X-10.507 Y49.944
X-10.199 Y50.02
X-9.891 Y50.112
X-9.583 Y50.221
X-9.272 Y50.347
X-8.96 Y50.491
X-8.645 Y50.653
X-8.326 Y50.835
X-8.005 Y51.037
X-7.68 Y51.258
X-7.351 Y51.5
X-7.02 Y51.761
X-6.686 Y52.041
X-6.348 Y52.341
X-6.009 Y52.66
X-5.668 Y52.996
X-5.324 Y53.35
X-4.98 Y53.721
X-4.887 Y53.825
X-5.017 Y53.86
X-5.104 Y53.886
X-5.342 Y53.965
X-5.428 Y53.996
X-5.661 Y54.088
X-5.748 Y54.126
X-5.975 Y54.232
X-6.059 Y54.274
X-6.28 Y54.394
X-6.361 Y54.441
X-6.576 Y54.574
X-6.654 Y54.626
X-6.862 Y54.773
X-6.934 Y54.826
X-7.136 Y54.987
X-7.202 Y55.043
X-7.399 Y55.217
X-7.459 Y55.273
X-7.65 Y55.46
X-7.703 Y55.515
X-7.888 Y55.716
X-7.936 Y55.77
X-8.116 Y55.983
X-8.158 Y56.035
X-8.332 Y56.261
X-8.37 Y56.312
X-8.538 Y56.549
X-8.571 Y56.597
X-8.735 Y56.846
X-8.764 Y56.893
X-8.923 Y57.153
X-8.949 Y57.197
X-9.102 Y57.469
X-9.125 Y57.511
X-9.273 Y57.794
X-9.294 Y57.834
X-9.438 Y58.127
X-9.456 Y58.165
X-9.595 Y58.469
X-9.611 Y58.506
X-9.745 Y58.821
X-9.76 Y58.856
X-9.889 Y59.181
G2 X-8.885 Y61.285 I1.474 J0.588
G1 X-8.426 Y61.427
X-7.989 Y61.576
X-7.555 Y61.735
X-7.123 Y61.907
X-6.693 Y62.09
X-6.267 Y62.286
X-5.843 Y62.493
X-5.422 Y62.714
X-5.004 Y62.947
X-4.588 Y63.193
X-4.175 Y63.453
X-3.765 Y63.727
X-3.356 Y64.015
X-2.951 Y64.317
X-2.547 Y64.635
X-2.145 Y64.967
X-1.744 Y65.315
X-1.345 Y65.678
X-0.948 Y66.057
X-0.552 Y66.45
X-0.157 Y66.858
X0.236 Y67.281
X0.627 Y67.717
X1.017 Y68.167
X1.406 Y68.631
X1.793 Y69.107
X1.986 Y69.353
X0.232 Y69.158
G2 X-1.342 Y71.487 I-0.175 J1.578
G1 X0.724 Y75.333
X-3.122 Y78.632
G2 X-2.088 Y81.424 I1.034 J1.205
G1 X3.011
X5.475 Y86.158
G2 X8.291 Y86.158 I1.408 J-0.733
G1 X10.755 Y81.424
X15.855
G2 X16.888 Y78.632 I0 J-1.588
G1 X13.043 Y75.333
X15.108 Y71.487
G2 X13.534 Y69.158 I-1.399 J-0.751
G1 X11.78 Y69.353
X11.974 Y69.107
X12.361 Y68.631
X12.749 Y68.167
X13.139 Y67.717
X13.531 Y67.281
X13.924 Y66.858
X14.319 Y66.45
X14.715 Y66.057
X15.112 Y65.678
X15.511 Y65.315
X15.911 Y64.967
X16.313 Y64.635
X16.717 Y64.317
X17.123 Y64.015
X17.531 Y63.727
X17.942 Y63.453
X18.355 Y63.193
X18.77 Y62.947
X19.189 Y62.714
X19.61 Y62.493
X20.033 Y62.286
X20.46 Y62.09
X20.889 Y61.907
X21.321 Y61.735
X21.756 Y61.575
X22.193 Y61.427
X22.652 Y61.285
G2 X23.656 Y59.18 I-0.471 J-1.516
G1 X23.526 Y58.856
X23.512 Y58.821
X23.378 Y58.506
X23.361 Y58.469
X23.222 Y58.165
X23.204 Y58.127
X23.06 Y57.834
X23.04 Y57.794
X22.892 Y57.511
X22.869 Y57.469
X22.715 Y57.197
X22.689 Y57.153
X22.531 Y56.893
X22.501 Y56.846
X22.338 Y56.597
X22.305 Y56.549
X22.136 Y56.312
X22.099 Y56.261
X21.925 Y56.036
X21.882 Y55.983
X21.703 Y55.77
X21.655 Y55.715
X21.47 Y55.515
X21.416 Y55.46
X21.225 Y55.273
X21.166 Y55.217
X20.969 Y55.043
X20.903 Y54.987
X20.7 Y54.826
X20.629 Y54.773
X20.42 Y54.626
X20.342 Y54.574
X20.128 Y54.441
X20.046 Y54.394
X19.825 Y54.274
X19.742 Y54.232
X19.515 Y54.126
X19.427 Y54.088
X19.195 Y53.996
X19.109 Y53.965
X18.87 Y53.886
X18.784 Y53.86
X18.653 Y53.825
X18.746 Y53.721
X19.091 Y53.35
X19.434 Y52.996
X19.776 Y52.659
X20.115 Y52.341
X20.452 Y52.041
X20.786 Y51.761
X21.118 Y51.5
X21.446 Y51.258
X21.771 Y51.037
X22.093 Y50.835
X22.411 Y50.653
X22.726 Y50.491
X23.039 Y50.347
X23.349 Y50.221
X23.658 Y50.112
X23.966 Y50.02
X24.274 Y49.944
X24.582 Y49.883
X24.892 Y49.837
X25.203 Y49.806
X25.515 Y49.79
X25.831 Y49.787
X26.148 Y49.799
X26.468 Y49.825
X26.79 Y49.864
X27.146 Y49.923
G2 X28.876 Y47.757 I0.26 J-1.566
G1 X28.744 Y47.434
X28.724 Y47.387
X28.583 Y47.072
X28.56 Y47.024
X28.411 Y46.716
X28.386 Y46.668
X28.228 Y46.369
X28.201 Y46.32
X28.033 Y46.029
X28.004 Y45.98
X27.827 Y45.697
X27.795 Y45.647
X27.609 Y45.372
X27.573 Y45.323
X27.378 Y45.057
X27.34 Y45.007
X27.134 Y44.75
X27.093 Y44.7
X26.878 Y44.452
X26.834 Y44.403
X26.608 Y44.164
X26.561 Y44.116
X26.326 Y43.886
X26.276 Y43.84
X26.03 Y43.62
X25.978 Y43.575
X25.722 Y43.365
X25.668 Y43.323
X25.401 Y43.122
X25.347 Y43.083
X25.069 Y42.892
X25.014 Y42.856
X24.725 Y42.674
X24.671 Y42.641
X24.371 Y42.469
X24.318 Y42.44
X24.008 Y42.278
X23.957 Y42.252
X23.637 Y42.098
X23.587 Y42.076
X23.257 Y41.931
X23.208 Y41.911
X22.868 Y41.776
X22.823 Y41.758
X22.473 Y41.632
X22.429 Y41.616
X22.071 Y41.498
X22.029 Y41.485
X21.875 Y41.439
X21.996 Y41.341
X22.488 Y40.956
X22.974 Y40.589
X23.454 Y40.24
X23.928 Y39.91
X24.396 Y39.599
X24.857 Y39.307
X25.311 Y39.036
X25.756 Y38.786
X26.194 Y38.558
X26.623 Y38.351
X27.043 Y38.166
X27.455 Y38.002
X27.858 Y37.861
X28.252 Y37.74
X28.638 Y37.641
X29.017 Y37.561
X29.39 Y37.501
X29.756 Y37.46
X30.117 Y37.436
X30.474 Y37.431
X30.826 Y37.442
X31.176 Y37.47
X31.522 Y37.514
X31.865 Y37.575
X32.206 Y37.652
X32.545 Y37.745
X32.915 Y37.864
G2 X34.985 Y36.213 I0.489 J-1.51
G1 X34.945 Y35.77
X34.938 Y35.702
X34.88 Y35.267
X34.869 Y35.197
X34.793 Y34.77
X34.778 Y34.699
X34.684 Y34.28
X34.666 Y34.207
X34.552 Y33.796
X34.53 Y33.723
X34.398 Y33.319
X34.371 Y33.245
X34.219 Y32.85
X34.188 Y32.776
X34.017 Y32.389
X33.982 Y32.315
X33.79 Y31.937
X33.751 Y31.864
X33.538 Y31.495
X33.495 Y31.424
X33.262 Y31.064
X33.215 Y30.995
X32.961 Y30.644
X32.911 Y30.579
X32.635 Y30.237
X32.583 Y30.175
X32.286 Y29.842
X32.233 Y29.785
X31.914 Y29.462
X31.86 Y29.41
X31.519 Y29.095
X31.466 Y29.048
X31.104 Y28.743
X31.052 Y28.701
X30.669 Y28.405
X30.619 Y28.367
X30.215 Y28.08
X30.167 Y28.047
X29.744 Y27.768
X29.698 Y27.739
X29.255 Y27.468
X29.211 Y27.443
X28.749 Y27.18
X28.708 Y27.158
X28.228 Y26.903
X28.189 Y26.883
X27.69 Y26.637
X27.654 Y26.619
X27.138 Y26.38
X27.103 Y26.364
X26.57 Y26.132
X26.538 Y26.118
X25.988 Y25.893
X25.957 Y25.881
X25.392 Y25.663
X25.56 Y25.509
X26.07 Y25.052
X26.582 Y24.608
X27.095 Y24.177
X27.608 Y23.759
X28.123 Y23.355
X28.638 Y22.966
X29.154 Y22.591
X29.672 Y22.231
X30.19 Y21.887
X30.711 Y21.558
X31.232 Y21.245
X31.756 Y20.948
X32.282 Y20.667
X32.81 Y20.401
X33.341 Y20.151
X33.876 Y19.916
X34.413 Y19.696
X34.954 Y19.49
X35.498 Y19.298
X36.046 Y19.12
X36.597 Y18.955
X37.152 Y18.803
X37.71 Y18.664
X38.27 Y18.537
X38.834 Y18.422
X39.4 Y18.32
X39.969 Y18.229
X40.557 Y18.148
G2 X41.644 Y15.67 I-0.217 J-1.573
G1 X41.236 Y15.082
X41.188 Y15.018
X40.754 Y14.456
X40.703 Y14.392
X40.243 Y13.856
X40.187 Y13.795
X39.701 Y13.284
X39.641 Y13.225
X39.129 Y12.741
X39.065 Y12.684
X38.526 Y12.228
X38.459 Y12.174
X37.892 Y11.744
X37.821 Y11.694
X37.227 Y11.293
X37.172 Y11.258
X36.865 Y11.068
X36.828 Y11.045
X36.513 Y10.863
X36.475 Y10.842
X36.153 Y10.666
X36.115 Y10.646
X35.786 Y10.478
X35.748 Y10.459
X35.411 Y10.299
X35.374 Y10.281
X35.029 Y10.128
X34.992 Y10.112
X34.64 Y9.966
X34.602 Y9.95
X34.243 Y9.812
X34.206 Y9.799
X33.84 Y9.668
X33.802 Y9.655
X33.428 Y9.532
X33.392 Y9.52
X33.011 Y9.405
X32.975 Y9.394
X32.586 Y9.286
X32.552 Y9.277
X32.155 Y9.176
X32.121 Y9.168
X31.717 Y9.075
X31.684 Y9.068
X31.273 Y8.982
X31.241 Y8.976
X30.822 Y8.898
X30.791 Y8.892
X30.365 Y8.822
X30.335 Y8.817
X29.902 Y8.753
X29.859 Y8.748
X28.971 Y8.642
X28.918 Y8.636
X28.002 Y8.559
X27.953 Y8.555
X27.01 Y8.504
X26.965 Y8.503
X25.996 Y8.478
X25.955
X24.961 Y8.479
X24.923
X23.904 Y8.504
X23.869 Y8.506
X22.826 Y8.555
X22.793 Y8.556
X21.727 Y8.628
X21.697 Y8.631
X20.609 Y8.725
X20.581 Y8.727
X19.47 Y8.843
X19.445 Y8.846
X18.313 Y8.982
X18.289 Y8.985
X17.135 Y9.142
X17.113 Y9.146
X15.939 Y9.323
X15.917 Y9.326
X15.354 Y9.419
Y0
G2 X13.767 Y-1.587 I-1.588 J0
G1 X11.743
G2 X10.155 Y0 I0 J1.587
G1 Y13.738
G2 X12.032 Y15.299 I1.587 J0
G1 X14.213 Y14.896
X15.271 Y14.704
X16.301 Y14.529
X17.313 Y14.37
X18.307 Y14.226
X19.281 Y14.099
X20.234 Y13.987
X21.167 Y13.892
X22.078 Y13.814
X22.968 Y13.753
X23.834 Y13.709
X24.676 Y13.683
X25.494 Y13.674
X26.285 Y13.683
X27.047 Y13.711
X27.781 Y13.757
X28.487 Y13.821
X29.164 Y13.904
X29.811 Y14.004
X30.43 Y14.121
X31.019 Y14.255
X31.578 Y14.405
X32.106 Y14.571
X32.605 Y14.752
X32.695 Y14.789
X32.257 Y14.961
X32.222 Y14.975
X31.62 Y15.228
X31.585 Y15.244
X30.987 Y15.513
X30.951 Y15.53
X30.357 Y15.815
X30.322 Y15.832
X29.732 Y16.134
X29.697 Y16.152
X29.111 Y16.47
X29.078 Y16.489
X28.498 Y16.822
X28.466 Y16.841
X27.891 Y17.189
X27.861 Y17.207
X27.291 Y17.57
X27.263 Y17.588
X26.697 Y17.965
X26.67 Y17.983
X26.11 Y18.374
X26.085 Y18.392
X25.529 Y18.796
X25.504 Y18.813
X24.953 Y19.23
X24.93 Y19.248
X24.382 Y19.677
X24.361 Y19.694
X23.817 Y20.136
X23.797 Y20.152
X23.257 Y20.606
X23.238 Y20.622
X22.701 Y21.087
X22.683 Y21.103
X22.15 Y21.579
X22.133 Y21.594
X21.603 Y22.081
X21.587 Y22.096
X21.059 Y22.594
X21.045 Y22.607
X20.52 Y23.115
X20.506 Y23.128
X19.983 Y23.646
X19.974 Y23.656
X19.465 Y24.168
X17.448 Y26.2
G2 X18.124 Y28.841 I1.127 J1.118
G1 X20.418 Y29.519
X20.991 Y29.688
X21.277 Y29.773
X21.544 Y29.852
X22.058 Y30.011
X22.555 Y30.173
X23.036 Y30.339
X23.503 Y30.509
X23.953 Y30.682
X24.388 Y30.858
X24.805 Y31.037
X25.206 Y31.218
X25.589 Y31.402
X25.954 Y31.587
X26.301 Y31.774
X26.628 Y31.962
X26.936 Y32.15
X27.225 Y32.338
X27.493 Y32.525
X27.541 Y32.562
X27.17 Y32.649
X27.102 Y32.666
X26.569 Y32.817
X26.505 Y32.836
X25.973 Y33.01
X25.913 Y33.031
X25.383 Y33.229
X25.328 Y33.25
X24.799 Y33.47
X24.747 Y33.493
X24.219 Y33.734
X24.172 Y33.757
X23.645 Y34.019
X23.601 Y34.042
X23.074 Y34.324
X23.035 Y34.346
X22.508 Y34.649
X22.472 Y34.67
X21.945 Y34.992
X21.912 Y35.012
X21.386 Y35.351
X21.356 Y35.371
X20.829 Y35.728
X20.802 Y35.747
X20.275 Y36.12
X20.25 Y36.138
X19.722 Y36.527
X19.7 Y36.544
X19.171 Y36.948
X19.151 Y36.964
X18.621 Y37.382
X18.603 Y37.397
X18.072 Y37.83
X18.054 Y37.844
X17.521 Y38.291
X17.505 Y38.305
X16.97 Y38.766
X16.954 Y38.779
X16.417 Y39.255
X16.402 Y39.268
X15.866 Y39.754
X15.861 Y39.758
X14.815 Y40.714
X12.723 Y42.625
G2 X13.595 Y45.372 I1.071 J1.172
G1 X16.751 Y45.77
X17.54 Y45.869
X17.928 Y45.918
X18.258 Y45.962
X18.895 Y46.065
X19.497 Y46.186
X19.677 Y46.228
X19.368 Y46.408
X19.317 Y46.439
X18.899 Y46.704
X18.852 Y46.735
X18.44 Y47.017
X18.396 Y47.048
X17.989 Y47.348
X17.949 Y47.378
X17.547 Y47.694
X17.511 Y47.724
X17.114 Y48.055
X17.08 Y48.084
X16.688 Y48.43
X16.658 Y48.457
X16.269 Y48.818
X16.242 Y48.845
X15.857 Y49.22
X15.832 Y49.245
X15.452 Y49.633
X15.429 Y49.656
X15.053 Y50.057
X15.032 Y50.079
X14.659 Y50.491
X14.64 Y50.512
X14.27 Y50.936
X14.252 Y50.957
X13.883 Y51.393
X13.867 Y51.413
X13.501 Y51.862
X13.485 Y51.881
X13.121 Y52.341
X13.107 Y52.36
X12.743 Y52.832
X12.733 Y52.846
X12.552 Y53.087
X12.547 Y53.093
X12.522 Y53.128
G3 X12.077 Y53.193 I-0.255 J-0.189 F520
G1 X11.823 Y53.004
X11.766 Y52.962 Z-1.992
X11.712 Y52.922 Z-1.969
X11.664 Y52.886 Z-1.931
X11.623 Y52.856 Z-1.88
X11.593 Y52.833 Z-1.82
X11.574 Y52.819 Z-1.753
X11.568 Y52.815 Z-1.683
Z6 F650
X11.946 Y52.305
Z-1.365 F260
Z-2.433
X11.953 Y52.31 Z-2.503 F520
X11.972 Y52.324 Z-2.57
X12.002 Y52.346 Z-2.63
X12.042 Y52.376 Z-2.681
X12.091 Y52.412 Z-2.719
X12.145 Y52.452 Z-2.742
X12.201 Y52.494 Z-2.75
X12.456 Y52.684
G3 X12.522 Y53.128 I-0.189 J0.255
G1 X12.372 Y53.329 F650
X12.027 Y53.794
X11.337 Y54.724
X9.957 Y56.582
G2 X10.407 Y58.885 I1.275 J0.946
G3 X10.633 Y59.08 I-0.474 J0.78
G2 X12.147 Y59.621 I1.218 J-1.018
G1 X14.933 Y59.092
X15.202 Y59.041
X14.994 Y59.172
X14.947 Y59.203
X14.268 Y59.668
X14.222 Y59.701
X13.552 Y60.195
X13.507 Y60.229
X12.847 Y60.754
X12.804 Y60.789
X12.154 Y61.344
X12.114 Y61.379
X11.475 Y61.962
X11.439 Y61.995
X10.81 Y62.605
X10.778 Y62.638
X10.159 Y63.273
X10.13 Y63.304
X9.52 Y63.965
X9.493 Y63.994
X8.892 Y64.678
X8.869 Y64.706
X8.276 Y65.413
X8.254 Y65.44
X8.145 Y65.575
X5.621
X5.513 Y65.44
X5.491 Y65.413
X4.898 Y64.706
X4.874 Y64.678
X4.273 Y63.994
X4.247 Y63.965
X3.637 Y63.304
X3.608 Y63.273
X2.989 Y62.638
X2.956 Y62.605
X2.327 Y61.995
X2.292 Y61.962
X1.652 Y61.379
X1.613 Y61.344
X0.963 Y60.789
X0.92 Y60.754
X0.259 Y60.229
X0.215 Y60.195
X-0.455 Y59.701
X-0.501 Y59.668
X-1.18 Y59.203
X-1.228 Y59.172
X-1.435 Y59.041
X-0.28 Y59.26
X2.802 Y59.846
G2 X4.372 Y57.34 I0.296 J-1.56
G1 X1.472 Y53.434
X1.291 Y53.19
X1.288 Y53.185
X1.098 Y52.932
X1.088 Y52.918
X0.706 Y52.419
X0.692 Y52.4
X0.308 Y51.915
X0.292 Y51.895
X-0.093 Y51.423
X-0.11 Y51.402
X-0.497 Y50.943
X-0.516 Y50.922
X-0.905 Y50.476
X-0.925 Y50.454
X-1.318 Y50.022
X-1.34 Y49.999
X-1.736 Y49.58
X-1.761 Y49.555
X-2.161 Y49.15
X-2.188 Y49.124
X-2.593 Y48.733
X-2.623 Y48.705
X-3.032 Y48.331
X-3.065 Y48.301
X-3.479 Y47.943
X-3.516 Y47.912
X-3.935 Y47.571
X-3.975 Y47.539
X-4.4 Y47.215
X-4.444 Y47.183
X-4.874 Y46.878
X-4.922 Y46.845
X-5.358 Y46.558
X-5.41 Y46.526
X-5.853 Y46.259
X-5.908 Y46.228
X-5.73 Y46.186
X-5.129 Y46.065
X-4.491 Y45.962
X-4.162 Y45.918
X-3.774 Y45.869
X-2.985 Y45.77
X0.171 Y45.372
G2 X1.044 Y42.625 I-0.198 J-1.575
G1 X-1.048 Y40.714
X-2.094 Y39.758
X-2.099 Y39.754
X-2.636 Y39.268
X-2.65 Y39.255
X-3.188 Y38.779
X-3.203 Y38.766
X-3.738 Y38.305
X-3.755 Y38.291
X-4.288 Y37.844
X-4.305 Y37.83
X-4.836 Y37.397
X-4.855 Y37.382
X-5.385 Y36.964
X-5.404 Y36.948
X-5.933 Y36.544
X-5.956 Y36.527
X-6.484 Y36.138
X-6.508 Y36.12
X-7.035 Y35.747
X-7.063 Y35.728
X-7.589 Y35.371
X-7.619 Y35.351
X-8.146 Y35.012
X-8.179 Y34.992
X-8.705 Y34.67
X-8.742 Y34.649
X-9.268 Y34.346
X-9.308 Y34.324
X-9.835 Y34.042
X-9.878 Y34.019
X-10.405 Y33.757
X-10.453 Y33.734
X-10.981 Y33.493
X-11.032 Y33.47
X-11.561 Y33.25
X-11.616 Y33.229
X-12.147 Y33.031
X-12.206 Y33.01
X-12.738 Y32.836
X-12.802 Y32.817
X-13.335 Y32.666
X-13.403 Y32.649
X-13.774 Y32.562
X-13.726 Y32.525
X-13.458 Y32.338
X-13.17 Y32.15
X-12.862 Y31.962
X-12.534 Y31.774
X-12.188 Y31.587
X-11.822 Y31.402
X-11.439 Y31.218
X-11.039 Y31.037
X-10.621 Y30.858
X-10.187 Y30.682
X-9.736 Y30.509
X-9.27 Y30.339
X-8.788 Y30.173
X-8.292 Y30.011
X-7.778 Y29.852
X-7.51 Y29.773
X-7.225 Y29.688
X-6.652 Y29.519
X-4.357 Y28.841
G2 X-3.681 Y26.2 I-0.45 J-1.522
G1 X-5.698 Y24.168
X-6.207 Y23.656
X-6.217 Y23.646
X-6.74 Y23.128
X-6.753 Y23.115
X-7.278 Y22.607
X-7.293 Y22.594
X-7.821 Y22.096
X-7.836 Y22.081
X-8.367 Y21.594
X-8.383 Y21.579
X-8.917 Y21.103
X-8.935 Y21.087
X-9.471 Y20.622
X-9.49 Y20.606
X-10.03 Y20.152
X-10.05 Y20.136
X-10.594 Y19.694
X-10.616 Y19.677
X-11.164 Y19.248
X-11.186 Y19.23
X-11.738 Y18.813
X-11.762 Y18.796
X-12.318 Y18.392
X-12.343 Y18.374
X-12.904 Y17.983
X-12.931 Y17.965
X-13.496 Y17.588
X-13.524 Y17.57
X-14.095 Y17.207
X-14.124 Y17.189
X-14.699 Y16.841
X-14.731 Y16.822
X-15.312 Y16.489
X-15.345 Y16.47
X-15.93 Y16.152
X-15.966 Y16.134
X-16.556 Y15.832
X-16.591 Y15.815
X-17.185 Y15.529
X-17.221 Y15.513
X-17.818 Y15.244
X-17.854 Y15.229
X-18.455 Y14.975
X-18.491 Y14.961
X-18.928 Y14.789
X-18.839 Y14.752
X-18.34 Y14.571
X-17.811 Y14.405
X-17.252 Y14.255
X-16.663 Y14.121
X-16.045 Y14.004
X-15.397 Y13.904
X-14.72 Y13.821
X-14.014 Y13.757
X-13.28 Y13.711
X-12.518 Y13.683
X-11.727 Y13.674
X-10.91 Y13.683
X-10.067 Y13.709
X-9.201 Y13.753
X-8.312 Y13.814
X-7.4 Y13.892
X-6.468 Y13.987
X-5.514 Y14.099
X-4.54 Y14.226
X-3.547 Y14.37
X-2.535 Y14.529
X-1.504 Y14.704
X-0.447 Y14.896
X1.735 Y15.299
G2 X3.611 Y13.738 I0.289 J-1.561
G1 Y0
G2 X2.024 Y-1.587 I-1.588 J0
G1 X0
G2 X-1.587 Y0 I0 J1.587
G1 Y9.419
X-2.151 Y9.326
X-2.172 Y9.323
X-3.346 Y9.146
X-3.369 Y9.142
X-4.522 Y8.985
X-4.546 Y8.982
X-5.678 Y8.846
X-5.704 Y8.843
X-6.814 Y8.727
X-6.842 Y8.725
X-7.931 Y8.631
X-7.961 Y8.628
X-9.027 Y8.556
X-9.059 Y8.555
X-10.102 Y8.506
X-10.137 Y8.504
X-11.156 Y8.479
X-11.194
X-12.188 Y8.478
X-12.23
X-13.199 Y8.503
X-13.244 Y8.504
X-14.187 Y8.555
X-14.236 Y8.559
X-15.151 Y8.636
X-15.205 Y8.642
X-16.093 Y8.748
X-16.135 Y8.753
X-16.568 Y8.817
X-16.598 Y8.822
X-17.024 Y8.892
X-17.055 Y8.898
X-17.474 Y8.976
X-17.506 Y8.982
X-17.917 Y9.068
X-17.95 Y9.075
X-18.354 Y9.168
X-18.389 Y9.176
X-18.785 Y9.277
X-18.819 Y9.286
X-19.208 Y9.394
X-19.244 Y9.405
X-19.626 Y9.52
X-19.662 Y9.532
X-20.036 Y9.655
X-20.073 Y9.668
X-20.44 Y9.799
X-20.476 Y9.812
X-20.836 Y9.95
X-20.873 Y9.966
X-21.225 Y10.112
X-21.263 Y10.128
X-21.607 Y10.281
X-21.645 Y10.299
X-21.982 Y10.459
X-22.019 Y10.478
X-22.349 Y10.646
X-22.386 Y10.666
X-22.709 Y10.842
X-22.746 Y10.863
X-23.061 Y11.045
X-23.098 Y11.068
X-23.406 Y11.258
X-23.46 Y11.293
X-24.055 Y11.694
X-24.125 Y11.744
X-24.692 Y12.174
X-24.759 Y12.227
X-25.299 Y12.684
X-25.362 Y12.741
X-25.875 Y13.225
X-25.935 Y13.284
X-26.421 Y13.795
X-26.476 Y13.856
X-26.936 Y14.392
X-26.988 Y14.456
X-27.422 Y15.018
X-27.469 Y15.082
X-27.877 Y15.67
G2 X-26.79 Y18.148 I1.304 J0.906
G1 X-26.203 Y18.229
X-25.634 Y18.32
X-25.067 Y18.422
X-24.504 Y18.537
X-23.943 Y18.664
X-23.385 Y18.803
X-22.831 Y18.955
X-22.28 Y19.12
X-21.732 Y19.298
X-21.187 Y19.49
X-20.647 Y19.696
X-20.109 Y19.916
X-19.575 Y20.151
X-19.044 Y20.401
X-18.515 Y20.667
X-17.989 Y20.948
X-17.466 Y21.245
X-16.944 Y21.558
X-16.424 Y21.887
X-15.905 Y22.231
X-15.388 Y22.591
X-14.871 Y22.966
X-14.356 Y23.355
X-13.842 Y23.759
X-13.328 Y24.177
X-12.816 Y24.608
X-12.304 Y25.052
X-11.793 Y25.509
X-11.626 Y25.663
X-12.191 Y25.881
X-12.221 Y25.893
X-12.771 Y26.118
X-12.804 Y26.132
X-13.337 Y26.364
X-13.371 Y26.38
X-13.887 Y26.619
X-13.924 Y26.637
X-14.422 Y26.883
X-14.461 Y26.903
X-14.942 Y27.158
X-14.982 Y27.18
X-15.445 Y27.442
X-15.488 Y27.468
X-15.931 Y27.739
X-15.977 Y27.768
X-16.401 Y28.047
X-16.449 Y28.08
X-16.852 Y28.367
X-16.903 Y28.405
X-17.286 Y28.701
X-17.338 Y28.743
X-17.7 Y29.048
X-17.753 Y29.095
X-18.093 Y29.41
X-18.147 Y29.462
X-18.466 Y29.785
X-18.519 Y29.842
X-18.817 Y30.175
X-18.869 Y30.236
X-19.144 Y30.578
X-19.194 Y30.644
X-19.448 Y30.995
X-19.496 Y31.064
X-19.729 Y31.424
X-19.772 Y31.495
X-19.984 Y31.864
X-20.023 Y31.937
X-20.215 Y32.315
X-20.25 Y32.389
X-20.422 Y32.776
X-20.453 Y32.85
X-20.605 Y33.245
X-20.631 Y33.319
X-20.763 Y33.722
X-20.786 Y33.796
X-20.899 Y34.207
X-20.917 Y34.28
X-21.012 Y34.699
X-21.026 Y34.77
X-21.102 Y35.198
X-21.113 Y35.267
X-21.171 Y35.702
X-21.178 Y35.77
X-21.218 Y36.213
G2 X-19.148 Y37.864 I1.581 J0.141
G1 X-18.778 Y37.745
X-18.439 Y37.652
X-18.099 Y37.575
X-17.755 Y37.514
X-17.409 Y37.47
X-17.06 Y37.442
X-16.707 Y37.431
X-16.351 Y37.436
X-15.99 Y37.46
X-15.623 Y37.501
X-15.251 Y37.561
X-14.872 Y37.641
X-14.486 Y37.74
X-14.091 Y37.861
X-13.688 Y38.002
X-13.277 Y38.166
X-12.856 Y38.351
X-12.427 Y38.558
X-11.99 Y38.786
X-11.544 Y39.036
X-11.091 Y39.307
X-10.63 Y39.599
X-10.162 Y39.91
X-9.688 Y40.24
X-9.207 Y40.589
X-8.721 Y40.956
X-8.229 Y41.341
X-8.108 Y41.439
X-8.262 Y41.485
X-8.304 Y41.498
X-8.663 Y41.616
X-8.707 Y41.632
X-9.056 Y41.758
X-9.102 Y41.776
X-9.442 Y41.911
X-9.49 Y41.931
X-9.82 Y42.075
X-9.87 Y42.098
X-10.19 Y42.252
X-10.242 Y42.278
X-10.552 Y42.44
X-10.605 Y42.469
X-10.904 Y42.641
X-10.959 Y42.674
X-11.247 Y42.856
X-11.302 Y42.891
X-11.58 Y43.083
X-11.634 Y43.122
X-11.902 Y43.323
X-11.955 Y43.365
X-12.212 Y43.575
X-12.264 Y43.62
X-12.51 Y43.84
X-12.559 Y43.886
X-12.795 Y44.116
X-12.842 Y44.164
X-13.067 Y44.403
X-13.111 Y44.452
X-13.327 Y44.7
X-13.368 Y44.75
X-13.573 Y45.007
X-13.611 Y45.057
X-13.807 Y45.323
X-13.842 Y45.372
X-14.028 Y45.647
X-14.06 Y45.697
X-14.237 Y45.98
X-14.267 Y46.029
X-14.435 Y46.321
X-14.461 Y46.369
X-14.62 Y46.668
X-14.644 Y46.717
X-14.794 Y47.024
X-14.816 Y47.072
X-14.957 Y47.387
X-14.977 Y47.434
X-15.109 Y47.757
G2 X-13.379 Y49.923 I1.47 J0.6
G1 X-13.023 Y49.864
X-12.701 Y49.825
X-12.381 Y49.799
X-12.064 Y49.787
X-11.749 Y49.79
X-11.436 Y49.806
X-11.125 Y49.837
X-10.816 Y49.883
X-10.507 Y49.944
X-10.199 Y50.02
X-9.891 Y50.112
X-9.583 Y50.221
X-9.272 Y50.347
X-8.96 Y50.491
X-8.645 Y50.653
X-8.326 Y50.835
X-8.005 Y51.037
X-7.68 Y51.258
X-7.351 Y51.5
X-7.02 Y51.761
X-6.686 Y52.041
X-6.348 Y52.341
X-6.009 Y52.66
X-5.668 Y52.996
X-5.324 Y53.35
X-4.98 Y53.721
X-4.887 Y53.825
X-5.017 Y53.86
X-5.104 Y53.886
X-5.342 Y53.965
X-5.428 Y53.996
X-5.661 Y54.088
X-5.748 Y54.126
X-5.975 Y54.232
X-6.059 Y54.274
X-6.28 Y54.394
X-6.361 Y54.441
X-6.576 Y54.574
X-6.654 Y54.626
X-6.862 Y54.773
X-6.934 Y54.826
X-7.136 Y54.987
X-7.202 Y55.043
X-7.399 Y55.217
X-7.459 Y55.273
X-7.65 Y55.46
X-7.703 Y55.515
X-7.888 Y55.716
X-7.936 Y55.77
X-8.116 Y55.983
X-8.158 Y56.035
X-8.332 Y56.261
X-8.37 Y56.312
X-8.538 Y56.549
X-8.571 Y56.597
X-8.735 Y56.846
X-8.764 Y56.893
X-8.923 Y57.153
X-8.949 Y57.197
X-9.102 Y57.469
X-9.125 Y57.511
X-9.273 Y57.794
X-9.294 Y57.834
X-9.438 Y58.127
X-9.456 Y58.165
X-9.595 Y58.469
X-9.611 Y58.506
X-9.745 Y58.821
X-9.76 Y58.856
X-9.889 Y59.181
G2 X-8.885 Y61.285 I1.474 J0.588
G1 X-8.426 Y61.427
X-7.989 Y61.576
X-7.555 Y61.735
X-7.123 Y61.907
X-6.693 Y62.09
X-6.267 Y62.286
X-5.843 Y62.493
X-5.422 Y62.714
X-5.004 Y62.947
X-4.588 Y63.193
X-4.175 Y63.453
X-3.765 Y63.727
X-3.356 Y64.015
X-2.951 Y64.317
X-2.547 Y64.635
X-2.145 Y64.967
X-1.744 Y65.315
X-1.345 Y65.678
X-0.948 Y66.057
X-0.552 Y66.45
X-0.157 Y66.858
X0.236 Y67.281
X0.627 Y67.717
X1.017 Y68.167
X1.406 Y68.631
X1.793 Y69.107
X1.986 Y69.353
X0.232 Y69.158
G2 X-1.342 Y71.487 I-0.175 J1.578
G1 X0.724 Y75.333
X-3.122 Y78.632
G2 X-2.088 Y81.424 I1.034 J1.205
G1 X3.011
X5.475 Y86.158
G2 X8.291 Y86.158 I1.408 J-0.733
G1 X10.755 Y81.424
X15.855
G2 X16.888 Y78.632 I0 J-1.588
G1 X13.043 Y75.333
X15.108 Y71.487
G2 X13.534 Y69.158 I-1.399 J-0.751
G1 X11.78 Y69.353
X11.974 Y69.107
X12.361 Y68.631
X12.749 Y68.167
X13.139 Y67.717
X13.531 Y67.281
X13.924 Y66.858
X14.319 Y66.45
X14.715 Y66.057
X15.112 Y65.678
X15.511 Y65.315
X15.911 Y64.967
X16.313 Y64.635
X16.717 Y64.317
X17.123 Y64.015
X17.531 Y63.727
X17.942 Y63.453
X18.355 Y63.193
X18.77 Y62.947
X19.189 Y62.714
X19.61 Y62.493
X20.033 Y62.286
X20.46 Y62.09
X20.889 Y61.907
X21.321 Y61.735
X21.756 Y61.575
X22.193 Y61.427
X22.652 Y61.285
G2 X23.656 Y59.18 I-0.471 J-1.516
G1 X23.526 Y58.856
X23.512 Y58.821
X23.378 Y58.506
X23.361 Y58.469
X23.222 Y58.165
X23.204 Y58.127
X23.06 Y57.834
X23.04 Y57.794
X22.892 Y57.511
X22.869 Y57.469
X22.715 Y57.197
X22.689 Y57.153
X22.531 Y56.893
X22.501 Y56.846
X22.338 Y56.597
X22.305 Y56.549
X22.136 Y56.312
X22.099 Y56.261
X21.925 Y56.036
X21.882 Y55.983
X21.703 Y55.77
X21.655 Y55.715
X21.47 Y55.515
X21.416 Y55.46
X21.225 Y55.273
X21.166 Y55.217
X20.969 Y55.043
X20.903 Y54.987
X20.7 Y54.826
X20.629 Y54.773
X20.42 Y54.626
X20.342 Y54.574
X20.128 Y54.441
X20.046 Y54.394
X19.825 Y54.274
X19.742 Y54.232
X19.515 Y54.126
X19.427 Y54.088
X19.195 Y53.996
X19.109 Y53.965
X18.87 Y53.886
X18.784 Y53.86
X18.653 Y53.825
X18.746 Y53.721
X19.091 Y53.35
X19.434 Y52.996
X19.776 Y52.659
X20.115 Y52.341
X20.452 Y52.041
X20.786 Y51.761
X21.118 Y51.5
X21.446 Y51.258
X21.771 Y51.037
X22.093 Y50.835
X22.411 Y50.653
X22.726 Y50.491
X23.039 Y50.347
X23.349 Y50.221
X23.658 Y50.112
X23.966 Y50.02
X24.274 Y49.944
X24.582 Y49.883
X24.892 Y49.837
X25.203 Y49.806
X25.515 Y49.79
X25.831 Y49.787
X26.148 Y49.799
X26.468 Y49.825
X26.79 Y49.864
X27.146 Y49.923
G2 X28.876 Y47.757 I0.26 J-1.566
G1 X28.744 Y47.434
X28.724 Y47.387
X28.583 Y47.072
X28.56 Y47.024
X28.411 Y46.716
X28.386 Y46.668
X28.228 Y46.369
X28.201 Y46.32
X28.033 Y46.029
X28.004 Y45.98
X27.827 Y45.697
X27.795 Y45.647
X27.609 Y45.372
X27.573 Y45.323
X27.378 Y45.057
X27.34 Y45.007
X27.134 Y44.75
X27.093 Y44.7
X26.878 Y44.452
X26.834 Y44.403
X26.608 Y44.164
X26.561 Y44.116
X26.326 Y43.886
X26.276 Y43.84
X26.03 Y43.62
X25.978 Y43.575
X25.722 Y43.365
X25.668 Y43.323
X25.401 Y43.122
X25.347 Y43.083
X25.069 Y42.892
X25.014 Y42.856
X24.725 Y42.674
X24.671 Y42.641
X24.371 Y42.469
X24.318 Y42.44
X24.008 Y42.278
X23.957 Y42.252
X23.637 Y42.098
X23.587 Y42.076
X23.257 Y41.931
X23.208 Y41.911
X22.868 Y41.776
X22.823 Y41.758
X22.473 Y41.632
X22.429 Y41.616
X22.071 Y41.498
X22.029 Y41.485
X21.875 Y41.439
X21.996 Y41.341
X22.488 Y40.956
X22.974 Y40.589
X23.454 Y40.24
X23.928 Y39.91
X24.396 Y39.599
X24.857 Y39.307
X25.311 Y39.036
X25.756 Y38.786
X26.194 Y38.558
X26.623 Y38.351
X27.043 Y38.166
X27.455 Y38.002
X27.858 Y37.861
X28.252 Y37.74
X28.638 Y37.641
X29.017 Y37.561
X29.39 Y37.501
X29.756 Y37.46
X30.117 Y37.436
X30.474 Y37.431
X30.826 Y37.442
X31.176 Y37.47
X31.522 Y37.514
X31.865 Y37.575
X32.206 Y37.652
X32.545 Y37.745
X32.915 Y37.864
G2 X34.985 Y36.213 I0.489 J-1.51
G1 X34.945 Y35.77
X34.938 Y35.702
X34.88 Y35.267
X34.869 Y35.197
X34.793 Y34.77
X34.778 Y34.699
X34.684 Y34.28
X34.666 Y34.207
X34.552 Y33.796
X34.53 Y33.723
X34.398 Y33.319
X34.371 Y33.245
X34.219 Y32.85
X34.188 Y32.776
X34.017 Y32.389
X33.982 Y32.315
X33.79 Y31.937
X33.751 Y31.864
X33.538 Y31.495
X33.495 Y31.424
X33.262 Y31.064
X33.215 Y30.995
X32.961 Y30.644
X32.911 Y30.579
X32.635 Y30.237
X32.583 Y30.175
X32.286 Y29.842
X32.233 Y29.785
X31.914 Y29.462
X31.86 Y29.41
X31.519 Y29.095
X31.466 Y29.048
X31.104 Y28.743
X31.052 Y28.701
X30.669 Y28.405
X30.619 Y28.367
X30.215 Y28.08
X30.167 Y28.047
X29.744 Y27.768
X29.698 Y27.739
X29.255 Y27.468
X29.211 Y27.443
X28.749 Y27.18
X28.708 Y27.158
X28.228 Y26.903
X28.189 Y26.883
X27.69 Y26.637
X27.654 Y26.619
X27.138 Y26.38
X27.103 Y26.364
X26.57 Y26.132
X26.538 Y26.118
X25.988 Y25.893
X25.957 Y25.881
X25.392 Y25.663
X25.56 Y25.509
X26.07 Y25.052
X26.582 Y24.608
X27.095 Y24.177
X27.608 Y23.759
X28.123 Y23.355
X28.638 Y22.966
X29.154 Y22.591
X29.672 Y22.231
X30.19 Y21.887
X30.711 Y21.558
X31.232 Y21.245
X31.756 Y20.948
X32.282 Y20.667
X32.81 Y20.401
X33.341 Y20.151
X33.876 Y19.916
X34.413 Y19.696
X34.954 Y19.49
X35.498 Y19.298
X36.046 Y19.12
X36.597 Y18.955
X37.152 Y18.803
X37.71 Y18.664
X38.27 Y18.537
X38.834 Y18.422
X39.4 Y18.32
X39.969 Y18.229
X40.557 Y18.148
G2 X41.644 Y15.67 I-0.217 J-1.573
G1 X41.236 Y15.082
X41.188 Y15.018
X40.754 Y14.456
X40.703 Y14.392
X40.243 Y13.856
X40.187 Y13.795
X39.701 Y13.284
X39.641 Y13.225
X39.129 Y12.741
X39.065 Y12.684
X38.526 Y12.228
X38.459 Y12.174
X37.892 Y11.744
X37.821 Y11.694
X37.227 Y11.293
X37.172 Y11.258
X36.865 Y11.068
X36.828 Y11.045
X36.513 Y10.863
X36.475 Y10.842
X36.153 Y10.666
X36.115 Y10.646
X35.786 Y10.478
X35.748 Y10.459
X35.411 Y10.299
X35.374 Y10.281
X35.029 Y10.128
X34.992 Y10.112
X34.64 Y9.966
X34.602 Y9.95
X34.243 Y9.812
X34.206 Y9.799
X33.84 Y9.668
X33.802 Y9.655
X33.428 Y9.532
X33.392 Y9.52
X33.011 Y9.405
X32.975 Y9.394
X32.586 Y9.286
X32.552 Y9.277
X32.155 Y9.176
X32.121 Y9.168
X31.717 Y9.075
X31.684 Y9.068
X31.273 Y8.982
X31.241 Y8.976
X30.822 Y8.898
X30.791 Y8.892
X30.365 Y8.822
X30.335 Y8.817
X29.902 Y8.753
X29.859 Y8.748
X28.971 Y8.642
X28.918 Y8.636
X28.002 Y8.559
X27.953 Y8.555
X27.01 Y8.504
X26.965 Y8.503
X25.996 Y8.478
X25.955
X24.961 Y8.479
X24.923
X23.904 Y8.504
X23.869 Y8.506
X22.826 Y8.555
X22.793 Y8.556
X21.727 Y8.628
X21.697 Y8.631
X20.609 Y8.725
X20.581 Y8.727
X19.47 Y8.843
X19.445 Y8.846
X18.313 Y8.982
X18.289 Y8.985
X17.135 Y9.142
X17.113 Y9.146
X15.939 Y9.323
X15.917 Y9.326
X15.354 Y9.419
Y0
G2 X13.767 Y-1.587 I-1.588 J0
G1 X11.743
G2 X10.155 Y0 I0 J1.587
G1 Y13.738
G2 X12.032 Y15.299 I1.587 J0
G1 X14.213 Y14.896
X15.271 Y14.704
X16.301 Y14.529
X17.313 Y14.37
X18.307 Y14.226
X19.281 Y14.099
X20.234 Y13.987
X21.167 Y13.892
X22.078 Y13.814
X22.968 Y13.753
X23.834 Y13.709
X24.676 Y13.683
X25.494 Y13.674
X26.285 Y13.683
X27.047 Y13.711
X27.781 Y13.757
X28.487 Y13.821
X29.164 Y13.904
X29.811 Y14.004
X30.43 Y14.121
X31.019 Y14.255
X31.578 Y14.405
X32.106 Y14.571
X32.605 Y14.752
X32.695 Y14.789
X32.257 Y14.961
X32.222 Y14.975
X31.62 Y15.228
X31.585 Y15.244
X30.987 Y15.513
X30.951 Y15.53
X30.357 Y15.815
X30.322 Y15.832
X29.732 Y16.134
X29.697 Y16.152
X29.111 Y16.47
X29.078 Y16.489
X28.498 Y16.822
X28.466 Y16.841
X27.891 Y17.189
X27.861 Y17.207
X27.291 Y17.57
X27.263 Y17.588
X26.697 Y17.965
X26.67 Y17.983
X26.11 Y18.374
X26.085 Y18.392
X25.529 Y18.796
X25.504 Y18.813
X24.953 Y19.23
X24.93 Y19.248
X24.382 Y19.677
X24.361 Y19.694
X23.817 Y20.136
X23.797 Y20.152
X23.257 Y20.606
X23.238 Y20.622
X22.701 Y21.087
X22.683 Y21.103
X22.15 Y21.579
X22.133 Y21.594
X21.603 Y22.081
X21.587 Y22.096
X21.059 Y22.594
X21.045 Y22.607
X20.52 Y23.115
X20.506 Y23.128
X19.983 Y23.646
X19.974 Y23.656
X19.465 Y24.168
X17.448 Y26.2
G2 X18.124 Y28.841 I1.127 J1.118
G1 X20.418 Y29.519
X20.991 Y29.688
X21.277 Y29.773
X21.544 Y29.852
X22.058 Y30.011
X22.555 Y30.173
X23.036 Y30.339
X23.503 Y30.509
X23.953 Y30.682
X24.388 Y30.858
X24.805 Y31.037
X25.206 Y31.218
X25.589 Y31.402
X25.954 Y31.587
X26.301 Y31.774
X26.628 Y31.962
X26.936 Y32.15
X27.225 Y32.338
X27.493 Y32.525
X27.541 Y32.562
X27.17 Y32.649
X27.102 Y32.666
X26.569 Y32.817
X26.505 Y32.836
X25.973 Y33.01
X25.913 Y33.031
X25.383 Y33.229
X25.328 Y33.25
X24.799 Y33.47
X24.747 Y33.493
X24.219 Y33.734
X24.172 Y33.757
X23.645 Y34.019
X23.601 Y34.042
X23.074 Y34.324
X23.035 Y34.346
X22.508 Y34.649
X22.472 Y34.67
X21.945 Y34.992
X21.912 Y35.012
X21.386 Y35.351
X21.356 Y35.371
X20.829 Y35.728
X20.802 Y35.747
X20.275 Y36.12
X20.25 Y36.138
X19.722 Y36.527
X19.7 Y36.544
X19.171 Y36.948
X19.151 Y36.964
X18.621 Y37.382
X18.603 Y37.397
X18.072 Y37.83
X18.054 Y37.844
X17.521 Y38.291
X17.505 Y38.305
X16.97 Y38.766
X16.954 Y38.779
X16.417 Y39.255
X16.402 Y39.268
X15.866 Y39.754
X15.861 Y39.758
X14.815 Y40.714
X12.723 Y42.625
G2 X13.595 Y45.372 I1.071 J1.172
G1 X16.751 Y45.77
X17.54 Y45.869
X17.928 Y45.918
X18.258 Y45.962
X18.895 Y46.065
X19.497 Y46.186
X19.677 Y46.228
X19.368 Y46.408
X19.317 Y46.439
X18.899 Y46.704
X18.852 Y46.735
X18.44 Y47.017
X18.396 Y47.048
X17.989 Y47.348
X17.949 Y47.378
X17.547 Y47.694
X17.511 Y47.724
X17.114 Y48.055
X17.08 Y48.084
X16.688 Y48.43
X16.658 Y48.457
X16.269 Y48.818
X16.242 Y48.845
X15.857 Y49.22
X15.832 Y49.245
X15.452 Y49.633
X15.429 Y49.656
X15.053 Y50.057
X15.032 Y50.079
X14.659 Y50.491
X14.64 Y50.512
X14.27 Y50.936
X14.252 Y50.957
X13.883 Y51.393
X13.867 Y51.413
X13.501 Y51.862
X13.485 Y51.881
X13.121 Y52.341
X13.107 Y52.36
X12.743 Y52.832
X12.733 Y52.846
X12.552 Y53.087
X12.547 Y53.093
X12.522 Y53.128
G3 X12.077 Y53.193 I-0.255 J-0.189 F520
G1 X11.823 Y53.004
X11.766 Y52.962 Z-2.742
X11.712 Y52.922 Z-2.719
X11.664 Y52.886 Z-2.681
X11.623 Y52.856 Z-2.63
X11.593 Y52.833 Z-2.57
X11.574 Y52.819 Z-2.503
X11.568 Y52.815 Z-2.433
Z6 F650
X11.946 Y52.305
Z-2.115 F260
Z-3.183
X11.953 Y52.31 Z-3.253 F520
X11.972 Y52.324 Z-3.32
X12.002 Y52.346 Z-3.38
X12.042 Y52.376 Z-3.431
X12.091 Y52.412 Z-3.469
X12.145 Y52.452 Z-3.492
X12.201 Y52.494 Z-3.5
X12.456 Y52.684
G3 X12.522 Y53.128 I-0.189 J0.255
G1 X12.372 Y53.329 F650
X12.027 Y53.794
X11.337 Y54.724
X9.957 Y56.582
G2 X10.407 Y58.885 I1.275 J0.946
G3 X10.633 Y59.08 I-0.474 J0.78
G2 X12.147 Y59.621 I1.218 J-1.018
G1 X14.933 Y59.092
X15.202 Y59.041
X14.994 Y59.172
X14.947 Y59.203
X14.268 Y59.668
X14.222 Y59.701
X13.552 Y60.195
X13.507 Y60.229
X12.847 Y60.754
X12.804 Y60.789
X12.154 Y61.344
X12.114 Y61.379
X11.475 Y61.962
X11.439 Y61.995
X10.81 Y62.605
X10.778 Y62.638
X10.159 Y63.273
X10.13 Y63.304
X9.52 Y63.965
X9.493 Y63.994
X8.892 Y64.678
X8.869 Y64.706
X8.276 Y65.413
X8.254 Y65.44
X8.145 Y65.575
X5.621
X5.513 Y65.44
X5.491 Y65.413
X4.898 Y64.706
X4.874 Y64.678
X4.273 Y63.994
X4.247 Y63.965
X3.637 Y63.304
X3.608 Y63.273
X2.989 Y62.638
X2.956 Y62.605
X2.327 Y61.995
X2.292 Y61.962
X1.652 Y61.379
X1.613 Y61.344
X0.963 Y60.789
X0.92 Y60.754
X0.259 Y60.229
X0.215 Y60.195
X-0.455 Y59.701
X-0.501 Y59.668
X-1.18 Y59.203
X-1.228 Y59.172
X-1.435 Y59.041
X-0.28 Y59.26
X2.802 Y59.846
G2 X4.372 Y57.34 I0.296 J-1.56
G1 X1.472 Y53.434
X1.291 Y53.19
X1.288 Y53.185
X1.098 Y52.932
X1.088 Y52.918
X0.706 Y52.419
X0.692 Y52.4
X0.308 Y51.915
X0.292 Y51.895
X-0.093 Y51.423
X-0.11 Y51.402
X-0.497 Y50.943
X-0.516 Y50.922
X-0.905 Y50.476
X-0.925 Y50.454
X-1.318 Y50.022
X-1.34 Y49.999
X-1.736 Y49.58
X-1.761 Y49.555
X-2.161 Y49.15
X-2.188 Y49.124
X-2.593 Y48.733
X-2.623 Y48.705
X-3.032 Y48.331
X-3.065 Y48.301
X-3.479 Y47.943
X-3.516 Y47.912
X-3.935 Y47.571
X-3.975 Y47.539
X-4.4 Y47.215
X-4.444 Y47.183
X-4.874 Y46.878
X-4.922 Y46.845
X-5.358 Y46.558
X-5.41 Y46.526
X-5.853 Y46.259
X-5.908 Y46.228
X-5.73 Y46.186
X-5.129 Y46.065
X-4.491 Y45.962
X-4.162 Y45.918
X-3.774 Y45.869
X-2.985 Y45.77
X0.171 Y45.372
G2 X1.044 Y42.625 I-0.198 J-1.575
G1 X-1.048 Y40.714
X-2.094 Y39.758
X-2.099 Y39.754
X-2.636 Y39.268
X-2.65 Y39.255
X-3.188 Y38.779
X-3.203 Y38.766
X-3.738 Y38.305
X-3.755 Y38.291
X-4.288 Y37.844
X-4.305 Y37.83
X-4.836 Y37.397
X-4.855 Y37.382
X-5.385 Y36.964
X-5.404 Y36.948
X-5.933 Y36.544
X-5.956 Y36.527
X-6.484 Y36.138
X-6.508 Y36.12
X-7.035 Y35.747
X-7.063 Y35.728
X-7.589 Y35.371
X-7.619 Y35.351
X-8.146 Y35.012
X-8.179 Y34.992
X-8.705 Y34.67
X-8.742 Y34.649
X-9.268 Y34.346
X-9.308 Y34.324
X-9.835 Y34.042
X-9.878 Y34.019
X-10.405 Y33.757
X-10.453 Y33.734
X-10.981 Y33.493
X-11.032 Y33.47
X-11.561 Y33.25
X-11.616 Y33.229
X-12.147 Y33.031
X-12.206 Y33.01
X-12.738 Y32.836
X-12.802 Y32.817
X-13.335 Y32.666
X-13.403 Y32.649
X-13.774 Y32.562
X-13.726 Y32.525
X-13.458 Y32.338
X-13.17 Y32.15
X-12.862 Y31.962
X-12.534 Y31.774
X-12.188 Y31.587
X-11.822 Y31.402
X-11.439 Y31.218
X-11.039 Y31.037
X-10.621 Y30.858
X-10.187 Y30.682
X-9.736 Y30.509
X-9.27 Y30.339
X-8.788 Y30.173
X-8.292 Y30.011
X-7.778 Y29.852
X-7.51 Y29.773
X-7.225 Y29.688
X-6.652 Y29.519
X-4.357 Y28.841
G2 X-3.681 Y26.2 I-0.45 J-1.522
G1 X-5.698 Y24.168
X-6.207 Y23.656
X-6.217 Y23.646
X-6.74 Y23.128
X-6.753 Y23.115
X-7.278 Y22.607
X-7.293 Y22.594
X-7.821 Y22.096
X-7.836 Y22.081
X-8.367 Y21.594
X-8.383 Y21.579
X-8.917 Y21.103
X-8.935 Y21.087
X-9.471 Y20.622
X-9.49 Y20.606
X-10.03 Y20.152
X-10.05 Y20.136
X-10.594 Y19.694
X-10.616 Y19.677
X-11.164 Y19.248
X-11.186 Y19.23
X-11.738 Y18.813
X-11.762 Y18.796
X-12.318 Y18.392
X-12.343 Y18.374
X-12.904 Y17.983
X-12.931 Y17.965
X-13.496 Y17.588
X-13.524 Y17.57
X-14.095 Y17.207
X-14.124 Y17.189
X-14.699 Y16.841
X-14.731 Y16.822
X-15.312 Y16.489
X-15.345 Y16.47
X-15.93 Y16.152
X-15.966 Y16.134
X-16.556 Y15.832
X-16.591 Y15.815
X-17.185 Y15.529
X-17.221 Y15.513
X-17.818 Y15.244
X-17.854 Y15.229
X-18.455 Y14.975
X-18.491 Y14.961
X-18.928 Y14.789
X-18.839 Y14.752
X-18.34 Y14.571
X-17.811 Y14.405
X-17.252 Y14.255
X-16.663 Y14.121
X-16.045 Y14.004
X-15.397 Y13.904
X-14.72 Y13.821
X-14.014 Y13.757
X-13.28 Y13.711
X-12.518 Y13.683
X-11.727 Y13.674
X-10.91 Y13.683
X-10.067 Y13.709
X-9.201 Y13.753
X-8.312 Y13.814
X-7.4 Y13.892
X-6.468 Y13.987
X-5.514 Y14.099
X-4.54 Y14.226
X-3.547 Y14.37
X-2.535 Y14.529
X-1.504 Y14.704
X-0.447 Y14.896
X1.735 Y15.299
G2 X3.611 Y13.738 I0.289 J-1.561
G1 Y0
G2 X2.024 Y-1.587 I-1.588 J0
G1 X0
G2 X-1.587 Y0 I0 J1.587
G1 Y9.419
X-2.151 Y9.326
X-2.172 Y9.323
X-3.346 Y9.146
X-3.369 Y9.142
X-4.522 Y8.985
X-4.546 Y8.982
X-5.678 Y8.846
X-5.704 Y8.843
X-6.814 Y8.727
X-6.842 Y8.725
X-7.931 Y8.631
X-7.961 Y8.628
X-9.027 Y8.556
X-9.059 Y8.555
X-10.102 Y8.506
X-10.137 Y8.504
X-11.156 Y8.479
X-11.194
X-12.188 Y8.478
X-12.23
X-13.199 Y8.503
X-13.244 Y8.504
X-14.187 Y8.555
X-14.236 Y8.559
X-15.151 Y8.636
X-15.205 Y8.642
X-16.093 Y8.748
X-16.135 Y8.753
X-16.568 Y8.817
X-16.598 Y8.822
X-17.024 Y8.892
X-17.055 Y8.898
X-17.474 Y8.976
X-17.506 Y8.982
X-17.917 Y9.068
X-17.95 Y9.075
X-18.354 Y9.168
X-18.389 Y9.176
X-18.785 Y9.277
X-18.819 Y9.286
X-19.208 Y9.394
X-19.244 Y9.405
X-19.626 Y9.52
X-19.662 Y9.532
X-20.036 Y9.655
X-20.073 Y9.668
X-20.44 Y9.799
X-20.476 Y9.812
X-20.836 Y9.95
X-20.873 Y9.966
X-21.225 Y10.112
X-21.263 Y10.128
X-21.607 Y10.281
X-21.645 Y10.299
X-21.982 Y10.459
