(lavoro)
(T1 D=3.175 CR=0 - ZMIN=-5 - Fresa cilindrica)
G90 G94
G17
G21
(When using Fusion 360 for Personal Use, the feedrate of)
(rapid moves is reduced to match the feedrate of cutting)
(moves, which can increase machining time. Unrestricted rapid)
(moves are available with a Fusion 360 Subscription.)
G28 G91 Z0
G90

(Fresatura elicoidale1)
M0
(MANUAL TOOL CHANGE TO T1)
S9000 M3
G17 G90 G94
G54
G0 X-7.773 Y16.028
Z16
G1 Z2 F650
Z0.317 F520
G18 G2 X-7.455 Z0 I0.318 K0
G1 X-7.296
G17 G3 X-6.979 Y16.345 I0 J0.318
X-8.804 Y16.345 Z-0.087 I-0.912 J0 F650
X-6.979 Y16.345 Z-0.175 I0.912 J0
X-8.804 Y16.345 Z-0.262 I-0.912 J0
X-6.979 Y16.345 Z-0.349 I0.912 J0
X-8.804 Y16.345 Z-0.437 I-0.912 J0
X-6.979 Y16.345 Z-0.524 I0.912 J0
X-8.804 Y16.345 Z-0.611 I-0.912 J0
X-6.979 Y16.345 Z-0.698 I0.912 J0
X-8.804 Y16.345 Z-0.786 I-0.912 J0
X-6.979 Y16.345 Z-0.873 I0.912 J0
X-8.804 Y16.345 Z-0.96 I-0.912 J0
X-6.979 Y16.345 Z-1.048 I0.912 J0
X-8.804 Y16.345 Z-1.135 I-0.912 J0
X-6.979 Y16.345 Z-1.222 I0.912 J0
X-8.804 Y16.345 Z-1.31 I-0.912 J0
X-6.979 Y16.345 Z-1.397 I0.912 J0
X-8.804 Y16.345 Z-1.484 I-0.912 J0
X-6.979 Y16.345 Z-1.571 I0.912 J0
X-8.804 Y16.345 Z-1.659 I-0.912 J0
X-6.979 Y16.345 Z-1.746 I0.912 J0
X-8.804 Y16.345 Z-1.833 I-0.912 J0
X-6.979 Y16.345 Z-1.921 I0.912 J0
X-8.804 Y16.345 Z-2.008 I-0.912 J0
X-6.979 Y16.345 Z-2.095 I0.912 J0
X-8.804 Y16.345 Z-2.183 I-0.912 J0
X-6.979 Y16.345 Z-2.27 I0.912 J0
X-8.804 Y16.345 Z-2.357 I-0.912 J0
X-6.979 Y16.345 Z-2.444 I0.912 J0
X-8.804 Y16.345 Z-2.532 I-0.912 J0
X-6.979 Y16.345 Z-2.619 I0.912 J0
X-8.804 Y16.345 Z-2.706 I-0.912 J0
X-6.979 Y16.345 Z-2.794 I0.912 J0
X-8.804 Y16.345 Z-2.881 I-0.912 J0
X-6.979 Y16.345 Z-2.968 I0.912 J0
X-8.804 Y16.345 Z-3.056 I-0.912 J0
X-6.979 Y16.345 Z-3.143 I0.912 J0
X-8.804 Y16.345 Z-3.23 I-0.912 J0
X-6.979 Y16.345 Z-3.317 I0.912 J0
X-8.804 Y16.345 Z-3.405 I-0.912 J0
X-6.979 Y16.345 Z-3.492 I0.912 J0
X-8.804 Y16.345 Z-3.579 I-0.912 J0
X-6.979 Y16.345 Z-3.667 I0.912 J0
X-8.804 Y16.345 Z-3.754 I-0.912 J0
X-6.979 Y16.345 Z-3.841 I0.912 J0
X-8.804 Y16.345 Z-3.929 I-0.912 J0
X-6.979 Y16.345 Z-4.016 I0.912 J0
X-8.804 Y16.345 Z-4.103 I-0.912 J0
X-6.979 Y16.345 Z-4.19 I0.912 J0
X-8.804 Y16.345 Z-4.278 I-0.912 J0
X-6.979 Y16.345 Z-4.365 I0.912 J0
X-8.804 Y16.345 Z-4.452 I-0.912 J0
X-6.979 Y16.345 Z-4.54 I0.912 J0
X-8.804 Y16.345 Z-4.627 I-0.912 J0
X-6.979 Y16.345 Z-4.714 I0.912 J0
X-8.804 Y16.345 Z-4.802 I-0.912 J0
X-6.979 Y16.345 Z-4.889 I0.912 J0
X-8.804 Y16.345 Z-4.976 I-0.912 J0
X-8.489 Y15.656 Z-5 I0.912 J0
X-7.293 Y17.035 I0.598 J0.689
X-8.489 Y15.656 I-0.598 J-0.689
X-8.042 Y15.688 I0.208 J0.24 F520
G1 X-7.938 Y15.808
X-7.891 Y15.861 Z-4.992
X-7.847 Y15.912 Z-4.969
X-7.808 Y15.957 Z-4.931
X-7.775 Y15.995 Z-4.88
X-7.75 Y16.024 Z-4.82
X-7.735 Y16.042 Z-4.753
X-7.729 Y16.048 Z-4.682
Z6 F650
X-2.773 Y32.028
Z2
Z0.317 F520
G18 G2 X-2.455 Z0 I0.318 K0
G1 X-2.296
G17 G3 X-1.979 Y32.345 I0 J0.317
X-3.804 Y32.345 Z-0.087 I-0.912 J0 F650
X-1.979 Y32.345 Z-0.175 I0.912 J0
X-3.804 Y32.345 Z-0.262 I-0.912 J0
X-1.979 Y32.345 Z-0.349 I0.912 J0
X-3.804 Y32.345 Z-0.437 I-0.912 J0
X-1.979 Y32.345 Z-0.524 I0.912 J0
X-3.804 Y32.345 Z-0.611 I-0.912 J0
X-1.979 Y32.345 Z-0.698 I0.912 J0
X-3.804 Y32.345 Z-0.786 I-0.912 J0
X-1.979 Y32.345 Z-0.873 I0.912 J0
X-3.804 Y32.345 Z-0.96 I-0.912 J0
X-1.979 Y32.345 Z-1.048 I0.912 J0
X-3.804 Y32.345 Z-1.135 I-0.912 J0
X-1.979 Y32.345 Z-1.222 I0.912 J0
X-3.804 Y32.345 Z-1.31 I-0.912 J0
X-1.979 Y32.345 Z-1.397 I0.912 J0
X-3.804 Y32.345 Z-1.484 I-0.912 J0
X-1.979 Y32.345 Z-1.571 I0.912 J0
X-3.804 Y32.345 Z-1.659 I-0.912 J0
X-1.979 Y32.345 Z-1.746 I0.912 J0
X-3.804 Y32.345 Z-1.833 I-0.912 J0
X-1.979 Y32.345 Z-1.921 I0.912 J0
X-3.804 Y32.345 Z-2.008 I-0.912 J0
X-1.979 Y32.345 Z-2.095 I0.912 J0
X-3.804 Y32.345 Z-2.183 I-0.912 J0
X-1.979 Y32.345 Z-2.27 I0.912 J0
X-3.804 Y32.345 Z-2.357 I-0.912 J0
X-1.979 Y32.345 Z-2.444 I0.912 J0
X-3.804 Y32.345 Z-2.532 I-0.912 J0
X-1.979 Y32.345 Z-2.619 I0.912 J0
X-3.804 Y32.345 Z-2.706 I-0.912 J0
X-1.979 Y32.345 Z-2.794 I0.912 J0
X-3.804 Y32.345 Z-2.881 I-0.912 J0
X-1.979 Y32.345 Z-2.968 I0.912 J0
X-3.804 Y32.345 Z-3.056 I-0.912 J0
X-1.979 Y32.345 Z-3.143 I0.912 J0
X-3.804 Y32.345 Z-3.23 I-0.912 J0
X-1.979 Y32.345 Z-3.317 I0.912 J0
X-3.804 Y32.345 Z-3.405 I-0.912 J0
X-1.979 Y32.345 Z-3.492 I0.912 J0
X-3.804 Y32.345 Z-3.579 I-0.912 J0
X-1.979 Y32.345 Z-3.667 I0.912 J0
X-3.804 Y32.345 Z-3.754 I-0.912 J0
X-1.979 Y32.345 Z-3.841 I0.912 J0
X-3.804 Y32.345 Z-3.929 I-0.912 J0
X-1.979 Y32.345 Z-4.016 I0.912 J0
X-3.804 Y32.345 Z-4.103 I-0.912 J0
X-1.979 Y32.345 Z-4.19 I0.912 J0
X-3.804 Y32.345 Z-4.278 I-0.912 J0
X-1.979 Y32.345 Z-4.365 I0.912 J0
X-3.804 Y32.345 Z-4.452 I-0.912 J0
X-1.979 Y32.345 Z-4.54 I0.912 J0
X-3.804 Y32.345 Z-4.627 I-0.912 J0
X-1.979 Y32.345 Z-4.714 I0.912 J0
X-3.804 Y32.345 Z-4.802 I-0.912 J0
X-1.979 Y32.345 Z-4.889 I0.912 J0
X-3.804 Y32.345 Z-4.976 I-0.912 J0
X-3.489 Y31.656 Z-5 I0.912 J0
X-2.293 Y33.035 I0.598 J0.689
X-3.489 Y31.656 I-0.598 J-0.689
X-3.042 Y31.688 I0.208 J0.24 F520
G1 X-2.938 Y31.808
X-2.891 Y31.861 Z-4.992
X-2.847 Y31.912 Z-4.969
X-2.808 Y31.957 Z-4.931
X-2.775 Y31.995 Z-4.88
X-2.75 Y32.024 Z-4.82
X-2.735 Y32.042 Z-4.753
X-2.729 Y32.048 Z-4.682
Z6 F650
X7.002 Y24.854
Z2
Z0.317 F520
G18 G2 X7.32 Z0 I0.318 K0
G1 X7.478
G17 G3 X7.796 Y25.172 I0 J0.317
X5.971 Y25.172 Z-0.087 I-0.913 J0 F650
X7.796 Y25.172 Z-0.175 I0.913 J0
X5.971 Y25.172 Z-0.262 I-0.913 J0
X7.796 Y25.172 Z-0.349 I0.913 J0
X5.971 Y25.172 Z-0.437 I-0.913 J0
X7.796 Y25.172 Z-0.524 I0.913 J0
X5.971 Y25.172 Z-0.611 I-0.913 J0
X7.796 Y25.172 Z-0.698 I0.913 J0
X5.971 Y25.172 Z-0.786 I-0.913 J0
X7.796 Y25.172 Z-0.873 I0.913 J0
X5.971 Y25.172 Z-0.96 I-0.913 J0
X7.796 Y25.172 Z-1.048 I0.913 J0
X5.971 Y25.172 Z-1.135 I-0.913 J0
X7.796 Y25.172 Z-1.222 I0.913 J0
X5.971 Y25.172 Z-1.31 I-0.913 J0
X7.796 Y25.172 Z-1.397 I0.913 J0
X5.971 Y25.172 Z-1.484 I-0.913 J0
X7.796 Y25.172 Z-1.571 I0.913 J0
X5.971 Y25.172 Z-1.659 I-0.913 J0
X7.796 Y25.172 Z-1.746 I0.913 J0
X5.971 Y25.172 Z-1.833 I-0.913 J0
X7.796 Y25.172 Z-1.921 I0.913 J0
X5.971 Y25.172 Z-2.008 I-0.913 J0
X7.796 Y25.172 Z-2.095 I0.913 J0
X5.971 Y25.172 Z-2.183 I-0.913 J0
X7.796 Y25.172 Z-2.27 I0.913 J0
X5.971 Y25.172 Z-2.357 I-0.913 J0
X7.796 Y25.172 Z-2.444 I0.913 J0
X5.971 Y25.172 Z-2.532 I-0.913 J0
X7.796 Y25.172 Z-2.619 I0.913 J0
X5.971 Y25.172 Z-2.706 I-0.913 J0
X7.796 Y25.172 Z-2.794 I0.913 J0
X5.971 Y25.172 Z-2.881 I-0.913 J0
X7.796 Y25.172 Z-2.968 I0.913 J0
X5.971 Y25.172 Z-3.056 I-0.913 J0
X7.796 Y25.172 Z-3.143 I0.913 J0
X5.971 Y25.172 Z-3.23 I-0.913 J0
X7.796 Y25.172 Z-3.317 I0.913 J0
X5.971 Y25.172 Z-3.405 I-0.913 J0
X7.796 Y25.172 Z-3.492 I0.913 J0
X5.971 Y25.172 Z-3.579 I-0.913 J0
X7.796 Y25.172 Z-3.667 I0.913 J0
X5.971 Y25.172 Z-3.754 I-0.913 J0
X7.796 Y25.172 Z-3.841 I0.913 J0
X5.971 Y25.172 Z-3.929 I-0.913 J0
X7.796 Y25.172 Z-4.016 I0.913 J0
X5.971 Y25.172 Z-4.103 I-0.913 J0
X7.796 Y25.172 Z-4.19 I0.912 J0
X5.971 Y25.172 Z-4.278 I-0.912 J0
X7.796 Y25.172 Z-4.365 I0.912 J0
X5.971 Y25.172 Z-4.452 I-0.912 J0
X7.796 Y25.172 Z-4.54 I0.912 J0
X5.971 Y25.172 Z-4.627 I-0.912 J0
X7.796 Y25.172 Z-4.714 I0.912 J0
X5.971 Y25.172 Z-4.802 I-0.912 J0
X7.796 Y25.172 Z-4.889 I0.912 J0
X5.971 Y25.172 Z-4.976 I-0.912 J0
X6.285 Y24.482 Z-5 I0.912 J0
X7.481 Y25.861 I0.598 J0.689
X6.285 Y24.482 I-0.598 J-0.689
X6.733 Y24.514 I0.208 J0.24 F520
G1 X6.837 Y24.634
X6.883 Y24.687 Z-4.992
X6.927 Y24.738 Z-4.969
X6.967 Y24.784 Z-4.931
X7 Y24.822 Z-4.88
X7.025 Y24.85 Z-4.82
X7.04 Y24.868 Z-4.753
X7.045 Y24.874 Z-4.682
Z6 F650
X17.227 Y22.028
Z2
Z0.317 F520
G18 G2 X17.545 Z0 I0.317 K0
G1 X17.704
G17 G3 X18.021 Y22.345 I0 J0.317
X16.196 Y22.345 Z-0.087 I-0.913 J0 F650
X18.021 Y22.345 Z-0.175 I0.913 J0
X16.196 Y22.345 Z-0.262 I-0.913 J0
X18.021 Y22.345 Z-0.349 I0.913 J0
X16.196 Y22.345 Z-0.437 I-0.913 J0
X18.021 Y22.345 Z-0.524 I0.913 J0
X16.196 Y22.345 Z-0.611 I-0.913 J0
X18.021 Y22.345 Z-0.698 I0.913 J0
X16.196 Y22.345 Z-0.786 I-0.913 J0
X18.021 Y22.345 Z-0.873 I0.913 J0
X16.196 Y22.345 Z-0.96 I-0.913 J0
X18.021 Y22.345 Z-1.048 I0.913 J0
X16.196 Y22.345 Z-1.135 I-0.913 J0
X18.021 Y22.345 Z-1.222 I0.913 J0
X16.196 Y22.345 Z-1.31 I-0.913 J0
X18.021 Y22.345 Z-1.397 I0.913 J0
X16.196 Y22.345 Z-1.484 I-0.913 J0
X18.021 Y22.345 Z-1.571 I0.913 J0
X16.196 Y22.345 Z-1.659 I-0.913 J0
X18.021 Y22.345 Z-1.746 I0.913 J0
X16.196 Y22.345 Z-1.833 I-0.913 J0
X18.021 Y22.345 Z-1.921 I0.913 J0
X16.196 Y22.345 Z-2.008 I-0.913 J0
X18.021 Y22.345 Z-2.095 I0.913 J0
X16.196 Y22.345 Z-2.183 I-0.913 J0
X18.021 Y22.345 Z-2.27 I0.913 J0
X16.196 Y22.345 Z-2.357 I-0.913 J0
X18.021 Y22.345 Z-2.444 I0.913 J0
X16.196 Y22.345 Z-2.532 I-0.912 J0
X18.021 Y22.345 Z-2.619 I0.912 J0
X16.196 Y22.345 Z-2.706 I-0.912 J0
X18.021 Y22.345 Z-2.794 I0.912 J0
X16.196 Y22.345 Z-2.881 I-0.912 J0
X18.021 Y22.345 Z-2.968 I0.912 J0
X16.196 Y22.345 Z-3.056 I-0.912 J0
X18.021 Y22.345 Z-3.143 I0.912 J0
X16.196 Y22.345 Z-3.23 I-0.912 J0
X18.021 Y22.345 Z-3.317 I0.912 J0
X16.196 Y22.345 Z-3.405 I-0.912 J0
X18.021 Y22.345 Z-3.492 I0.912 J0
X16.196 Y22.345 Z-3.579 I-0.912 J0
X18.021 Y22.345 Z-3.667 I0.912 J0
X16.196 Y22.345 Z-3.754 I-0.912 J0
X18.021 Y22.345 Z-3.841 I0.912 J0
X16.196 Y22.345 Z-3.929 I-0.912 J0
X18.021 Y22.345 Z-4.016 I0.912 J0
X16.196 Y22.345 Z-4.103 I-0.912 J0
X18.021 Y22.345 Z-4.19 I0.912 J0
X16.196 Y22.345 Z-4.278 I-0.912 J0
X18.021 Y22.345 Z-4.365 I0.912 J0
X16.196 Y22.345 Z-4.452 I-0.912 J0
X18.021 Y22.345 Z-4.54 I0.912 J0
X16.196 Y22.345 Z-4.627 I-0.912 J0
X18.021 Y22.345 Z-4.714 I0.912 J0
X16.196 Y22.345 Z-4.802 I-0.912 J0
X18.021 Y22.345 Z-4.889 I0.912 J0
X16.196 Y22.345 Z-4.976 I-0.912 J0
X16.511 Y21.656 Z-5 I0.912 J0
X17.707 Y23.035 I0.598 J0.689
X16.511 Y21.656 I-0.598 J-0.689
X16.958 Y21.688 I0.208 J0.24 F520
G1 X17.062 Y21.808
X17.109 Y21.861 Z-4.992
X17.153 Y21.912 Z-4.969
X17.192 Y21.957 Z-4.931
X17.225 Y21.995 Z-4.88
X17.25 Y22.024 Z-4.82
X17.265 Y22.042 Z-4.753
X17.271 Y22.048 Z-4.682
Z6 F650
X25.969 Y15.481
Z2
Z0.317 F520
G18 G2 X26.286 Z0 I0.317 K0
G1 X26.445
G17 G3 X26.763 Y15.799 I0 J0.318
X24.938 Y15.799 Z-0.087 I-0.912 J0 F650
X26.763 Y15.799 Z-0.175 I0.912 J0
X24.938 Y15.799 Z-0.262 I-0.912 J0
X26.763 Y15.799 Z-0.349 I0.912 J0
X24.938 Y15.799 Z-0.437 I-0.912 J0
X26.763 Y15.799 Z-0.524 I0.912 J0
X24.938 Y15.799 Z-0.611 I-0.912 J0
X26.763 Y15.799 Z-0.698 I0.912 J0
X24.938 Y15.799 Z-0.786 I-0.912 J0
X26.763 Y15.799 Z-0.873 I0.912 J0
X24.938 Y15.799 Z-0.96 I-0.912 J0
X26.763 Y15.799 Z-1.048 I0.912 J0
X24.938 Y15.799 Z-1.135 I-0.912 J0
X26.763 Y15.799 Z-1.222 I0.912 J0
X24.938 Y15.799 Z-1.31 I-0.912 J0
X26.763 Y15.799 Z-1.397 I0.912 J0
X24.938 Y15.799 Z-1.484 I-0.912 J0
X26.763 Y15.799 Z-1.571 I0.912 J0
X24.938 Y15.799 Z-1.659 I-0.912 J0
X26.763 Y15.799 Z-1.746 I0.912 J0
X24.938 Y15.799 Z-1.833 I-0.912 J0
X26.763 Y15.799 Z-1.921 I0.912 J0
X24.938 Y15.799 Z-2.008 I-0.912 J0
X26.763 Y15.799 Z-2.095 I0.912 J0
X24.938 Y15.799 Z-2.183 I-0.912 J0
X26.763 Y15.799 Z-2.27 I0.912 J0
X24.938 Y15.799 Z-2.357 I-0.912 J0
X26.763 Y15.799 Z-2.444 I0.912 J0
X24.938 Y15.799 Z-2.532 I-0.912 J0
X26.763 Y15.799 Z-2.619 I0.912 J0
X24.938 Y15.799 Z-2.706 I-0.912 J0
X26.763 Y15.799 Z-2.794 I0.912 J0
X24.938 Y15.799 Z-2.881 I-0.912 J0
X26.763 Y15.799 Z-2.968 I0.912 J0
X24.938 Y15.799 Z-3.056 I-0.912 J0
X26.763 Y15.799 Z-3.143 I0.912 J0
X24.938 Y15.799 Z-3.23 I-0.912 J0
X26.763 Y15.799 Z-3.317 I0.913 J0
X24.938 Y15.799 Z-3.405 I-0.913 J0
X26.763 Y15.799 Z-3.492 I0.913 J0
X24.938 Y15.799 Z-3.579 I-0.913 J0
X26.763 Y15.799 Z-3.667 I0.913 J0
X24.938 Y15.799 Z-3.754 I-0.913 J0
X26.763 Y15.799 Z-3.841 I0.913 J0
X24.938 Y15.799 Z-3.929 I-0.913 J0
X26.763 Y15.799 Z-4.016 I0.913 J0
X24.938 Y15.799 Z-4.103 I-0.913 J0
X26.763 Y15.799 Z-4.19 I0.913 J0
X24.938 Y15.799 Z-4.278 I-0.913 J0
X26.763 Y15.799 Z-4.365 I0.913 J0
X24.938 Y15.799 Z-4.452 I-0.913 J0
X26.763 Y15.799 Z-4.54 I0.913 J0
X24.938 Y15.799 Z-4.627 I-0.913 J0
X26.763 Y15.799 Z-4.714 I0.913 J0
X24.938 Y15.799 Z-4.802 I-0.913 J0
X26.763 Y15.799 Z-4.889 I0.913 J0
X24.938 Y15.799 Z-4.976 I-0.913 J0
X25.252 Y15.11 Z-5 I0.913 J0
X26.448 Y16.488 I0.598 J0.689
X25.252 Y15.11 I-0.598 J-0.689
X25.7 Y15.141 I0.208 J0.24 F520
G1 X25.804 Y15.261
X25.85 Y15.315 Z-4.992
X25.894 Y15.365 Z-4.969
X25.934 Y15.411 Z-4.931
X25.967 Y15.449 Z-4.88
X25.992 Y15.477 Z-4.82
X26.007 Y15.495 Z-4.753
X26.012 Y15.501 Z-4.682
Z6 F650
X17.212 Y34.99
Z2
Z0.317 F520
G18 G2 X17.529 Z0 I0.318 K0
G1 X17.688
G17 G3 X18.006 Y35.308 I0 J0.317
X16.181 Y35.308 Z-0.087 I-0.913 J0 F650
X18.006 Y35.308 Z-0.175 I0.913 J0
X16.181 Y35.308 Z-0.262 I-0.913 J0
X18.006 Y35.308 Z-0.349 I0.913 J0
X16.181 Y35.308 Z-0.437 I-0.913 J0
X18.006 Y35.308 Z-0.524 I0.913 J0
X16.181 Y35.308 Z-0.611 I-0.913 J0
X18.006 Y35.308 Z-0.698 I0.913 J0
X16.181 Y35.308 Z-0.786 I-0.913 J0
X18.006 Y35.308 Z-0.873 I0.913 J0
X16.181 Y35.308 Z-0.96 I-0.912 J0
X18.006 Y35.308 Z-1.048 I0.912 J0
X16.181 Y35.308 Z-1.135 I-0.912 J0
X18.006 Y35.308 Z-1.222 I0.912 J0
X16.181 Y35.308 Z-1.31 I-0.912 J0
X18.006 Y35.308 Z-1.397 I0.912 J0
X16.181 Y35.308 Z-1.484 I-0.912 J0
X18.006 Y35.308 Z-1.571 I0.912 J0
X16.181 Y35.308 Z-1.659 I-0.912 J0
X18.006 Y35.308 Z-1.746 I0.912 J0
X16.181 Y35.308 Z-1.833 I-0.912 J0
X18.006 Y35.308 Z-1.921 I0.912 J0
X16.181 Y35.308 Z-2.008 I-0.912 J0
X18.006 Y35.308 Z-2.095 I0.912 J0
X16.181 Y35.308 Z-2.183 I-0.912 J0
X18.006 Y35.308 Z-2.27 I0.912 J0
X16.181 Y35.308 Z-2.357 I-0.912 J0
X18.006 Y35.308 Z-2.444 I0.912 J0
X16.181 Y35.308 Z-2.532 I-0.912 J0
X18.006 Y35.308 Z-2.619 I0.912 J0
X16.181 Y35.308 Z-2.706 I-0.912 J0
X18.006 Y35.308 Z-2.794 I0.912 J0
X16.181 Y35.308 Z-2.881 I-0.912 J0
X18.006 Y35.308 Z-2.968 I0.912 J0
X16.181 Y35.308 Z-3.056 I-0.912 J0
X18.006 Y35.308 Z-3.143 I0.912 J0
X16.181 Y35.308 Z-3.23 I-0.912 J0
X18.006 Y35.308 Z-3.317 I0.912 J0
X16.181 Y35.308 Z-3.405 I-0.912 J0
X18.006 Y35.308 Z-3.492 I0.912 J0
X16.181 Y35.308 Z-3.579 I-0.912 J0
X18.006 Y35.308 Z-3.667 I0.912 J0
X16.181 Y35.308 Z-3.754 I-0.912 J0
X18.006 Y35.308 Z-3.841 I0.912 J0
X16.181 Y35.308 Z-3.929 I-0.912 J0
X18.006 Y35.308 Z-4.016 I0.912 J0
X16.181 Y35.308 Z-4.103 I-0.912 J0
X18.006 Y35.308 Z-4.19 I0.912 J0
X16.181 Y35.308 Z-4.278 I-0.912 J0
X18.006 Y35.308 Z-4.365 I0.912 J0
X16.181 Y35.308 Z-4.452 I-0.912 J0
X18.006 Y35.308 Z-4.54 I0.912 J0
X16.181 Y35.308 Z-4.627 I-0.912 J0
X18.006 Y35.308 Z-4.714 I0.912 J0
X16.181 Y35.308 Z-4.802 I-0.912 J0
X18.006 Y35.308 Z-4.889 I0.912 J0
X16.181 Y35.308 Z-4.976 I-0.912 J0
X16.495 Y34.619 Z-5 I0.912 J0
X17.691 Y35.997 I0.598 J0.689
X16.495 Y34.619 I-0.598 J-0.689
X16.943 Y34.65 I0.208 J0.24 F520
G1 X17.047 Y34.77
X17.093 Y34.824 Z-4.992
X17.137 Y34.874 Z-4.969
X17.177 Y34.92 Z-4.931
X17.21 Y34.958 Z-4.88
X17.235 Y34.986 Z-4.82
X17.25 Y35.004 Z-4.753
X17.255 Y35.01 Z-4.682
Z6 F650
X0.76 Y48.743
Z2
Z0.317 F520
G18 G2 X1.077 Z0 I0.317 K0
G1 X1.236
G17 G3 X1.553 Y49.061 I0 J0.317
X-0.125 Y49.061 Z-0.085 I-0.839 J0 F650
X1.553 Y49.061 Z-0.17 I0.839 J0
X-0.125 Y49.061 Z-0.254 I-0.839 J0
X1.553 Y49.061 Z-0.339 I0.839 J0
X-0.125 Y49.061 Z-0.424 I-0.839 J0
X1.553 Y49.061 Z-0.509 I0.839 J0
X-0.125 Y49.061 Z-0.593 I-0.839 J0
X1.553 Y49.061 Z-0.678 I0.839 J0
X-0.125 Y49.061 Z-0.763 I-0.839 J0
X1.553 Y49.061 Z-0.848 I0.839 J0
X-0.125 Y49.061 Z-0.932 I-0.839 J0
X1.553 Y49.061 Z-1.017 I0.839 J0
X-0.125 Y49.061 Z-1.102 I-0.839 J0
X1.553 Y49.061 Z-1.187 I0.839 J0
X-0.125 Y49.061 Z-1.271 I-0.839 J0
X1.553 Y49.061 Z-1.356 I0.839 J0
X-0.125 Y49.061 Z-1.441 I-0.839 J0
X1.553 Y49.061 Z-1.526 I0.839 J0
X-0.125 Y49.061 Z-1.61 I-0.839 J0
X1.553 Y49.061 Z-1.695 I0.839 J0
X-0.125 Y49.061 Z-1.78 I-0.839 J0
X1.553 Y49.061 Z-1.865 I0.839 J0
X-0.125 Y49.061 Z-1.949 I-0.839 J0
X1.553 Y49.061 Z-2.034 I0.839 J0
X-0.125 Y49.061 Z-2.119 I-0.839 J0
X1.553 Y49.061 Z-2.204 I0.839 J0
X-0.125 Y49.061 Z-2.288 I-0.839 J0
X1.553 Y49.061 Z-2.373 I0.839 J0
X-0.125 Y49.061 Z-2.458 I-0.839 J0
X1.553 Y49.061 Z-2.543 I0.839 J0
X-0.125 Y49.061 Z-2.627 I-0.839 J0
X1.553 Y49.061 Z-2.712 I0.839 J0
X-0.125 Y49.061 Z-2.797 I-0.839 J0
X1.553 Y49.061 Z-2.882 I0.839 J0
X-0.125 Y49.061 Z-2.966 I-0.839 J0
X1.553 Y49.061 Z-3.051 I0.839 J0
X-0.125 Y49.061 Z-3.136 I-0.839 J0
X1.553 Y49.061 Z-3.221 I0.839 J0
X-0.125 Y49.061 Z-3.305 I-0.839 J0
X1.553 Y49.061 Z-3.39 I0.839 J0
X-0.125 Y49.061 Z-3.475 I-0.839 J0
X1.553 Y49.061 Z-3.56 I0.839 J0
X-0.125 Y49.061 Z-3.644 I-0.839 J0
X1.553 Y49.061 Z-3.729 I0.839 J0
X-0.125 Y49.061 Z-3.814 I-0.839 J0
X1.553 Y49.061 Z-3.899 I0.839 J0
X-0.125 Y49.061 Z-3.983 I-0.839 J0
X1.553 Y49.061 Z-4.068 I0.839 J0
X-0.125 Y49.061 Z-4.153 I-0.839 J0
X1.553 Y49.061 Z-4.238 I0.839 J0
X-0.125 Y49.061 Z-4.322 I-0.839 J0
X1.553 Y49.061 Z-4.407 I0.839 J0
X-0.125 Y49.061 Z-4.492 I-0.839 J0
X1.553 Y49.061 Z-4.577 I0.839 J0
X-0.125 Y49.061 Z-4.661 I-0.839 J0
X1.553 Y49.061 Z-4.746 I0.839 J0
X-0.125 Y49.061 Z-4.831 I-0.839 J0
X1.553 Y49.061 Z-4.916 I0.839 J0
X-0.125 Y49.072 Z-5 I-0.839 J0
X1.553 Y49.05 I0.839 J-0.011
X-0.125 Y49.072 I-0.839 J0.011
X0.188 Y48.75 I0.317 J-0.004 F520
G1 X0.347 Y48.748
X0.417 Y48.747 Z-4.992
X0.484 Y48.746 Z-4.969
X0.545 Y48.745 Z-4.931
X0.595 Z-4.88
X0.633 Y48.744 Z-4.82
X0.656 Z-4.753
X0.664 Z-4.682
Z6 F650
X6.285 Y41.556
Z2
Z0.317 F520
G18 G2 X6.602 Z0 I0.317 K0
G1 X6.761
G17 G3 X7.079 Y41.874 I0 J0.317
X5.254 Y41.874 Z-0.087 I-0.912 J0 F650
X7.079 Y41.874 Z-0.175 I0.912 J0
X5.254 Y41.874 Z-0.262 I-0.912 J0
X7.079 Y41.874 Z-0.349 I0.912 J0
X5.254 Y41.874 Z-0.437 I-0.912 J0
X7.079 Y41.874 Z-0.524 I0.912 J0
X5.254 Y41.874 Z-0.611 I-0.912 J0
X7.079 Y41.874 Z-0.698 I0.912 J0
X5.254 Y41.874 Z-0.786 I-0.912 J0
X7.079 Y41.874 Z-0.873 I0.912 J0
X5.254 Y41.874 Z-0.96 I-0.912 J0
X7.079 Y41.874 Z-1.048 I0.912 J0
X5.254 Y41.874 Z-1.135 I-0.912 J0
X7.079 Y41.874 Z-1.222 I0.912 J0
X5.254 Y41.874 Z-1.31 I-0.912 J0
X7.079 Y41.874 Z-1.397 I0.912 J0
X5.254 Y41.874 Z-1.484 I-0.912 J0
X7.079 Y41.874 Z-1.571 I0.912 J0
X5.254 Y41.874 Z-1.659 I-0.912 J0
X7.079 Y41.874 Z-1.746 I0.912 J0
X5.254 Y41.874 Z-1.833 I-0.912 J0
X7.079 Y41.874 Z-1.921 I0.912 J0
X5.254 Y41.874 Z-2.008 I-0.912 J0
X7.079 Y41.874 Z-2.095 I0.912 J0
X5.254 Y41.874 Z-2.183 I-0.912 J0
X7.079 Y41.874 Z-2.27 I0.912 J0
X5.254 Y41.874 Z-2.357 I-0.912 J0
X7.079 Y41.874 Z-2.444 I0.912 J0
X5.254 Y41.874 Z-2.532 I-0.912 J0
X7.079 Y41.874 Z-2.619 I0.912 J0
X5.254 Y41.874 Z-2.706 I-0.912 J0
X7.079 Y41.874 Z-2.794 I0.912 J0
X5.254 Y41.874 Z-2.881 I-0.912 J0
X7.079 Y41.874 Z-2.968 I0.912 J0
X5.254 Y41.874 Z-3.056 I-0.912 J0
X7.079 Y41.874 Z-3.143 I0.912 J0
X5.254 Y41.874 Z-3.23 I-0.912 J0
X7.079 Y41.874 Z-3.317 I0.912 J0
X5.254 Y41.874 Z-3.405 I-0.912 J0
X7.079 Y41.874 Z-3.492 I0.912 J0
X5.254 Y41.874 Z-3.579 I-0.912 J0
X7.079 Y41.874 Z-3.667 I0.912 J0
X5.254 Y41.874 Z-3.754 I-0.912 J0
X7.079 Y41.874 Z-3.841 I0.912 J0
X5.254 Y41.874 Z-3.929 I-0.912 J0
X7.079 Y41.874 Z-4.016 I0.912 J0
X5.254 Y41.874 Z-4.103 I-0.912 J0
X7.079 Y41.874 Z-4.19 I0.912 J0
X5.254 Y41.874 Z-4.278 I-0.912 J0
X7.079 Y41.874 Z-4.365 I0.912 J0
X5.254 Y41.874 Z-4.452 I-0.912 J0
X7.079 Y41.874 Z-4.54 I0.912 J0
X5.254 Y41.874 Z-4.627 I-0.912 J0
X7.079 Y41.874 Z-4.714 I0.912 J0
X5.254 Y41.874 Z-4.802 I-0.912 J0
X7.079 Y41.874 Z-4.889 I0.912 J0
X5.254 Y41.874 Z-4.976 I-0.912 J0
X5.568 Y41.184 Z-5 I0.912 J0
X6.764 Y42.563 I0.598 J0.689
X5.568 Y41.184 I-0.598 J-0.689
X6.016 Y41.216 I0.208 J0.24 F520
G1 X6.12 Y41.336
X6.166 Y41.389 Z-4.992
X6.21 Y41.44 Z-4.969
X6.25 Y41.485 Z-4.931
X6.283 Y41.523 Z-4.88
X6.307 Y41.552 Z-4.82
X6.323 Y41.57 Z-4.753
X6.328 Y41.576 Z-4.682
Z6 F650
X14.702 Y47.808
Z2
Z0.317 F520
G18 G2 X15.02 Z0 I0.318 K0
G1 X15.178
G17 G3 X15.496 Y48.126 I0 J0.317
X13.671 Y48.126 Z-0.087 I-0.912 J0 F650
X15.496 Y48.126 Z-0.175 I0.912 J0
X13.671 Y48.126 Z-0.262 I-0.912 J0
X15.496 Y48.126 Z-0.349 I0.912 J0
X13.671 Y48.126 Z-0.437 I-0.912 J0
X15.496 Y48.126 Z-0.524 I0.912 J0
X13.671 Y48.126 Z-0.611 I-0.912 J0
X15.496 Y48.126 Z-0.698 I0.912 J0
X13.671 Y48.126 Z-0.786 I-0.912 J0
X15.496 Y48.126 Z-0.873 I0.912 J0
X13.671 Y48.126 Z-0.96 I-0.912 J0
X15.496 Y48.126 Z-1.048 I0.912 J0
X13.671 Y48.126 Z-1.135 I-0.912 J0
X15.496 Y48.126 Z-1.222 I0.912 J0
X13.671 Y48.126 Z-1.31 I-0.912 J0
X15.496 Y48.126 Z-1.397 I0.912 J0
X13.671 Y48.126 Z-1.484 I-0.912 J0
X15.496 Y48.126 Z-1.571 I0.912 J0
X13.671 Y48.126 Z-1.659 I-0.912 J0
X15.496 Y48.126 Z-1.746 I0.912 J0
X13.671 Y48.126 Z-1.833 I-0.912 J0
X15.496 Y48.126 Z-1.921 I0.912 J0
X13.671 Y48.126 Z-2.008 I-0.912 J0
X15.496 Y48.126 Z-2.095 I0.912 J0
X13.671 Y48.126 Z-2.183 I-0.912 J0
X15.496 Y48.126 Z-2.27 I0.912 J0
X13.671 Y48.126 Z-2.357 I-0.912 J0
X15.496 Y48.126 Z-2.444 I0.912 J0
X13.671 Y48.126 Z-2.532 I-0.912 J0
X15.496 Y48.126 Z-2.619 I0.912 J0
X13.671 Y48.126 Z-2.706 I-0.912 J0
X15.496 Y48.126 Z-2.794 I0.912 J0
X13.671 Y48.126 Z-2.881 I-0.912 J0
X15.496 Y48.126 Z-2.968 I0.912 J0
X13.671 Y48.126 Z-3.056 I-0.912 J0
X15.496 Y48.126 Z-3.143 I0.912 J0
X13.671 Y48.126 Z-3.23 I-0.912 J0
X15.496 Y48.126 Z-3.317 I0.912 J0
X13.671 Y48.126 Z-3.405 I-0.912 J0
X15.496 Y48.126 Z-3.492 I0.912 J0
X13.671 Y48.126 Z-3.579 I-0.912 J0
X15.496 Y48.126 Z-3.667 I0.912 J0
X13.671 Y48.126 Z-3.754 I-0.912 J0
X15.496 Y48.126 Z-3.841 I0.912 J0
X13.671 Y48.126 Z-3.929 I-0.912 J0
X15.496 Y48.126 Z-4.016 I0.912 J0
X13.671 Y48.126 Z-4.103 I-0.912 J0
X15.496 Y48.126 Z-4.19 I0.912 J0
X13.671 Y48.126 Z-4.278 I-0.912 J0
X15.496 Y48.126 Z-4.365 I0.912 J0
X13.671 Y48.126 Z-4.452 I-0.912 J0
X15.496 Y48.126 Z-4.54 I0.912 J0
X13.671 Y48.126 Z-4.627 I-0.912 J0
X15.496 Y48.126 Z-4.714 I0.912 J0
X13.671 Y48.126 Z-4.802 I-0.912 J0
X15.496 Y48.126 Z-4.889 I0.912 J0
X13.671 Y48.126 Z-4.976 I-0.912 J0
X13.985 Y47.437 Z-5 I0.912 J0
X15.181 Y48.815 I0.598 J0.689
X13.985 Y47.437 I-0.598 J-0.689
X14.433 Y47.468 I0.208 J0.24 F520
G1 X14.537 Y47.588
X14.584 Y47.642 Z-4.992
X14.628 Y47.692 Z-4.969
X14.667 Y47.738 Z-4.931
X14.7 Y47.776 Z-4.88
X14.725 Y47.804 Z-4.82
X14.74 Y47.822 Z-4.753
X14.745 Y47.828 Z-4.682
Z6 F650
X10.051 Y59.347
Z2
Z0.317 F520
G18 G2 X10.369 Z0 I0.318 K0
G1 X10.528
G17 G3 X10.845 Y59.665 I0 J0.318
X9.02 Y59.665 Z-0.087 I-0.912 J0 F650
X10.845 Y59.665 Z-0.175 I0.912 J0
X9.02 Y59.665 Z-0.262 I-0.912 J0
X10.845 Y59.665 Z-0.349 I0.912 J0
X9.02 Y59.665 Z-0.437 I-0.912 J0
X10.845 Y59.665 Z-0.524 I0.912 J0
X9.02 Y59.665 Z-0.611 I-0.912 J0
X10.845 Y59.665 Z-0.698 I0.912 J0
X9.02 Y59.665 Z-0.786 I-0.912 J0
X10.845 Y59.665 Z-0.873 I0.912 J0
X9.02 Y59.665 Z-0.96 I-0.912 J0
X10.845 Y59.665 Z-1.048 I0.912 J0
X9.02 Y59.665 Z-1.135 I-0.912 J0
X10.845 Y59.665 Z-1.222 I0.912 J0
X9.02 Y59.665 Z-1.31 I-0.912 J0
X10.845 Y59.665 Z-1.397 I0.912 J0
X9.02 Y59.665 Z-1.484 I-0.912 J0
X10.845 Y59.665 Z-1.571 I0.912 J0
X9.02 Y59.665 Z-1.659 I-0.912 J0
X10.845 Y59.665 Z-1.746 I0.912 J0
X9.02 Y59.665 Z-1.833 I-0.912 J0
X10.845 Y59.665 Z-1.921 I0.912 J0
X9.02 Y59.665 Z-2.008 I-0.912 J0
X10.845 Y59.665 Z-2.095 I0.912 J0
X9.02 Y59.665 Z-2.183 I-0.912 J0
X10.845 Y59.665 Z-2.27 I0.912 J0
X9.02 Y59.665 Z-2.357 I-0.912 J0
X10.845 Y59.665 Z-2.444 I0.912 J0
X9.02 Y59.665 Z-2.532 I-0.912 J0
X10.845 Y59.665 Z-2.619 I0.912 J0
X9.02 Y59.665 Z-2.706 I-0.912 J0
X10.845 Y59.665 Z-2.794 I0.912 J0
X9.02 Y59.665 Z-2.881 I-0.912 J0
X10.845 Y59.665 Z-2.968 I0.912 J0
X9.02 Y59.665 Z-3.056 I-0.912 J0
X10.845 Y59.665 Z-3.143 I0.912 J0
X9.02 Y59.665 Z-3.23 I-0.912 J0
X10.845 Y59.665 Z-3.317 I0.912 J0
X9.02 Y59.665 Z-3.405 I-0.912 J0
X10.845 Y59.665 Z-3.492 I0.912 J0
X9.02 Y59.665 Z-3.579 I-0.912 J0
X10.845 Y59.665 Z-3.667 I0.912 J0
X9.02 Y59.665 Z-3.754 I-0.912 J0
X10.845 Y59.665 Z-3.841 I0.912 J0
X9.02 Y59.665 Z-3.929 I-0.912 J0
X10.845 Y59.665 Z-4.016 I0.912 J0
X9.02 Y59.665 Z-4.103 I-0.912 J0
X10.845 Y59.665 Z-4.19 I0.912 J0
X9.02 Y59.665 Z-4.278 I-0.912 J0
X10.845 Y59.665 Z-4.365 I0.912 J0
X9.02 Y59.665 Z-4.452 I-0.912 J0
X10.845 Y59.665 Z-4.54 I0.912 J0
X9.02 Y59.665 Z-4.627 I-0.912 J0
X10.845 Y59.665 Z-4.714 I0.912 J0
X9.02 Y59.665 Z-4.802 I-0.912 J0
X10.845 Y59.665 Z-4.889 I0.912 J0
X9.02 Y59.665 Z-4.976 I-0.912 J0
X9.335 Y58.975 Z-5 I0.912 J0
X10.531 Y60.354 I0.598 J0.689
X9.335 Y58.975 I-0.598 J-0.689
X9.782 Y59.007 I0.208 J0.24 F520
G1 X9.886 Y59.127
X9.933 Y59.18 Z-4.992
X9.977 Y59.231 Z-4.969
X10.016 Y59.277 Z-4.931
X10.049 Y59.315 Z-4.88
X10.074 Y59.343 Z-4.82
X10.089 Y59.361 Z-4.753
X10.095 Y59.367 Z-4.682
Z16 F650
(When using Fusion 360 for Personal Use, the feedrate of)
(rapid moves is reduced to match the feedrate of cutting)
(moves, which can increase machining time. Unrestricted rapid)
(moves are available with a Fusion 360 Subscription.)

(Contornatura 2D3)
G0 X6.566 Y87.965
G1 Z16 F650
Z6
Z1.635 F260
Z0.567
G19 G2 Y87.647 Z0.25 J-0.317 K0 F520
G1 Y87.33
G17 G3 X6.883 Y87.012 I0.317 J0
G2 X8.291 Y86.158 I0 J-1.588 F650
G1 X10.755 Y81.424
X15.855
G2 X16.888 Y78.632 I0 J-1.588
G1 X13.043 Y75.333
X15.108 Y71.487
G2 X13.534 Y69.158 I-1.399 J-0.751
G1 X11.78 Y69.353
X11.974 Y69.107
X12.361 Y68.631
X12.749 Y68.167
X13.139 Y67.717
X13.531 Y67.281
X13.924 Y66.858
X14.319 Y66.45
X14.715 Y66.057
X15.112 Y65.678
X15.511 Y65.315
X15.911 Y64.967
X16.313 Y64.635
X16.717 Y64.317
X17.123 Y64.015
X17.531 Y63.727
X17.942 Y63.453
X18.355 Y63.193
X18.77 Y62.947
X19.189 Y62.714
X19.61 Y62.493
X20.033 Y62.286
X20.46 Y62.09
X20.889 Y61.907
X21.321 Y61.735
X21.756 Y61.575
X22.193 Y61.427
X22.652 Y61.285
G2 X23.656 Y59.18 I-0.471 J-1.516
G1 X23.526 Y58.856
X23.512 Y58.821
X23.378 Y58.506
X23.361 Y58.469
X23.222 Y58.165
X23.204 Y58.127
X23.06 Y57.834
X23.04 Y57.794
X22.892 Y57.511
X22.869 Y57.469
X22.715 Y57.197
X22.689 Y57.153
X22.531 Y56.893
X22.501 Y56.846
X22.338 Y56.597
X22.305 Y56.549
X22.136 Y56.312
X22.099 Y56.261
X21.925 Y56.036
X21.882 Y55.983
X21.703 Y55.77
X21.655 Y55.715
X21.47 Y55.515
X21.416 Y55.46
X21.225 Y55.273
X21.166 Y55.217
X20.969 Y55.043
X20.903 Y54.987
X20.7 Y54.826
X20.629 Y54.773
X20.42 Y54.626
X20.342 Y54.574
X20.128 Y54.441
X20.046 Y54.394
X19.825 Y54.274
X19.742 Y54.232
X19.515 Y54.126
X19.427 Y54.088
X19.195 Y53.996
X19.109 Y53.965
X18.87 Y53.886
X18.784 Y53.86
X18.653 Y53.825
X18.746 Y53.721
X19.091 Y53.35
X19.434 Y52.996
X19.776 Y52.659
X20.115 Y52.341
X20.452 Y52.041
X20.786 Y51.761
X21.118 Y51.5
X21.446 Y51.258
X21.771 Y51.037
X22.093 Y50.835
X22.411 Y50.653
X22.726 Y50.491
X23.039 Y50.347
X23.349 Y50.221
X23.658 Y50.112
X23.966 Y50.02
X24.274 Y49.944
X24.582 Y49.883
X24.892 Y49.837
X25.203 Y49.806
X25.515 Y49.79
X25.831 Y49.787
X26.148 Y49.799
X26.468 Y49.825
X26.79 Y49.864
X27.146 Y49.923
G2 X28.876 Y47.757 I0.26 J-1.566
G1 X28.744 Y47.434
X28.724 Y47.387
X28.583 Y47.072
X28.56 Y47.024
X28.411 Y46.716
X28.386 Y46.668
X28.228 Y46.369
X28.201 Y46.32
X28.033 Y46.029
X28.004 Y45.98
X27.827 Y45.697
X27.795 Y45.647
X27.609 Y45.372
X27.573 Y45.323
X27.378 Y45.057
X27.34 Y45.007
X27.134 Y44.75
X27.093 Y44.7
X26.878 Y44.452
X26.834 Y44.403
X26.608 Y44.164
X26.561 Y44.116
X26.326 Y43.886
X26.276 Y43.84
X26.03 Y43.62
X25.978 Y43.575
X25.722 Y43.365
X25.668 Y43.323
X25.401 Y43.122
X25.347 Y43.083
X25.069 Y42.892
X25.014 Y42.856
X24.725 Y42.674
X24.671 Y42.641
X24.371 Y42.469
X24.318 Y42.44
X24.008 Y42.278
X23.957 Y42.252
X23.637 Y42.098
X23.587 Y42.076
X23.257 Y41.931
X23.208 Y41.911
X22.868 Y41.776
X22.823 Y41.758
X22.473 Y41.632
X22.429 Y41.616
X22.071 Y41.498
X22.029 Y41.485
X21.875 Y41.439
X21.996 Y41.341
X22.488 Y40.956
X22.974 Y40.589
X23.454 Y40.24
X23.928 Y39.91
X24.396 Y39.599
X24.857 Y39.307
X25.311 Y39.036
X25.756 Y38.786
X26.194 Y38.558
X26.623 Y38.351
X27.043 Y38.166
X27.455 Y38.002
X27.858 Y37.861
X28.252 Y37.74
X28.638 Y37.641
X29.017 Y37.561
X29.39 Y37.501
X29.756 Y37.46
X30.117 Y37.436
X30.474 Y37.431
X30.826 Y37.442
X31.176 Y37.47
X31.522 Y37.514
X31.865 Y37.575
X32.206 Y37.652
X32.545 Y37.745
X32.915 Y37.864
G2 X34.985 Y36.213 I0.489 J-1.51
G1 X34.945 Y35.77
X34.938 Y35.702
X34.88 Y35.267
X34.869 Y35.197
X34.793 Y34.77
X34.778 Y34.699
X34.684 Y34.28
X34.666 Y34.207
X34.552 Y33.796
X34.53 Y33.723
X34.398 Y33.319
X34.371 Y33.245
X34.219 Y32.85
X34.188 Y32.776
X34.017 Y32.389
X33.982 Y32.315
X33.79 Y31.937
X33.751 Y31.864
X33.538 Y31.495
X33.495 Y31.424
X33.262 Y31.064
X33.215 Y30.995
X32.961 Y30.644
X32.911 Y30.579
X32.635 Y30.237
X32.583 Y30.175
X32.286 Y29.842
X32.233 Y29.785
X31.914 Y29.462
X31.86 Y29.41
X31.519 Y29.095
X31.466 Y29.048
X31.104 Y28.743
X31.052 Y28.701
X30.669 Y28.405
X30.619 Y28.367
X30.215 Y28.08
X30.167 Y28.047
X29.744 Y27.768
X29.698 Y27.739
X29.255 Y27.468
X29.211 Y27.443
X28.749 Y27.18
X28.708 Y27.158
X28.228 Y26.903
X28.189 Y26.883
X27.69 Y26.637
X27.654 Y26.619
X27.138 Y26.38
X27.103 Y26.364
X26.57 Y26.132
X26.538 Y26.118
X25.988 Y25.893
X25.957 Y25.881
X25.392 Y25.663
X25.56 Y25.509
X26.07 Y25.052
X26.582 Y24.608
X27.095 Y24.177
X27.608 Y23.759
X28.123 Y23.355
X28.638 Y22.966
X29.154 Y22.591
X29.672 Y22.231
X30.19 Y21.887
X30.711 Y21.558
X31.232 Y21.245
X31.756 Y20.948
X32.282 Y20.667
X32.81 Y20.401
X33.341 Y20.151
X33.876 Y19.916
X34.413 Y19.696
X34.954 Y19.49
X35.498 Y19.298
X36.046 Y19.12
X36.597 Y18.955
X37.152 Y18.803
X37.71 Y18.664
X38.27 Y18.537
X38.834 Y18.422
X39.4 Y18.32
X39.969 Y18.229
X40.557 Y18.148
G2 X41.644 Y15.67 I-0.217 J-1.573
G1 X41.236 Y15.082
X41.188 Y15.018
X40.754 Y14.456
X40.703 Y14.392
X40.243 Y13.856
X40.187 Y13.795
X39.701 Y13.284
X39.641 Y13.225
X39.129 Y12.741
X39.065 Y12.684
X38.526 Y12.228
X38.459 Y12.174
X37.892 Y11.744
X37.821 Y11.694
X37.227 Y11.293
X37.172 Y11.258
X36.865 Y11.068
X36.828 Y11.045
X36.513 Y10.863
X36.475 Y10.842
X36.153 Y10.666
X36.115 Y10.646
X35.786 Y10.478
X35.748 Y10.459
X35.411 Y10.299
X35.374 Y10.281
X35.029 Y10.128
X34.992 Y10.112
X34.64 Y9.966
X34.602 Y9.95
X34.243 Y9.812
X34.206 Y9.799
X33.84 Y9.668
X33.802 Y9.655
X33.428 Y9.532
X33.392 Y9.52
X33.011 Y9.405
X32.975 Y9.394
X32.586 Y9.286
X32.552 Y9.277
X32.155 Y9.176
X32.121 Y9.168
X31.717 Y9.075
X31.684 Y9.068
X31.273 Y8.982
X31.241 Y8.976
X30.822 Y8.898
X30.791 Y8.892
X30.365 Y8.822
X30.335 Y8.817
X29.902 Y8.753
X29.859 Y8.748
X28.971 Y8.642
X28.918 Y8.636
X28.002 Y8.559
X27.953 Y8.555
X27.01 Y8.504
X26.965 Y8.503
X25.996 Y8.478
X25.955
X24.961 Y8.479
X24.923
X23.904 Y8.504
X23.869 Y8.506
X22.826 Y8.555
X22.793 Y8.556
X21.727 Y8.628
X21.697 Y8.631
X20.609 Y8.725
X20.581 Y8.727
X19.47 Y8.843
X19.445 Y8.846
X18.313 Y8.982
X18.289 Y8.985
X17.135 Y9.142
X17.113 Y9.146
X15.939 Y9.323
X15.917 Y9.326
X15.354 Y9.419
Y0
G2 X13.767 Y-1.587 I-1.588 J0
G1 X0
G2 X-1.587 Y0 I0 J1.587
G1 Y9.419
X-2.151 Y9.326
X-2.172 Y9.323
X-3.346 Y9.146
X-3.369 Y9.142
X-4.522 Y8.985
X-4.546 Y8.982
X-5.678 Y8.846
X-5.704 Y8.843
X-6.814 Y8.727
X-6.842 Y8.725
X-7.931 Y8.631
X-7.961 Y8.628
X-9.027 Y8.556
X-9.059 Y8.555
X-10.102 Y8.506
X-10.137 Y8.504
X-11.156 Y8.479
X-11.194
X-12.188 Y8.478
X-12.23
X-13.199 Y8.503
X-13.244 Y8.504
X-14.187 Y8.555
X-14.236 Y8.559
X-15.151 Y8.636
X-15.205 Y8.642
X-16.093 Y8.748
X-16.135 Y8.753
X-16.568 Y8.817
X-16.598 Y8.822
X-17.024 Y8.892
X-17.055 Y8.898
X-17.474 Y8.976
X-17.506 Y8.982
X-17.917 Y9.068
X-17.95 Y9.075
X-18.354 Y9.168
X-18.389 Y9.176
X-18.785 Y9.277
X-18.819 Y9.286
X-19.208 Y9.394
X-19.244 Y9.405
X-19.626 Y9.52
X-19.662 Y9.532
X-20.036 Y9.655
X-20.073 Y9.668
X-20.44 Y9.799
X-20.476 Y9.812
X-20.836 Y9.95
X-20.873 Y9.966
X-21.225 Y10.112
X-21.263 Y10.128
X-21.607 Y10.281
X-21.645 Y10.299
X-21.982 Y10.459
X-22.019 Y10.478
X-22.349 Y10.646
X-22.386 Y10.666
X-22.709 Y10.842
X-22.746 Y10.863
X-23.061 Y11.045
X-23.098 Y11.068
X-23.406 Y11.258
X-23.46 Y11.293
X-24.055 Y11.694
X-24.125 Y11.744
X-24.692 Y12.174
X-24.759 Y12.227
X-25.299 Y12.684
X-25.362 Y12.741
X-25.875 Y13.225
X-25.935 Y13.284
X-26.421 Y13.795
X-26.476 Y13.856
X-26.936 Y14.392
X-26.988 Y14.456
X-27.422 Y15.018
X-27.469 Y15.082
X-27.877 Y15.67
G2 X-26.79 Y18.148 I1.304 J0.906
G1 X-26.203 Y18.229
X-25.634 Y18.32
X-25.067 Y18.422
X-24.504 Y18.537
X-23.943 Y18.664
X-23.385 Y18.803
X-22.831 Y18.955
X-22.28 Y19.12
X-21.732 Y19.298
X-21.187 Y19.49
X-20.647 Y19.696
X-20.109 Y19.916
X-19.575 Y20.151
X-19.044 Y20.401
X-18.515 Y20.667
X-17.989 Y20.948
X-17.466 Y21.245
X-16.944 Y21.558
X-16.424 Y21.887
X-15.905 Y22.231
X-15.388 Y22.591
X-14.871 Y22.966
X-14.356 Y23.355
X-13.842 Y23.759
X-13.328 Y24.177
X-12.816 Y24.608
X-12.304 Y25.052
X-11.793 Y25.509
X-11.626 Y25.663
X-12.191 Y25.881
X-12.221 Y25.893
X-12.771 Y26.118
X-12.804 Y26.132
X-13.337 Y26.364
X-13.371 Y26.38
X-13.887 Y26.619
X-13.924 Y26.637
X-14.422 Y26.883
X-14.461 Y26.903
X-14.942 Y27.158
X-14.982 Y27.18
X-15.445 Y27.442
X-15.488 Y27.468
X-15.931 Y27.739
X-15.977 Y27.768
X-16.401 Y28.047
X-16.449 Y28.08
X-16.852 Y28.367
X-16.903 Y28.405
X-17.286 Y28.701
X-17.338 Y28.743
X-17.7 Y29.048
X-17.753 Y29.095
X-18.093 Y29.41
X-18.147 Y29.462
X-18.466 Y29.785
X-18.519 Y29.842
X-18.817 Y30.175
X-18.869 Y30.236
X-19.144 Y30.578
X-19.194 Y30.644
X-19.448 Y30.995
X-19.496 Y31.064
X-19.729 Y31.424
X-19.772 Y31.495
X-19.984 Y31.864
X-20.023 Y31.937
X-20.215 Y32.315
X-20.25 Y32.389
X-20.422 Y32.776
X-20.453 Y32.85
X-20.605 Y33.245
X-20.631 Y33.319
X-20.763 Y33.722
X-20.786 Y33.796
X-20.899 Y34.207
X-20.917 Y34.28
X-21.012 Y34.699
X-21.026 Y34.77
X-21.102 Y35.198
X-21.113 Y35.267
X-21.171 Y35.702
X-21.178 Y35.77
X-21.218 Y36.213
G2 X-19.148 Y37.864 I1.581 J0.141
G1 X-18.778 Y37.745
X-18.439 Y37.652
X-18.099 Y37.575
X-17.755 Y37.514
X-17.409 Y37.47
X-17.06 Y37.442
X-16.707 Y37.431
X-16.351 Y37.436
X-15.99 Y37.46
X-15.623 Y37.501
X-15.251 Y37.561
X-14.872 Y37.641
X-14.486 Y37.74
X-14.091 Y37.861
X-13.688 Y38.002
X-13.277 Y38.166
X-12.856 Y38.351
X-12.427 Y38.558
X-11.99 Y38.786
X-11.544 Y39.036
X-11.091 Y39.307
X-10.63 Y39.599
X-10.162 Y39.91
X-9.688 Y40.24
X-9.207 Y40.589
X-8.721 Y40.956
X-8.229 Y41.341
X-8.108 Y41.439
X-8.262 Y41.485
X-8.304 Y41.498
X-8.663 Y41.616
X-8.707 Y41.632
X-9.056 Y41.758
X-9.102 Y41.776
X-9.442 Y41.911
X-9.49 Y41.931
X-9.82 Y42.075
X-9.87 Y42.098
X-10.19 Y42.252
X-10.242 Y42.278
X-10.552 Y42.44
X-10.605 Y42.469
X-10.904 Y42.641
X-10.959 Y42.674
X-11.247 Y42.856
X-11.302 Y42.891
X-11.58 Y43.083
X-11.634 Y43.122
X-11.902 Y43.323
X-11.955 Y43.365
X-12.212 Y43.575
X-12.264 Y43.62
X-12.51 Y43.84
X-12.559 Y43.886
X-12.795 Y44.116
X-12.842 Y44.164
X-13.067 Y44.403
X-13.111 Y44.452
X-13.327 Y44.7
X-13.368 Y44.75
X-13.573 Y45.007
X-13.611 Y45.057
X-13.807 Y45.323
X-13.842 Y45.372
X-14.028 Y45.647
X-14.06 Y45.697
X-14.237 Y45.98
X-14.267 Y46.029
X-14.435 Y46.321
X-14.461 Y46.369
X-14.62 Y46.668
X-14.644 Y46.717
X-14.794 Y47.024
X-14.816 Y47.072
X-14.957 Y47.387
X-14.977 Y47.434
X-15.109 Y47.757
G2 X-13.379 Y49.923 I1.47 J0.6
G1 X-13.023 Y49.864
X-12.701 Y49.825
X-12.381 Y49.799
X-12.064 Y49.787
X-11.749 Y49.79
X-11.436 Y49.806
X-11.125 Y49.837
X-10.816 Y49.883
X-10.507 Y49.944
X-10.199 Y50.02
X-9.891 Y50.112
X-9.583 Y50.221
X-9.272 Y50.347
X-8.96 Y50.491
X-8.645 Y50.653
X-8.326 Y50.835
X-8.005 Y51.037
X-7.68 Y51.258
X-7.351 Y51.5
X-7.02 Y51.761
X-6.686 Y52.041
X-6.348 Y52.341
X-6.009 Y52.66
X-5.668 Y52.996
X-5.324 Y53.35
X-4.98 Y53.721
X-4.887 Y53.825
X-5.017 Y53.86
X-5.104 Y53.886
X-5.342 Y53.965
X-5.428 Y53.996
X-5.661 Y54.088
X-5.748 Y54.126
X-5.975 Y54.232
X-6.059 Y54.274
X-6.28 Y54.394
X-6.361 Y54.441
X-6.576 Y54.574
X-6.654 Y54.626
X-6.862 Y54.773
X-6.934 Y54.826
X-7.136 Y54.987
X-7.202 Y55.043
X-7.399 Y55.217
X-7.459 Y55.273
X-7.65 Y55.46
X-7.703 Y55.515
X-7.888 Y55.716
X-7.936 Y55.77
X-8.116 Y55.983
X-8.158 Y56.035
X-8.332 Y56.261
X-8.37 Y56.312
X-8.538 Y56.549
X-8.571 Y56.597
X-8.735 Y56.846
X-8.764 Y56.893
X-8.923 Y57.153
X-8.949 Y57.197
X-9.102 Y57.469
X-9.125 Y57.511
X-9.273 Y57.794
X-9.294 Y57.834
X-9.438 Y58.127
X-9.456 Y58.165
X-9.595 Y58.469
X-9.611 Y58.506
X-9.745 Y58.821
X-9.76 Y58.856
X-9.889 Y59.181
G2 X-8.885 Y61.285 I1.474 J0.588
G1 X-8.426 Y61.427
X-7.989 Y61.576
X-7.555 Y61.735
X-7.123 Y61.907
X-6.693 Y62.09
X-6.267 Y62.286
X-5.843 Y62.493
X-5.422 Y62.714
X-5.004 Y62.947
X-4.588 Y63.193
X-4.175 Y63.453
X-3.765 Y63.727
X-3.356 Y64.015
X-2.951 Y64.317
X-2.547 Y64.635
X-2.145 Y64.967
X-1.744 Y65.315
X-1.345 Y65.678
X-0.948 Y66.057
X-0.552 Y66.45
X-0.157 Y66.858
X0.236 Y67.281
X0.627 Y67.717
X1.017 Y68.167
X1.406 Y68.631
X1.793 Y69.107
X1.986 Y69.353
X0.232 Y69.158
G2 X-1.342 Y71.487 I-0.175 J1.578
G1 X0.724 Y75.333
X-3.122 Y78.632
G2 X-2.088 Y81.424 I1.034 J1.205
G1 X3.011
X5.475 Y86.158
G2 X6.883 Y87.012 I1.408 J-0.733
G3 X7.201 Y87.33 I0 J0.318 F520
G1 Y87.647
G19 G3 Y87.965 Z0.567 J0 K0.317
G1 Z6 F650
X6.566
Z0.885 F260
Z-0.183
G2 Y87.647 Z-0.5 J-0.317 K0 F520
G1 Y87.33
G17 G3 X6.883 Y87.012 I0.317 J0
G2 X8.291 Y86.158 I0 J-1.588 F650
G1 X10.755 Y81.424
X15.855
G2 X16.888 Y78.632 I0 J-1.588
G1 X13.043 Y75.333
X15.108 Y71.487
G2 X13.534 Y69.158 I-1.399 J-0.751
G1 X11.78 Y69.353
X11.974 Y69.107
X12.361 Y68.631
X12.749 Y68.167
X13.139 Y67.717
X13.531 Y67.281
X13.924 Y66.858
X14.319 Y66.45
X14.715 Y66.057
X15.112 Y65.678
X15.511 Y65.315
X15.911 Y64.967
X16.313 Y64.635
X16.717 Y64.317
X17.123 Y64.015
X17.531 Y63.727
X17.942 Y63.453
X18.355 Y63.193
X18.77 Y62.947
X19.189 Y62.714
X19.61 Y62.493
X20.033 Y62.286
X20.46 Y62.09
X20.889 Y61.907
X21.321 Y61.735
X21.756 Y61.575
X22.193 Y61.427
X22.652 Y61.285
G2 X23.656 Y59.18 I-0.471 J-1.516
G1 X23.526 Y58.856
X23.512 Y58.821
X23.378 Y58.506
X23.361 Y58.469
X23.222 Y58.165
X23.204 Y58.127
X23.06 Y57.834
X23.04 Y57.794
X22.892 Y57.511
X22.869 Y57.469
X22.715 Y57.197
X22.689 Y57.153
X22.531 Y56.893
X22.501 Y56.846
X22.338 Y56.597
X22.305 Y56.549
X22.136 Y56.312
X22.099 Y56.261
X21.925 Y56.036
X21.882 Y55.983
X21.703 Y55.77
X21.655 Y55.715
X21.47 Y55.515
X21.416 Y55.46
X21.225 Y55.273
X21.166 Y55.217
X20.969 Y55.043
X20.903 Y54.987
X20.7 Y54.826
X20.629 Y54.773
X20.42 Y54.626
X20.342 Y54.574
X20.128 Y54.441
X20.046 Y54.394
X19.825 Y54.274
X19.742 Y54.232
X19.515 Y54.126
X19.427 Y54.088
X19.195 Y53.996
X19.109 Y53.965
X18.87 Y53.886
X18.784 Y53.86
X18.653 Y53.825
X18.746 Y53.721
X19.091 Y53.35
X19.434 Y52.996
X19.776 Y52.659
X20.115 Y52.341
X20.452 Y52.041
X20.786 Y51.761
X21.118 Y51.5
X21.446 Y51.258
X21.771 Y51.037
X22.093 Y50.835
X22.411 Y50.653
X22.726 Y50.491
X23.039 Y50.347
X23.349 Y50.221
X23.658 Y50.112
X23.966 Y50.02
X24.274 Y49.944
X24.582 Y49.883
X24.892 Y49.837
X25.203 Y49.806
X25.515 Y49.79
X25.831 Y49.787
X26.148 Y49.799
X26.468 Y49.825
X26.79 Y49.864
X27.146 Y49.923
G2 X28.876 Y47.757 I0.26 J-1.566
G1 X28.744 Y47.434
X28.724 Y47.387
X28.583 Y47.072
X28.56 Y47.024
X28.411 Y46.716
X28.386 Y46.668
X28.228 Y46.369
X28.201 Y46.32
X28.033 Y46.029
X28.004 Y45.98
X27.827 Y45.697
X27.795 Y45.647
X27.609 Y45.372
X27.573 Y45.323
X27.378 Y45.057
X27.34 Y45.007
X27.134 Y44.75
X27.093 Y44.7
X26.878 Y44.452
X26.834 Y44.403
X26.608 Y44.164
X26.561 Y44.116
X26.326 Y43.886
X26.276 Y43.84
X26.03 Y43.62
X25.978 Y43.575
X25.722 Y43.365
X25.668 Y43.323
X25.401 Y43.122
X25.347 Y43.083
X25.069 Y42.892
X25.014 Y42.856
X24.725 Y42.674
X24.671 Y42.641
X24.371 Y42.469
X24.318 Y42.44
X24.008 Y42.278
X23.957 Y42.252
X23.637 Y42.098
X23.587 Y42.076
X23.257 Y41.931
X23.208 Y41.911
X22.868 Y41.776
X22.823 Y41.758
X22.473 Y41.632
X22.429 Y41.616
X22.071 Y41.498
X22.029 Y41.485
X21.875 Y41.439
X21.996 Y41.341
X22.488 Y40.956
X22.974 Y40.589
X23.454 Y40.24
X23.928 Y39.91
X24.396 Y39.599
X24.857 Y39.307
X25.311 Y39.036
X25.756 Y38.786
X26.194 Y38.558
X26.623 Y38.351
X27.043 Y38.166
X27.455 Y38.002
X27.858 Y37.861
X28.252 Y37.74
X28.638 Y37.641
X29.017 Y37.561
X29.39 Y37.501
X29.756 Y37.46
X30.117 Y37.436
X30.474 Y37.431
X30.826 Y37.442
X31.176 Y37.47
X31.522 Y37.514
X31.865 Y37.575
X32.206 Y37.652
X32.545 Y37.745
X32.915 Y37.864
G2 X34.985 Y36.213 I0.489 J-1.51
G1 X34.945 Y35.77
X34.938 Y35.702
X34.88 Y35.267
X34.869 Y35.197
X34.793 Y34.77
X34.778 Y34.699
X34.684 Y34.28
X34.666 Y34.207
X34.552 Y33.796
X34.53 Y33.723
X34.398 Y33.319
X34.371 Y33.245
X34.219 Y32.85
X34.188 Y32.776
X34.017 Y32.389
X33.982 Y32.315
X33.79 Y31.937
X33.751 Y31.864
X33.538 Y31.495
X33.495 Y31.424
X33.262 Y31.064
X33.215 Y30.995
X32.961 Y30.644
X32.911 Y30.579
X32.635 Y30.237
X32.583 Y30.175
X32.286 Y29.842
X32.233 Y29.785
X31.914 Y29.462
X31.86 Y29.41
X31.519 Y29.095
X31.466 Y29.048
X31.104 Y28.743
X31.052 Y28.701
X30.669 Y28.405
X30.619 Y28.367
X30.215 Y28.08
X30.167 Y28.047
X29.744 Y27.768
X29.698 Y27.739
X29.255 Y27.468
X29.211 Y27.443
X28.749 Y27.18
X28.708 Y27.158
X28.228 Y26.903
X28.189 Y26.883
X27.69 Y26.637
X27.654 Y26.619
X27.138 Y26.38
X27.103 Y26.364
X26.57 Y26.132
X26.538 Y26.118
X25.988 Y25.893
X25.957 Y25.881
X25.392 Y25.663
X25.56 Y25.509
X26.07 Y25.052
X26.582 Y24.608
X27.095 Y24.177
X27.608 Y23.759
X28.123 Y23.355
X28.638 Y22.966
X29.154 Y22.591
X29.672 Y22.231
X30.19 Y21.887
X30.711 Y21.558
X31.232 Y21.245
X31.756 Y20.948
X32.282 Y20.667
X32.81 Y20.401
X33.341 Y20.151
X33.876 Y19.916
X34.413 Y19.696
X34.954 Y19.49
X35.498 Y19.298
X36.046 Y19.12
X36.597 Y18.955
X37.152 Y18.803
X37.71 Y18.664
X38.27 Y18.537
X38.834 Y18.422
X39.4 Y18.32
X39.969 Y18.229
X40.557 Y18.148
G2 X41.644 Y15.67 I-0.217 J-1.573
G1 X41.236 Y15.082
X41.188 Y15.018
X40.754 Y14.456
X40.703 Y14.392
X40.243 Y13.856
X40.187 Y13.795
X39.701 Y13.284
X39.641 Y13.225
X39.129 Y12.741
X39.065 Y12.684
X38.526 Y12.228
X38.459 Y12.174
X37.892 Y11.744
X37.821 Y11.694
X37.227 Y11.293
X37.172 Y11.258
X36.865 Y11.068
X36.828 Y11.045
X36.513 Y10.863
X36.475 Y10.842
X36.153 Y10.666
X36.115 Y10.646
X35.786 Y10.478
X35.748 Y10.459
X35.411 Y10.299
X35.374 Y10.281
X35.029 Y10.128
X34.992 Y10.112
X34.64 Y9.966
X34.602 Y9.95
X34.243 Y9.812
X34.206 Y9.799
X33.84 Y9.668
X33.802 Y9.655
X33.428 Y9.532
X33.392 Y9.52
X33.011 Y9.405
X32.975 Y9.394
X32.586 Y9.286
X32.552 Y9.277
X32.155 Y9.176
X32.121 Y9.168
X31.717 Y9.075
X31.684 Y9.068
X31.273 Y8.982
X31.241 Y8.976
X30.822 Y8.898
X30.791 Y8.892
X30.365 Y8.822
X30.335 Y8.817
X29.902 Y8.753
X29.859 Y8.748
X28.971 Y8.642
X28.918 Y8.636
X28.002 Y8.559
X27.953 Y8.555
X27.01 Y8.504
X26.965 Y8.503
X25.996 Y8.478
X25.955
X24.961 Y8.479
X24.923
X23.904 Y8.504
X23.869 Y8.506
X22.826 Y8.555
X22.793 Y8.556
X21.727 Y8.628
X21.697 Y8.631
X20.609 Y8.725
X20.581 Y8.727
X19.47 Y8.843
X19.445 Y8.846
X18.313 Y8.982
X18.289 Y8.985
X17.135 Y9.142
X17.113 Y9.146
X15.939 Y9.323
X15.917 Y9.326
X15.354 Y9.419
Y0
G2 X13.767 Y-1.587 I-1.588 J0
G1 X0
G2 X-1.587 Y0 I0 J1.587
G1 Y9.419
X-2.151 Y9.326
X-2.172 Y9.323
X-3.346 Y9.146
X-3.369 Y9.142
X-4.522 Y8.985
X-4.546 Y8.982
X-5.678 Y8.846
X-5.704 Y8.843
X-6.814 Y8.727
X-6.842 Y8.725
X-7.931 Y8.631
X-7.961 Y8.628
X-9.027 Y8.556
X-9.059 Y8.555
X-10.102 Y8.506
X-10.137 Y8.504
X-11.156 Y8.479
X-11.194
X-12.188 Y8.478
X-12.23
X-13.199 Y8.503
X-13.244 Y8.504
X-14.187 Y8.555
X-14.236 Y8.559
X-15.151 Y8.636
X-15.205 Y8.642
X-16.093 Y8.748
X-16.135 Y8.753
X-16.568 Y8.817
X-16.598 Y8.822
X-17.024 Y8.892
X-17.055 Y8.898
X-17.474 Y8.976
X-17.506 Y8.982
X-17.917 Y9.068
X-17.95 Y9.075
X-18.354 Y9.168
X-18.389 Y9.176
X-18.785 Y9.277
X-18.819 Y9.286
X-19.208 Y9.394
X-19.244 Y9.405
X-19.626 Y9.52
X-19.662 Y9.532
X-20.036 Y9.655
X-20.073 Y9.668
X-20.44 Y9.799
X-20.476 Y9.812
X-20.836 Y9.95
X-20.873 Y9.966
X-21.225 Y10.112
X-21.263 Y10.128
X-21.607 Y10.281
X-21.645 Y10.299
X-21.982 Y10.459
X-22.019 Y10.478
X-22.349 Y10.646
X-22.386 Y10.666
X-22.709 Y10.842
X-22.746 Y10.863
X-23.061 Y11.045
X-23.098 Y11.068
X-23.406 Y11.258
X-23.46 Y11.293
X-24.055 Y11.694
X-24.125 Y11.744
X-24.692 Y12.174
X-24.759 Y12.227
X-25.299 Y12.684
X-25.362 Y12.741
X-25.875 Y13.225
X-25.935 Y13.284
X-26.421 Y13.795
X-26.476 Y13.856
X-26.936 Y14.392
X-26.988 Y14.456
X-27.422 Y15.018
X-27.469 Y15.082
X-27.877 Y15.67
G2 X-26.79 Y18.148 I1.304 J0.906
G1 X-26.203 Y18.229
X-25.634 Y18.32
X-25.067 Y18.422
X-24.504 Y18.537
X-23.943 Y18.664
X-23.385 Y18.803
X-22.831 Y18.955
X-22.28 Y19.12
X-21.732 Y19.298
X-21.187 Y19.49
X-20.647 Y19.696
X-20.109 Y19.916
X-19.575 Y20.151
X-19.044 Y20.401
X-18.515 Y20.667
X-17.989 Y20.948
X-17.466 Y21.245
X-16.944 Y21.558
X-16.424 Y21.887
X-15.905 Y22.231
X-15.388 Y22.591
X-14.871 Y22.966
X-14.356 Y23.355
X-13.842 Y23.759
X-13.328 Y24.177
X-12.816 Y24.608
X-12.304 Y25.052
X-11.793 Y25.509
X-11.626 Y25.663
X-12.191 Y25.881
X-12.221 Y25.893
X-12.771 Y26.118
X-12.804 Y26.132
X-13.337 Y26.364
X-13.371 Y26.38
X-13.887 Y26.619
X-13.924 Y26.637
X-14.422 Y26.883
X-14.461 Y26.903
X-14.942 Y27.158
X-14.982 Y27.18
X-15.445 Y27.442
X-15.488 Y27.468
X-15.931 Y27.739
X-15.977 Y27.768
X-16.401 Y28.047
X-16.449 Y28.08
X-16.852 Y28.367
X-16.903 Y28.405
X-17.286 Y28.701
X-17.338 Y28.743
X-17.7 Y29.048
X-17.753 Y29.095
X-18.093 Y29.41
X-18.147 Y29.462
X-18.466 Y29.785
X-18.519 Y29.842
X-18.817 Y30.175
X-18.869 Y30.236
X-19.144 Y30.578
X-19.194 Y30.644
X-19.448 Y30.995
X-19.496 Y31.064
X-19.729 Y31.424
X-19.772 Y31.495
X-19.984 Y31.864
X-20.023 Y31.937
X-20.215 Y32.315
X-20.25 Y32.389
X-20.422 Y32.776
X-20.453 Y32.85
X-20.605 Y33.245
X-20.631 Y33.319
X-20.763 Y33.722
X-20.786 Y33.796
X-20.899 Y34.207
X-20.917 Y34.28
X-21.012 Y34.699
X-21.026 Y34.77
X-21.102 Y35.198
X-21.113 Y35.267
X-21.171 Y35.702
X-21.178 Y35.77
X-21.218 Y36.213
G2 X-19.148 Y37.864 I1.581 J0.141
G1 X-18.778 Y37.745
X-18.439 Y37.652
X-18.099 Y37.575
X-17.755 Y37.514
X-17.409 Y37.47
X-17.06 Y37.442
X-16.707 Y37.431
X-16.351 Y37.436
X-15.99 Y37.46
X-15.623 Y37.501
X-15.251 Y37.561
X-14.872 Y37.641
X-14.486 Y37.74
X-14.091 Y37.861
X-13.688 Y38.002
X-13.277 Y38.166
X-12.856 Y38.351
X-12.427 Y38.558
X-11.99 Y38.786
X-11.544 Y39.036
X-11.091 Y39.307
X-10.63 Y39.599
X-10.162 Y39.91
X-9.688 Y40.24
X-9.207 Y40.589
X-8.721 Y40.956
X-8.229 Y41.341
X-8.108 Y41.439
X-8.262 Y41.485
X-8.304 Y41.498
X-8.663 Y41.616
X-8.707 Y41.632
X-9.056 Y41.758
X-9.102 Y41.776
X-9.442 Y41.911
X-9.49 Y41.931
X-9.82 Y42.075
X-9.87 Y42.098
X-10.19 Y42.252
X-10.242 Y42.278
X-10.552 Y42.44
X-10.605 Y42.469
X-10.904 Y42.641
X-10.959 Y42.674
X-11.247 Y42.856
X-11.302 Y42.891
X-11.58 Y43.083
X-11.634 Y43.122
X-11.902 Y43.323
X-11.955 Y43.365
X-12.212 Y43.575
X-12.264 Y43.62
X-12.51 Y43.84
X-12.559 Y43.886
X-12.795 Y44.116
X-12.842 Y44.164
X-13.067 Y44.403
X-13.111 Y44.452
X-13.327 Y44.7
X-13.368 Y44.75
X-13.573 Y45.007
X-13.611 Y45.057
X-13.807 Y45.323
X-13.842 Y45.372
X-14.028 Y45.647
X-14.06 Y45.697
X-14.237 Y45.98
X-14.267 Y46.029
X-14.435 Y46.321
X-14.461 Y46.369
X-14.62 Y46.668
X-14.644 Y46.717
X-14.794 Y47.024
X-14.816 Y47.072
X-14.957 Y47.387
X-14.977 Y47.434
X-15.109 Y47.757
G2 X-13.379 Y49.923 I1.47 J0.6
G1 X-13.023 Y49.864
X-12.701 Y49.825
X-12.381 Y49.799
X-12.064 Y49.787
X-11.749 Y49.79
X-11.436 Y49.806
X-11.125 Y49.837
X-10.816 Y49.883
X-10.507 Y49.944
X-10.199 Y50.02
X-9.891 Y50.112
X-9.583 Y50.221
X-9.272 Y50.347
X-8.96 Y50.491
X-8.645 Y50.653
X-8.326 Y50.835
X-8.005 Y51.037
X-7.68 Y51.258
X-7.351 Y51.5
X-7.02 Y51.761
X-6.686 Y52.041
X-6.348 Y52.341
X-6.009 Y52.66
X-5.668 Y52.996
X-5.324 Y53.35
X-4.98 Y53.721
X-4.887 Y53.825
X-5.017 Y53.86
X-5.104 Y53.886
X-5.342 Y53.965
X-5.428 Y53.996
X-5.661 Y54.088
X-5.748 Y54.126
X-5.975 Y54.232
X-6.059 Y54.274
X-6.28 Y54.394
X-6.361 Y54.441
X-6.576 Y54.574
X-6.654 Y54.626
X-6.862 Y54.773
X-6.934 Y54.826
X-7.136 Y54.987
X-7.202 Y55.043
X-7.399 Y55.217
X-7.459 Y55.273
X-7.65 Y55.46
X-7.703 Y55.515
X-7.888 Y55.716
X-7.936 Y55.77
X-8.116 Y55.983
X-8.158 Y56.035
X-8.332 Y56.261
X-8.37 Y56.312
X-8.538 Y56.549
X-8.571 Y56.597
X-8.735 Y56.846
X-8.764 Y56.893
X-8.923 Y57.153
X-8.949 Y57.197
X-9.102 Y57.469
X-9.125 Y57.511
X-9.273 Y57.794
X-9.294 Y57.834
X-9.438 Y58.127
X-9.456 Y58.165
X-9.595 Y58.469
X-9.611 Y58.506
X-9.745 Y58.821
X-9.76 Y58.856
X-9.889 Y59.181
G2 X-8.885 Y61.285 I1.474 J0.588
G1 X-8.426 Y61.427
X-7.989 Y61.576
X-7.555 Y61.735
X-7.123 Y61.907
X-6.693 Y62.09
X-6.267 Y62.286
X-5.843 Y62.493
X-5.422 Y62.714
X-5.004 Y62.947
X-4.588 Y63.193
X-4.175 Y63.453
X-3.765 Y63.727
X-3.356 Y64.015
X-2.951 Y64.317
X-2.547 Y64.635
X-2.145 Y64.967
X-1.744 Y65.315
X-1.345 Y65.678
X-0.948 Y66.057
X-0.552 Y66.45
X-0.157 Y66.858
X0.236 Y67.281
X0.627 Y67.717
X1.017 Y68.167
X1.406 Y68.631
X1.793 Y69.107
X1.986 Y69.353
X0.232 Y69.158
G2 X-1.342 Y71.487 I-0.175 J1.578
G1 X0.724 Y75.333
X-3.122 Y78.632
G2 X-2.088 Y81.424 I1.034 J1.205
G1 X3.011
X5.475 Y86.158
G2 X6.883 Y87.012 I1.408 J-0.733
G3 X7.201 Y87.33 I0 J0.318 F520
G1 Y87.647
G19 G3 Y87.965 Z-0.183 J0 K0.317
G1 Z6 F650
X6.566
Z0.135 F260
Z-0.933
G2 Y87.647 Z-1.25 J-0.317 K0 F520
G1 Y87.33
G17 G3 X6.883 Y87.012 I0.317 J0
G2 X8.291 Y86.158 I0 J-1.588 F650
G1 X10.755 Y81.424
X15.855
G2 X16.888 Y78.632 I0 J-1.588
G1 X13.043 Y75.333
X15.108 Y71.487
G2 X13.534 Y69.158 I-1.399 J-0.751
G1 X11.78 Y69.353
X11.974 Y69.107
X12.361 Y68.631
X12.749 Y68.167
X13.139 Y67.717
X13.531 Y67.281
X13.924 Y66.858
X14.319 Y66.45
X14.715 Y66.057
X15.112 Y65.678
X15.511 Y65.315
X15.911 Y64.967
X16.313 Y64.635
X16.717 Y64.317
X17.123 Y64.015
X17.531 Y63.727
X17.942 Y63.453
X18.355 Y63.193
X18.77 Y62.947
X19.189 Y62.714
X19.61 Y62.493
X20.033 Y62.286
X20.46 Y62.09
X20.889 Y61.907
X21.321 Y61.735
X21.756 Y61.575
X22.193 Y61.427
X22.652 Y61.285
G2 X23.656 Y59.18 I-0.471 J-1.516
G1 X23.526 Y58.856
X23.512 Y58.821
X23.378 Y58.506
X23.361 Y58.469
X23.222 Y58.165
X23.204 Y58.127
X23.06 Y57.834
X23.04 Y57.794
X22.892 Y57.511
X22.869 Y57.469
X22.715 Y57.197
X22.689 Y57.153
X22.531 Y56.893
X22.501 Y56.846
X22.338 Y56.597
X22.305 Y56.549
X22.136 Y56.312
X22.099 Y56.261
X21.925 Y56.036
X21.882 Y55.983
X21.703 Y55.77
X21.655 Y55.715
X21.47 Y55.515
X21.416 Y55.46
X21.225 Y55.273
X21.166 Y55.217
X20.969 Y55.043
X20.903 Y54.987
X20.7 Y54.826
X20.629 Y54.773
X20.42 Y54.626
X20.342 Y54.574
X20.128 Y54.441
X20.046 Y54.394
X19.825 Y54.274
X19.742 Y54.232
X19.515 Y54.126
X19.427 Y54.088
X19.195 Y53.996
X19.109 Y53.965
X18.87 Y53.886
X18.784 Y53.86
X18.653 Y53.825
X18.746 Y53.721
X19.091 Y53.35
X19.434 Y52.996
X19.776 Y52.659
X20.115 Y52.341
X20.452 Y52.041
X20.786 Y51.761
X21.118 Y51.5
X21.446 Y51.258
X21.771 Y51.037
X22.093 Y50.835
X22.411 Y50.653
X22.726 Y50.491
X23.039 Y50.347
X23.349 Y50.221
X23.658 Y50.112
X23.966 Y50.02
X24.274 Y49.944
X24.582 Y49.883
X24.892 Y49.837
X25.203 Y49.806
X25.515 Y49.79
X25.831 Y49.787
X26.148 Y49.799
X26.468 Y49.825
X26.79 Y49.864
X27.146 Y49.923
G2 X28.876 Y47.757 I0.26 J-1.566
G1 X28.744 Y47.434
X28.724 Y47.387
X28.583 Y47.072
X28.56 Y47.024
X28.411 Y46.716
X28.386 Y46.668
X28.228 Y46.369
X28.201 Y46.32
X28.033 Y46.029
X28.004 Y45.98
X27.827 Y45.697
X27.795 Y45.647
X27.609 Y45.372
X27.573 Y45.323
X27.378 Y45.057
X27.34 Y45.007
X27.134 Y44.75
X27.093 Y44.7
X26.878 Y44.452
X26.834 Y44.403
X26.608 Y44.164
X26.561 Y44.116
X26.326 Y43.886
X26.276 Y43.84
X26.03 Y43.62
X25.978 Y43.575
X25.722 Y43.365
X25.668 Y43.323
X25.401 Y43.122
X25.347 Y43.083
X25.069 Y42.892
X25.014 Y42.856
X24.725 Y42.674
X24.671 Y42.641
X24.371 Y42.469
X24.318 Y42.44
X24.008 Y42.278
X23.957 Y42.252
X23.637 Y42.098
X23.587 Y42.076
X23.257 Y41.931
X23.208 Y41.911
X22.868 Y41.776
X22.823 Y41.758
X22.473 Y41.632
X22.429 Y41.616
X22.071 Y41.498
X22.029 Y41.485
X21.875 Y41.439
X21.996 Y41.341
X22.488 Y40.956
X22.974 Y40.589
X23.454 Y40.24
X23.928 Y39.91
X24.396 Y39.599
X24.857 Y39.307
X25.311 Y39.036
X25.756 Y38.786
X26.194 Y38.558
X26.623 Y38.351
X27.043 Y38.166
X27.455 Y38.002
X27.858 Y37.861
X28.252 Y37.74
X28.638 Y37.641
X29.017 Y37.561
X29.39 Y37.501
X29.756 Y37.46
X30.117 Y37.436
X30.474 Y37.431
X30.826 Y37.442
X31.176 Y37.47
X31.522 Y37.514
X31.865 Y37.575
X32.206 Y37.652
X32.545 Y37.745
X32.915 Y37.864
G2 X34.985 Y36.213 I0.489 J-1.51
G1 X34.945 Y35.77
X34.938 Y35.702
X34.88 Y35.267
X34.869 Y35.197
X34.793 Y34.77
X34.778 Y34.699
X34.684 Y34.28
X34.666 Y34.207
X34.552 Y33.796
X34.53 Y33.723
X34.398 Y33.319
X34.371 Y33.245
X34.219 Y32.85
X34.188 Y32.776
X34.017 Y32.389
X33.982 Y32.315
X33.79 Y31.937
X33.751 Y31.864
X33.538 Y31.495
X33.495 Y31.424
X33.262 Y31.064
X33.215 Y30.995
X32.961 Y30.644
X32.911 Y30.579
X32.635 Y30.237
X32.583 Y30.175
X32.286 Y29.842
X32.233 Y29.785
X31.914 Y29.462
X31.86 Y29.41
X31.519 Y29.095
X31.466 Y29.048
X31.104 Y28.743
X31.052 Y28.701
X30.669 Y28.405
X30.619 Y28.367
X30.215 Y28.08
X30.167 Y28.047
X29.744 Y27.768
X29.698 Y27.739
X29.255 Y27.468
X29.211 Y27.443
X28.749 Y27.18
X28.708 Y27.158
X28.228 Y26.903
X28.189 Y26.883
X27.69 Y26.637
X27.654 Y26.619
X27.138 Y26.38
X27.103 Y26.364
X26.57 Y26.132
X26.538 Y26.118
X25.988 Y25.893
X25.957 Y25.881
X25.392 Y25.663
X25.56 Y25.509
X26.07 Y25.052
X26.582 Y24.608
X27.095 Y24.177
X27.608 Y23.759
X28.123 Y23.355
X28.638 Y22.966
X29.154 Y22.591
X29.672 Y22.231
X30.19 Y21.887
X30.711 Y21.558
X31.232 Y21.245
X31.756 Y20.948
X32.282 Y20.667
X32.81 Y20.401
X33.341 Y20.151
X33.876 Y19.916
X34.413 Y19.696
X34.954 Y19.49
X35.498 Y19.298
X36.046 Y19.12
X36.597 Y18.955
X37.152 Y18.803
X37.71 Y18.664
X38.27 Y18.537
X38.834 Y18.422
X39.4 Y18.32
X39.969 Y18.229
X40.557 Y18.148
G2 X41.644 Y15.67 I-0.217 J-1.573
G1 X41.236 Y15.082
X41.188 Y15.018
X40.754 Y14.456
X40.703 Y14.392
X40.243 Y13.856
X40.187 Y13.795
X39.701 Y13.284
X39.641 Y13.225
X39.129 Y12.741
X39.065 Y12.684
X38.526 Y12.228
X38.459 Y12.174
X37.892 Y11.744
X37.821 Y11.694
X37.227 Y11.293
X37.172 Y11.258
X36.865 Y11.068
X36.828 Y11.045
X36.513 Y10.863
X36.475 Y10.842
X36.153 Y10.666
X36.115 Y10.646
X35.786 Y10.478
X35.748 Y10.459
X35.411 Y10.299
X35.374 Y10.281
X35.029 Y10.128
X34.992 Y10.112
X34.64 Y9.966
X34.602 Y9.95
X34.243 Y9.812
X34.206 Y9.799
X33.84 Y9.668
X33.802 Y9.655
X33.428 Y9.532
X33.392 Y9.52
X33.011 Y9.405
X32.975 Y9.394
X32.586 Y9.286
X32.552 Y9.277
X32.155 Y9.176
X32.121 Y9.168
X31.717 Y9.075
X31.684 Y9.068
X31.273 Y8.982
X31.241 Y8.976
X30.822 Y8.898
X30.791 Y8.892
X30.365 Y8.822
X30.335 Y8.817
X29.902 Y8.753
X29.859 Y8.748
X28.971 Y8.642
X28.918 Y8.636
X28.002 Y8.559
X27.953 Y8.555
X27.01 Y8.504
X26.965 Y8.503
X25.996 Y8.478
X25.955
X24.961 Y8.479
X24.923
X23.904 Y8.504
X23.869 Y8.506
X22.826 Y8.555
X22.793 Y8.556
X21.727 Y8.628
X21.697 Y8.631
X20.609 Y8.725
X20.581 Y8.727
X19.47 Y8.843
X19.445 Y8.846
X18.313 Y8.982
X18.289 Y8.985
X17.135 Y9.142
X17.113 Y9.146
X15.939 Y9.323
X15.917 Y9.326
X15.354 Y9.419
Y0
G2 X13.767 Y-1.587 I-1.588 J0
G1 X0
G2 X-1.587 Y0 I0 J1.587
G1 Y9.419
X-2.151 Y9.326
X-2.172 Y9.323
X-3.346 Y9.146
X-3.369 Y9.142
X-4.522 Y8.985
X-4.546 Y8.982
X-5.678 Y8.846
X-5.704 Y8.843
X-6.814 Y8.727
X-6.842 Y8.725
X-7.931 Y8.631
X-7.961 Y8.628
X-9.027 Y8.556
X-9.059 Y8.555
X-10.102 Y8.506
X-10.137 Y8.504
X-11.156 Y8.479
X-11.194
X-12.188 Y8.478
X-12.23
X-13.199 Y8.503
X-13.244 Y8.504
X-14.187 Y8.555
X-14.236 Y8.559
X-15.151 Y8.636
X-15.205 Y8.642
X-16.093 Y8.748
X-16.135 Y8.753
X-16.568 Y8.817
X-16.598 Y8.822
X-17.024 Y8.892
X-17.055 Y8.898
X-17.474 Y8.976
X-17.506 Y8.982
X-17.917 Y9.068
X-17.95 Y9.075
X-18.354 Y9.168
X-18.389 Y9.176
X-18.785 Y9.277
X-18.819 Y9.286
X-19.208 Y9.394
X-19.244 Y9.405
X-19.626 Y9.52
X-19.662 Y9.532
X-20.036 Y9.655
X-20.073 Y9.668
X-20.44 Y9.799
X-20.476 Y9.812
X-20.836 Y9.95
X-20.873 Y9.966
X-21.225 Y10.112
X-21.263 Y10.128
X-21.607 Y10.281
X-21.645 Y10.299
X-21.982 Y10.459
X-22.019 Y10.478
X-22.349 Y10.646
X-22.386 Y10.666
X-22.709 Y10.842
X-22.746 Y10.863
X-23.061 Y11.045
X-23.098 Y11.068
X-23.406 Y11.258
X-23.46 Y11.293
X-24.055 Y11.694
X-24.125 Y11.744
X-24.692 Y12.174
X-24.759 Y12.227
X-25.299 Y12.684
X-25.362 Y12.741
X-25.875 Y13.225
X-25.935 Y13.284
X-26.421 Y13.795
X-26.476 Y13.856
X-26.936 Y14.392
X-26.988 Y14.456
X-27.422 Y15.018
X-27.469 Y15.082
X-27.877 Y15.67
G2 X-26.79 Y18.148 I1.304 J0.906
G1 X-26.203 Y18.229
X-25.634 Y18.32
X-25.067 Y18.422
X-24.504 Y18.537
X-23.943 Y18.664
X-23.385 Y18.803
X-22.831 Y18.955
X-22.28 Y19.12
X-21.732 Y19.298
X-21.187 Y19.49
X-20.647 Y19.696
X-20.109 Y19.916
X-19.575 Y20.151
X-19.044 Y20.401
X-18.515 Y20.667
X-17.989 Y20.948
X-17.466 Y21.245
X-16.944 Y21.558
X-16.424 Y21.887
X-15.905 Y22.231
X-15.388 Y22.591
X-14.871 Y22.966
X-14.356 Y23.355
X-13.842 Y23.759
X-13.328 Y24.177
X-12.816 Y24.608
X-12.304 Y25.052
X-11.793 Y25.509
X-11.626 Y25.663
X-12.191 Y25.881
X-12.221 Y25.893
X-12.771 Y26.118
X-12.804 Y26.132
X-13.337 Y26.364
X-13.371 Y26.38
X-13.887 Y26.619
X-13.924 Y26.637
X-14.422 Y26.883
X-14.461 Y26.903
X-14.942 Y27.158
X-14.982 Y27.18
X-15.445 Y27.442
X-15.488 Y27.468
X-15.931 Y27.739
X-15.977 Y27.768
X-16.401 Y28.047
X-16.449 Y28.08
X-16.852 Y28.367
X-16.903 Y28.405
X-17.286 Y28.701
X-17.338 Y28.743
X-17.7 Y29.048
X-17.753 Y29.095
X-18.093 Y29.41
X-18.147 Y29.462
X-18.466 Y29.785
X-18.519 Y29.842
X-18.817 Y30.175
X-18.869 Y30.236
X-19.144 Y30.578
X-19.194 Y30.644
X-19.448 Y30.995
X-19.496 Y31.064
X-19.729 Y31.424
X-19.772 Y31.495
X-19.984 Y31.864
X-20.023 Y31.937
X-20.215 Y32.315
X-20.25 Y32.389
X-20.422 Y32.776
X-20.453 Y32.85
X-20.605 Y33.245
X-20.631 Y33.319
X-20.763 Y33.722
X-20.786 Y33.796
X-20.899 Y34.207
X-20.917 Y34.28
X-21.012 Y34.699
X-21.026 Y34.77
X-21.102 Y35.198
X-21.113 Y35.267
X-21.171 Y35.702
X-21.178 Y35.77
X-21.218 Y36.213
G2 X-19.148 Y37.864 I1.581 J0.141
G1 X-18.778 Y37.745
X-18.439 Y37.652
X-18.099 Y37.575
X-17.755 Y37.514
X-17.409 Y37.47
X-17.06 Y37.442
X-16.707 Y37.431
X-16.351 Y37.436
X-15.99 Y37.46
X-15.623 Y37.501
X-15.251 Y37.561
X-14.872 Y37.641
X-14.486 Y37.74
X-14.091 Y37.861
X-13.688 Y38.002
X-13.277 Y38.166
X-12.856 Y38.351
X-12.427 Y38.558
X-11.99 Y38.786
X-11.544 Y39.036
X-11.091 Y39.307
X-10.63 Y39.599
X-10.162 Y39.91
X-9.688 Y40.24
X-9.207 Y40.589
X-8.721 Y40.956
X-8.229 Y41.341
X-8.108 Y41.439
X-8.262 Y41.485
X-8.304 Y41.498
X-8.663 Y41.616
X-8.707 Y41.632
X-9.056 Y41.758
X-9.102 Y41.776
X-9.442 Y41.911
X-9.49 Y41.931
X-9.82 Y42.075
X-9.87 Y42.098
X-10.19 Y42.252
X-10.242 Y42.278
X-10.552 Y42.44
X-10.605 Y42.469
X-10.904 Y42.641
X-10.959 Y42.674
X-11.247 Y42.856
X-11.302 Y42.891
X-11.58 Y43.083
X-11.634 Y43.122
X-11.902 Y43.323
X-11.955 Y43.365
X-12.212 Y43.575
X-12.264 Y43.62
X-12.51 Y43.84
X-12.559 Y43.886
X-12.795 Y44.116
X-12.842 Y44.164
X-13.067 Y44.403
X-13.111 Y44.452
X-13.327 Y44.7
X-13.368 Y44.75
X-13.573 Y45.007
X-13.611 Y45.057
X-13.807 Y45.323
X-13.842 Y45.372
X-14.028 Y45.647
X-14.06 Y45.697
X-14.237 Y45.98
X-14.267 Y46.029
X-14.435 Y46.321
X-14.461 Y46.369
X-14.62 Y46.668
X-14.644 Y46.717
X-14.794 Y47.024
X-14.816 Y47.072
X-14.957 Y47.387
X-14.977 Y47.434
X-15.109 Y47.757
G2 X-13.379 Y49.923 I1.47 J0.6
G1 X-13.023 Y49.864
X-12.701 Y49.825
X-12.381 Y49.799
X-12.064 Y49.787
X-11.749 Y49.79
X-11.436 Y49.806
X-11.125 Y49.837
X-10.816 Y49.883
X-10.507 Y49.944
X-10.199 Y50.02
X-9.891 Y50.112
X-9.583 Y50.221
X-9.272 Y50.347
X-8.96 Y50.491
X-8.645 Y50.653
X-8.326 Y50.835
X-8.005 Y51.037
X-7.68 Y51.258
X-7.351 Y51.5
X-7.02 Y51.761
X-6.686 Y52.041
X-6.348 Y52.341
X-6.009 Y52.66
X-5.668 Y52.996
X-5.324 Y53.35
X-4.98 Y53.721
X-4.887 Y53.825
X-5.017 Y53.86
X-5.104 Y53.886
X-5.342 Y53.965
X-5.428 Y53.996
X-5.661 Y54.088
X-5.748 Y54.126
X-5.975 Y54.232
X-6.059 Y54.274
X-6.28 Y54.394
X-6.361 Y54.441
X-6.576 Y54.574
X-6.654 Y54.626
X-6.862 Y54.773
X-6.934 Y54.826
X-7.136 Y54.987
X-7.202 Y55.043
X-7.399 Y55.217
X-7.459 Y55.273
X-7.65 Y55.46
X-7.703 Y55.515
X-7.888 Y55.716
X-7.936 Y55.77
X-8.116 Y55.983
X-8.158 Y56.035
X-8.332 Y56.261
X-8.37 Y56.312
X-8.538 Y56.549
X-8.571 Y56.597
X-8.735 Y56.846
X-8.764 Y56.893
X-8.923 Y57.153
X-8.949 Y57.197
X-9.102 Y57.469
X-9.125 Y57.511
X-9.273 Y57.794
X-9.294 Y57.834
X-9.438 Y58.127
X-9.456 Y58.165
X-9.595 Y58.469
X-9.611 Y58.506
X-9.745 Y58.821
X-9.76 Y58.856
X-9.889 Y59.181
G2 X-8.885 Y61.285 I1.474 J0.588
G1 X-8.426 Y61.427
X-7.989 Y61.576
X-7.555 Y61.735
X-7.123 Y61.907
X-6.693 Y62.09
X-6.267 Y62.286
X-5.843 Y62.493
X-5.422 Y62.714
X-5.004 Y62.947
X-4.588 Y63.193
X-4.175 Y63.453
X-3.765 Y63.727
X-3.356 Y64.015
X-2.951 Y64.317
X-2.547 Y64.635
X-2.145 Y64.967
X-1.744 Y65.315
X-1.345 Y65.678
X-0.948 Y66.057
X-0.552 Y66.45
X-0.157 Y66.858
X0.236 Y67.281
X0.627 Y67.717
X1.017 Y68.167
X1.406 Y68.631
X1.793 Y69.107
X1.986 Y69.353
X0.232 Y69.158
G2 X-1.342 Y71.487 I-0.175 J1.578
G1 X0.724 Y75.333
X-3.122 Y78.632
G2 X-2.088 Y81.424 I1.034 J1.205
G1 X3.011
X5.475 Y86.158
G2 X6.883 Y87.012 I1.408 J-0.733
G3 X7.201 Y87.33 I0 J0.318 F520
G1 Y87.647
G19 G3 Y87.965 Z-0.933 J0 K0.317
G1 Z6 F650
X6.566
Z-0.615 F260
Z-1.683
G2 Y87.647 Z-2 J-0.317 K0 F520
G1 Y87.33
G17 G3 X6.883 Y87.012 I0.317 J0
G2 X8.291 Y86.158 I0 J-1.588 F650
G1 X10.755 Y81.424
X15.855
G2 X16.888 Y78.632 I0 J-1.588
G1 X13.043 Y75.333
X15.108 Y71.487
G2 X13.534 Y69.158 I-1.399 J-0.751
G1 X11.78 Y69.353
X11.974 Y69.107
X12.361 Y68.631
X12.749 Y68.167
X13.139 Y67.717
X13.531 Y67.281
X13.924 Y66.858
X14.319 Y66.45
X14.715 Y66.057
X15.112 Y65.678
X15.511 Y65.315
X15.911 Y64.967
X16.313 Y64.635
X16.717 Y64.317
X17.123 Y64.015
X17.531 Y63.727
X17.942 Y63.453
X18.355 Y63.193
X18.77 Y62.947
X19.189 Y62.714
X19.61 Y62.493
X20.033 Y62.286
X20.46 Y62.09
X20.889 Y61.907
X21.321 Y61.735
X21.756 Y61.575
X22.193 Y61.427
X22.652 Y61.285
G2 X23.656 Y59.18 I-0.471 J-1.516
G1 X23.526 Y58.856
X23.512 Y58.821
X23.378 Y58.506
X23.361 Y58.469
X23.222 Y58.165
X23.204 Y58.127
X23.06 Y57.834
X23.04 Y57.794
X22.892 Y57.511
X22.869 Y57.469
X22.715 Y57.197
X22.689 Y57.153
X22.531 Y56.893
X22.501 Y56.846
X22.338 Y56.597
X22.305 Y56.549
X22.136 Y56.312
X22.099 Y56.261
X21.925 Y56.036
X21.882 Y55.983
X21.703 Y55.77
X21.655 Y55.715
X21.47 Y55.515
X21.416 Y55.46
X21.225 Y55.273
X21.166 Y55.217
X20.969 Y55.043
X20.903 Y54.987
X20.7 Y54.826
X20.629 Y54.773
X20.42 Y54.626
X20.342 Y54.574
X20.128 Y54.441
X20.046 Y54.394
X19.825 Y54.274
X19.742 Y54.232
X19.515 Y54.126
X19.427 Y54.088
X19.195 Y53.996
X19.109 Y53.965
X18.87 Y53.886
X18.784 Y53.86
X18.653 Y53.825
X18.746 Y53.721
X19.091 Y53.35
X19.434 Y52.996
X19.776 Y52.659
X20.115 Y52.341
X20.452 Y52.041
X20.786 Y51.761
X21.118 Y51.5
X21.446 Y51.258
X21.771 Y51.037
X22.093 Y50.835
X22.411 Y50.653
X22.726 Y50.491
X23.039 Y50.347
X23.349 Y50.221
X23.658 Y50.112
X23.966 Y50.02
X24.274 Y49.944
X24.582 Y49.883
X24.892 Y49.837
X25.203 Y49.806
X25.515 Y49.79
X25.831 Y49.787
X26.148 Y49.799
X26.468 Y49.825
X26.79 Y49.864
X27.146 Y49.923
G2 X28.876 Y47.757 I0.26 J-1.566
G1 X28.744 Y47.434
X28.724 Y47.387
X28.583 Y47.072
X28.56 Y47.024
X28.411 Y46.716
X28.386 Y46.668
X28.228 Y46.369
X28.201 Y46.32
X28.033 Y46.029
X28.004 Y45.98
X27.827 Y45.697
X27.795 Y45.647
X27.609 Y45.372
X27.573 Y45.323
X27.378 Y45.057
X27.34 Y45.007
X27.134 Y44.75
X27.093 Y44.7
X26.878 Y44.452
X26.834 Y44.403
X26.608 Y44.164
X26.561 Y44.116
X26.326 Y43.886
X26.276 Y43.84
X26.03 Y43.62
X25.978 Y43.575
X25.722 Y43.365
X25.668 Y43.323
X25.401 Y43.122
X25.347 Y43.083
X25.069 Y42.892
X25.014 Y42.856
X24.725 Y42.674
X24.671 Y42.641
X24.371 Y42.469
X24.318 Y42.44
X24.008 Y42.278
X23.957 Y42.252
X23.637 Y42.098
X23.587 Y42.076
X23.257 Y41.931
X23.208 Y41.911
X22.868 Y41.776
X22.823 Y41.758
X22.473 Y41.632
X22.429 Y41.616
X22.071 Y41.498
X22.029 Y41.485
X21.875 Y41.439
X21.996 Y41.341
X22.488 Y40.956
X22.974 Y40.589
X23.454 Y40.24
X23.928 Y39.91
X24.396 Y39.599
X24.857 Y39.307
X25.311 Y39.036
X25.756 Y38.786
X26.194 Y38.558
X26.623 Y38.351
X27.043 Y38.166
X27.455 Y38.002
X27.858 Y37.861
X28.252 Y37.74
X28.638 Y37.641
X29.017 Y37.561
X29.39 Y37.501
X29.756 Y37.46
X30.117 Y37.436
X30.474 Y37.431
X30.826 Y37.442
X31.176 Y37.47
X31.522 Y37.514
X31.865 Y37.575
X32.206 Y37.652
X32.545 Y37.745
X32.915 Y37.864
G2 X34.985 Y36.213 I0.489 J-1.51
G1 X34.945 Y35.77
X34.938 Y35.702
X34.88 Y35.267
X34.869 Y35.197
X34.793 Y34.77
X34.778 Y34.699
X34.684 Y34.28
X34.666 Y34.207
X34.552 Y33.796
X34.53 Y33.723
X34.398 Y33.319
X34.371 Y33.245
X34.219 Y32.85
X34.188 Y32.776
X34.017 Y32.389
X33.982 Y32.315
X33.79 Y31.937
X33.751 Y31.864
X33.538 Y31.495
X33.495 Y31.424
X33.262 Y31.064
X33.215 Y30.995
X32.961 Y30.644
X32.911 Y30.579
X32.635 Y30.237
X32.583 Y30.175
X32.286 Y29.842
X32.233 Y29.785
X31.914 Y29.462
X31.86 Y29.41
X31.519 Y29.095
X31.466 Y29.048
X31.104 Y28.743
X31.052 Y28.701
X30.669 Y28.405
X30.619 Y28.367
X30.215 Y28.08
X30.167 Y28.047
X29.744 Y27.768
X29.698 Y27.739
X29.255 Y27.468
X29.211 Y27.443
X28.749 Y27.18
X28.708 Y27.158
X28.228 Y26.903
X28.189 Y26.883
X27.69 Y26.637
X27.654 Y26.619
X27.138 Y26.38
X27.103 Y26.364
X26.57 Y26.132
X26.538 Y26.118
X25.988 Y25.893
X25.957 Y25.881
X25.392 Y25.663
X25.56 Y25.509
X26.07 Y25.052
X26.582 Y24.608
X27.095 Y24.177
X27.608 Y23.759
X28.123 Y23.355
X28.638 Y22.966
X29.154 Y22.591
X29.672 Y22.231
X30.19 Y21.887
X30.711 Y21.558
X31.232 Y21.245
X31.756 Y20.948
X32.282 Y20.667
X32.81 Y20.401
X33.341 Y20.151
X33.876 Y19.916
X34.413 Y19.696
X34.954 Y19.49
X35.498 Y19.298
X36.046 Y19.12
X36.597 Y18.955
X37.152 Y18.803
X37.71 Y18.664
X38.27 Y18.537
X38.834 Y18.422
X39.4 Y18.32
X39.969 Y18.229
X40.557 Y18.148
G2 X41.644 Y15.67 I-0.217 J-1.573
G1 X41.236 Y15.082
X41.188 Y15.018
X40.754 Y14.456
X40.703 Y14.392
X40.243 Y13.856
X40.187 Y13.795
X39.701 Y13.284
X39.641 Y13.225
X39.129 Y12.741
X39.065 Y12.684
X38.526 Y12.228
X38.459 Y12.174
X37.892 Y11.744
X37.821 Y11.694
X37.227 Y11.293
X37.172 Y11.258
X36.865 Y11.068
X36.828 Y11.045
X36.513 Y10.863
X36.475 Y10.842
X36.153 Y10.666
X36.115 Y10.646
X35.786 Y10.478
X35.748 Y10.459
X35.411 Y10.299
X35.374 Y10.281
X35.029 Y10.128
X34.992 Y10.112
X34.64 Y9.966
X34.602 Y9.95
X34.243 Y9.812
X34.206 Y9.799
X33.84 Y9.668
X33.802 Y9.655
X33.428 Y9.532
X33.392 Y9.52
X33.011 Y9.405
X32.975 Y9.394
X32.586 Y9.286
X32.552 Y9.277
X32.155 Y9.176
X32.121 Y9.168
X31.717 Y9.075
X31.684 Y9.068
X31.273 Y8.982
X31.241 Y8.976
X30.822 Y8.898
X30.791 Y8.892
X30.365 Y8.822
X30.335 Y8.817
X29.902 Y8.753
X29.859 Y8.748
X28.971 Y8.642
X28.918 Y8.636
X28.002 Y8.559
X27.953 Y8.555
X27.01 Y8.504
X26.965 Y8.503
X25.996 Y8.478
X25.955
X24.961 Y8.479
X24.923
X23.904 Y8.504
X23.869 Y8.506
X22.826 Y8.555
X22.793 Y8.556
X21.727 Y8.628
X21.697 Y8.631
X20.609 Y8.725
X20.581 Y8.727
X19.47 Y8.843
X19.445 Y8.846
X18.313 Y8.982
X18.289 Y8.985
X17.135 Y9.142
X17.113 Y9.146
X15.939 Y9.323
X15.917 Y9.326
X15.354 Y9.419
Y0
G2 X13.767 Y-1.587 I-1.588 J0
G1 X0
G2 X-1.587 Y0 I0 J1.587
G1 Y9.419
X-2.151 Y9.326
X-2.172 Y9.323
X-3.346 Y9.146
X-3.369 Y9.142
X-4.522 Y8.985
X-4.546 Y8.982
X-5.678 Y8.846
X-5.704 Y8.843
X-6.814 Y8.727
X-6.842 Y8.725
X-7.931 Y8.631
X-7.961 Y8.628
X-9.027 Y8.556
X-9.059 Y8.555
X-10.102 Y8.506
X-10.137 Y8.504
X-11.156 Y8.479
X-11.194
X-12.188 Y8.478
X-12.23
X-13.199 Y8.503
X-13.244 Y8.504
X-14.187 Y8.555
X-14.236 Y8.559
X-15.151 Y8.636
X-15.205 Y8.642
X-16.093 Y8.748
X-16.135 Y8.753
X-16.568 Y8.817
X-16.598 Y8.822
X-17.024 Y8.892
X-17.055 Y8.898
X-17.474 Y8.976
X-17.506 Y8.982
X-17.917 Y9.068
X-17.95 Y9.075
X-18.354 Y9.168
X-18.389 Y9.176
X-18.785 Y9.277
X-18.819 Y9.286
X-19.208 Y9.394
X-19.244 Y9.405
X-19.626 Y9.52
X-19.662 Y9.532
X-20.036 Y9.655
X-20.073 Y9.668
X-20.44 Y9.799
X-20.476 Y9.812
X-20.836 Y9.95
X-20.873 Y9.966
X-21.225 Y10.112
X-21.263 Y10.128
X-21.607 Y10.281
X-21.645 Y10.299
X-21.982 Y10.459
X-22.019 Y10.478
X-22.349 Y10.646
X-22.386 Y10.666
X-22.709 Y10.842
X-22.746 Y10.863
X-23.061 Y11.045
X-23.098 Y11.068
X-23.406 Y11.258
X-23.46 Y11.293
X-24.055 Y11.694
X-24.125 Y11.744
X-24.692 Y12.174
X-24.759 Y12.227
X-25.299 Y12.684
X-25.362 Y12.741
X-25.875 Y13.225
X-25.935 Y13.284
X-26.421 Y13.795
X-26.476 Y13.856
X-26.936 Y14.392
X-26.988 Y14.456
X-27.422 Y15.018
X-27.469 Y15.082
X-27.877 Y15.67
G2 X-26.79 Y18.148 I1.304 J0.906
G1 X-26.203 Y18.229
X-25.634 Y18.32
X-25.067 Y18.422
X-24.504 Y18.537
X-23.943 Y18.664
X-23.385 Y18.803
X-22.831 Y18.955
X-22.28 Y19.12
X-21.732 Y19.298
X-21.187 Y19.49
X-20.647 Y19.696
X-20.109 Y19.916
X-19.575 Y20.151
X-19.044 Y20.401
X-18.515 Y20.667
X-17.989 Y20.948
X-17.466 Y21.245
X-16.944 Y21.558
X-16.424 Y21.887
X-15.905 Y22.231
X-15.388 Y22.591
X-14.871 Y22.966
X-14.356 Y23.355
X-13.842 Y23.759
X-13.328 Y24.177
X-12.816 Y24.608
X-12.304 Y25.052
X-11.793 Y25.509
X-11.626 Y25.663
X-12.191 Y25.881
X-12.221 Y25.893
X-12.771 Y26.118
X-12.804 Y26.132
X-13.337 Y26.364
X-13.371 Y26.38
X-13.887 Y26.619
X-13.924 Y26.637
X-14.422 Y26.883
X-14.461 Y26.903
X-14.942 Y27.158
X-14.982 Y27.18
X-15.445 Y27.442
X-15.488 Y27.468
X-15.931 Y27.739
X-15.977 Y27.768
X-16.401 Y28.047
X-16.449 Y28.08
X-16.852 Y28.367
X-16.903 Y28.405
X-17.286 Y28.701
X-17.338 Y28.743
X-17.7 Y29.048
X-17.753 Y29.095
X-18.093 Y29.41
X-18.147 Y29.462
X-18.466 Y29.785
X-18.519 Y29.842
X-18.817 Y30.175
X-18.869 Y30.236
X-19.144 Y30.578
X-19.194 Y30.644
X-19.448 Y30.995
X-19.496 Y31.064
X-19.729 Y31.424
X-19.772 Y31.495
X-19.984 Y31.864
X-20.023 Y31.937
X-20.215 Y32.315
X-20.25 Y32.389
X-20.422 Y32.776
X-20.453 Y32.85
X-20.605 Y33.245
X-20.631 Y33.319
X-20.763 Y33.722
X-20.786 Y33.796
X-20.899 Y34.207
X-20.917 Y34.28
X-21.012 Y34.699
X-21.026 Y34.77
X-21.102 Y35.198
X-21.113 Y35.267
X-21.171 Y35.702
X-21.178 Y35.77
X-21.218 Y36.213
G2 X-19.148 Y37.864 I1.581 J0.141
G1 X-18.778 Y37.745
X-18.439 Y37.652
X-18.099 Y37.575
X-17.755 Y37.514
X-17.409 Y37.47
X-17.06 Y37.442
X-16.707 Y37.431
X-16.351 Y37.436
X-15.99 Y37.46
X-15.623 Y37.501
X-15.251 Y37.561
X-14.872 Y37.641
X-14.486 Y37.74
X-14.091 Y37.861
X-13.688 Y38.002
X-13.277 Y38.166
X-12.856 Y38.351
X-12.427 Y38.558
X-11.99 Y38.786
X-11.544 Y39.036
X-11.091 Y39.307
X-10.63 Y39.599
X-10.162 Y39.91
X-9.688 Y40.24
X-9.207 Y40.589
X-8.721 Y40.956
X-8.229 Y41.341
X-8.108 Y41.439
X-8.262 Y41.485
X-8.304 Y41.498
X-8.663 Y41.616
X-8.707 Y41.632
X-9.056 Y41.758
X-9.102 Y41.776
X-9.442 Y41.911
X-9.49 Y41.931
X-9.82 Y42.075
X-9.87 Y42.098
X-10.19 Y42.252
X-10.242 Y42.278
X-10.552 Y42.44
X-10.605 Y42.469
X-10.904 Y42.641
X-10.959 Y42.674
X-11.247 Y42.856
X-11.302 Y42.891
X-11.58 Y43.083
X-11.634 Y43.122
X-11.902 Y43.323
X-11.955 Y43.365
X-12.212 Y43.575
X-12.264 Y43.62
X-12.51 Y43.84
X-12.559 Y43.886
X-12.795 Y44.116
X-12.842 Y44.164
X-13.067 Y44.403
X-13.111 Y44.452
X-13.327 Y44.7
X-13.368 Y44.75
X-13.573 Y45.007
X-13.611 Y45.057
X-13.807 Y45.323
X-13.842 Y45.372
X-14.028 Y45.647
X-14.06 Y45.697
X-14.237 Y45.98
X-14.267 Y46.029
X-14.435 Y46.321
X-14.461 Y46.369
X-14.62 Y46.668
X-14.644 Y46.717
X-14.794 Y47.024
X-14.816 Y47.072
X-14.957 Y47.387
X-14.977 Y47.434
X-15.109 Y47.757
G2 X-13.379 Y49.923 I1.47 J0.6
G1 X-13.023 Y49.864
X-12.701 Y49.825
X-12.381 Y49.799
X-12.064 Y49.787
X-11.749 Y49.79
X-11.436 Y49.806
X-11.125 Y49.837
X-10.816 Y49.883
X-10.507 Y49.944
X-10.199 Y50.02
X-9.891 Y50.112
X-9.583 Y50.221
X-9.272 Y50.347
X-8.96 Y50.491
X-8.645 Y50.653
X-8.326 Y50.835
X-8.005 Y51.037
X-7.68 Y51.258
X-7.351 Y51.5
X-7.02 Y51.761
X-6.686 Y52.041
X-6.348 Y52.341
X-6.009 Y52.66
X-5.668 Y52.996
X-5.324 Y53.35
X-4.98 Y53.721
X-4.887 Y53.825
X-5.017 Y53.86
X-5.104 Y53.886
X-5.342 Y53.965
X-5.428 Y53.996
X-5.661 Y54.088
X-5.748 Y54.126
X-5.975 Y54.232
X-6.059 Y54.274
X-6.28 Y54.394
X-6.361 Y54.441
X-6.576 Y54.574
X-6.654 Y54.626
X-6.862 Y54.773
X-6.934 Y54.826
X-7.136 Y54.987
X-7.202 Y55.043
X-7.399 Y55.217
X-7.459 Y55.273
X-7.65 Y55.46
X-7.703 Y55.515
X-7.888 Y55.716
X-7.936 Y55.77
X-8.116 Y55.983
X-8.158 Y56.035
X-8.332 Y56.261
X-8.37 Y56.312
X-8.538 Y56.549
X-8.571 Y56.597
X-8.735 Y56.846
X-8.764 Y56.893
X-8.923 Y57.153
X-8.949 Y57.197
X-9.102 Y57.469
X-9.125 Y57.511
X-9.273 Y57.794
X-9.294 Y57.834
X-9.438 Y58.127
X-9.456 Y58.165
X-9.595 Y58.469
X-9.611 Y58.506
X-9.745 Y58.821
X-9.76 Y58.856
X-9.889 Y59.181
G2 X-8.885 Y61.285 I1.474 J0.588
G1 X-8.426 Y61.427
X-7.989 Y61.576
X-7.555 Y61.735
X-7.123 Y61.907
X-6.693 Y62.09
X-6.267 Y62.286
X-5.843 Y62.493
X-5.422 Y62.714
X-5.004 Y62.947
X-4.588 Y63.193
X-4.175 Y63.453
X-3.765 Y63.727
X-3.356 Y64.015
X-2.951 Y64.317
X-2.547 Y64.635
X-2.145 Y64.967
X-1.744 Y65.315
X-1.345 Y65.678
X-0.948 Y66.057
X-0.552 Y66.45
X-0.157 Y66.858
X0.236 Y67.281
X0.627 Y67.717
X1.017 Y68.167
X1.406 Y68.631
X1.793 Y69.107
X1.986 Y69.353
X0.232 Y69.158
G2 X-1.342 Y71.487 I-0.175 J1.578
G1 X0.724 Y75.333
X-3.122 Y78.632
G2 X-2.088 Y81.424 I1.034 J1.205
G1 X3.011
X5.475 Y86.158
G2 X6.883 Y87.012 I1.408 J-0.733
G3 X7.201 Y87.33 I0 J0.318 F520
G1 Y87.647
G19 G3 Y87.965 Z-1.683 J0 K0.317
G1 Z6 F650
X6.566
Z-1.365 F260
Z-2.433
G2 Y87.647 Z-2.75 J-0.317 K0 F520
G1 Y87.33
G17 G3 X6.883 Y87.012 I0.317 J0
G2 X8.291 Y86.158 I0 J-1.588 F650
G1 X10.755 Y81.424
X15.855
G2 X16.888 Y78.632 I0 J-1.588
G1 X13.043 Y75.333
X15.108 Y71.487
G2 X13.534 Y69.158 I-1.399 J-0.751
G1 X11.78 Y69.353
X11.974 Y69.107
X12.361 Y68.631
X12.749 Y68.167
X13.139 Y67.717
X13.531 Y67.281
X13.924 Y66.858
X14.319 Y66.45
X14.715 Y66.057
X15.112 Y65.678
X15.511 Y65.315
X15.911 Y64.967
X16.313 Y64.635
X16.717 Y64.317
X17.123 Y64.015
X17.531 Y63.727
X17.942 Y63.453
X18.355 Y63.193
X18.77 Y62.947
X19.189 Y62.714
X19.61 Y62.493
X20.033 Y62.286
X20.46 Y62.09
X20.889 Y61.907
X21.321 Y61.735
X21.756 Y61.575
X22.193 Y61.427
X22.652 Y61.285
G2 X23.656 Y59.18 I-0.471 J-1.516
G1 X23.526 Y58.856
X23.512 Y58.821
X23.378 Y58.506
X23.361 Y58.469
X23.222 Y58.165
X23.204 Y58.127
X23.06 Y57.834
X23.04 Y57.794
X22.892 Y57.511
X22.869 Y57.469
X22.715 Y57.197
X22.689 Y57.153
X22.531 Y56.893
X22.501 Y56.846
X22.338 Y56.597
X22.305 Y56.549
X22.136 Y56.312
X22.099 Y56.261
X21.925 Y56.036
X21.882 Y55.983
X21.703 Y55.77
X21.655 Y55.715
X21.47 Y55.515
X21.416 Y55.46
X21.225 Y55.273
X21.166 Y55.217
X20.969 Y55.043
X20.903 Y54.987
X20.7 Y54.826
X20.629 Y54.773
X20.42 Y54.626
X20.342 Y54.574
X20.128 Y54.441
X20.046 Y54.394
X19.825 Y54.274
X19.742 Y54.232
X19.515 Y54.126
X19.427 Y54.088
X19.195 Y53.996
X19.109 Y53.965
X18.87 Y53.886
X18.784 Y53.86
X18.653 Y53.825
X18.746 Y53.721
X19.091 Y53.35
X19.434 Y52.996
X19.776 Y52.659
X20.115 Y52.341
X20.452 Y52.041
X20.786 Y51.761
X21.118 Y51.5
X21.446 Y51.258
X21.771 Y51.037
X22.093 Y50.835
X22.411 Y50.653
X22.726 Y50.491
X23.039 Y50.347
X23.349 Y50.221
X23.658 Y50.112
X23.966 Y50.02
X24.274 Y49.944
X24.582 Y49.883
X24.892 Y49.837
X25.203 Y49.806
X25.515 Y49.79
X25.831 Y49.787
X26.148 Y49.799
X26.468 Y49.825
X26.79 Y49.864
X27.146 Y49.923
G2 X28.876 Y47.757 I0.26 J-1.566
G1 X28.744 Y47.434
X28.724 Y47.387
X28.583 Y47.072
X28.56 Y47.024
X28.411 Y46.716
X28.386 Y46.668
X28.228 Y46.369
X28.201 Y46.32
X28.033 Y46.029
X28.004 Y45.98
X27.827 Y45.697
X27.795 Y45.647
X27.609 Y45.372
X27.573 Y45.323
X27.378 Y45.057
X27.34 Y45.007
X27.134 Y44.75
X27.093 Y44.7
X26.878 Y44.452
X26.834 Y44.403
X26.608 Y44.164
X26.561 Y44.116
X26.326 Y43.886
X26.276 Y43.84
X26.03 Y43.62
X25.978 Y43.575
X25.722 Y43.365
X25.668 Y43.323
X25.401 Y43.122
X25.347 Y43.083
X25.069 Y42.892
X25.014 Y42.856
X24.725 Y42.674
X24.671 Y42.641
X24.371 Y42.469
X24.318 Y42.44
X24.008 Y42.278
X23.957 Y42.252
X23.637 Y42.098
X23.587 Y42.076
X23.257 Y41.931
X23.208 Y41.911
X22.868 Y41.776
X22.823 Y41.758
X22.473 Y41.632
X22.429 Y41.616
X22.071 Y41.498
X22.029 Y41.485
X21.875 Y41.439
X21.996 Y41.341
X22.488 Y40.956
X22.974 Y40.589
X23.454 Y40.24
X23.928 Y39.91
X24.396 Y39.599
X24.857 Y39.307
X25.311 Y39.036
X25.756 Y38.786
X26.194 Y38.558
X26.623 Y38.351
X27.043 Y38.166
X27.455 Y38.002
X27.858 Y37.861
X28.252 Y37.74
X28.638 Y37.641
X29.017 Y37.561
X29.39 Y37.501
X29.756 Y37.46
X30.117 Y37.436
X30.474 Y37.431
X30.826 Y37.442
X31.176 Y37.47
X31.522 Y37.514
X31.865 Y37.575
X32.206 Y37.652
X32.545 Y37.745
X32.915 Y37.864
G2 X34.985 Y36.213 I0.489 J-1.51
G1 X34.945 Y35.77
X34.938 Y35.702
X34.88 Y35.267
X34.869 Y35.197
X34.793 Y34.77
X34.778 Y34.699
X34.684 Y34.28
X34.666 Y34.207
X34.552 Y33.796
X34.53 Y33.723
X34.398 Y33.319
X34.371 Y33.245
X34.219 Y32.85
X34.188 Y32.776
X34.017 Y32.389
X33.982 Y32.315
X33.79 Y31.937
X33.751 Y31.864
X33.538 Y31.495
X33.495 Y31.424
X33.262 Y31.064
X33.215 Y30.995
X32.961 Y30.644
X32.911 Y30.579
X32.635 Y30.237
X32.583 Y30.175
X32.286 Y29.842
X32.233 Y29.785
X31.914 Y29.462
X31.86 Y29.41
X31.519 Y29.095
X31.466 Y29.048
X31.104 Y28.743
X31.052 Y28.701
X30.669 Y28.405
X30.619 Y28.367
X30.215 Y28.08
X30.167 Y28.047
X29.744 Y27.768
X29.698 Y27.739
X29.255 Y27.468
X29.211 Y27.443
X28.749 Y27.18
X28.708 Y27.158
X28.228 Y26.903
X28.189 Y26.883
X27.69 Y26.637
X27.654 Y26.619
X27.138 Y26.38
X27.103 Y26.364
X26.57 Y26.132
X26.538 Y26.118
X25.988 Y25.893
X25.957 Y25.881
X25.392 Y25.663
X25.56 Y25.509
X26.07 Y25.052
X26.582 Y24.608
X27.095 Y24.177
X27.608 Y23.759
X28.123 Y23.355
X28.638 Y22.966
X29.154 Y22.591
X29.672 Y22.231
X30.19 Y21.887
X30.711 Y21.558
X31.232 Y21.245
X31.756 Y20.948
X32.282 Y20.667
X32.81 Y20.401
X33.341 Y20.151
X33.876 Y19.916
X34.413 Y19.696
X34.954 Y19.49
X35.498 Y19.298
X36.046 Y19.12
X36.597 Y18.955
X37.152 Y18.803
X37.71 Y18.664
X38.27 Y18.537
X38.834 Y18.422
X39.4 Y18.32
X39.969 Y18.229
X40.557 Y18.148
G2 X41.644 Y15.67 I-0.217 J-1.573
G1 X41.236 Y15.082
X41.188 Y15.018
X40.754 Y14.456
X40.703 Y14.392
X40.243 Y13.856
X40.187 Y13.795
X39.701 Y13.284
X39.641 Y13.225
X39.129 Y12.741
X39.065 Y12.684
X38.526 Y12.228
X38.459 Y12.174
X37.892 Y11.744
X37.821 Y11.694
X37.227 Y11.293
X37.172 Y11.258
X36.865 Y11.068
X36.828 Y11.045
X36.513 Y10.863
X36.475 Y10.842
X36.153 Y10.666
X36.115 Y10.646
X35.786 Y10.478
X35.748 Y10.459
X35.411 Y10.299
X35.374 Y10.281
X35.029 Y10.128
X34.992 Y10.112
X34.64 Y9.966
X34.602 Y9.95
X34.243 Y9.812
X34.206 Y9.799
X33.84 Y9.668
X33.802 Y9.655
X33.428 Y9.532
X33.392 Y9.52
X33.011 Y9.405
X32.975 Y9.394
X32.586 Y9.286
X32.552 Y9.277
X32.155 Y9.176
X32.121 Y9.168
X31.717 Y9.075
X31.684 Y9.068
X31.273 Y8.982
X31.241 Y8.976
X30.822 Y8.898
X30.791 Y8.892
X30.365 Y8.822
X30.335 Y8.817
X29.902 Y8.753
X29.859 Y8.748
X28.971 Y8.642
X28.918 Y8.636
X28.002 Y8.559
X27.953 Y8.555
X27.01 Y8.504
X26.965 Y8.503
X25.996 Y8.478
X25.955
X24.961 Y8.479
X24.923
X23.904 Y8.504
X23.869 Y8.506
X22.826 Y8.555
X22.793 Y8.556
X21.727 Y8.628
X21.697 Y8.631
X20.609 Y8.725
X20.581 Y8.727
X19.47 Y8.843
X19.445 Y8.846
X18.313 Y8.982
X18.289 Y8.985
X17.135 Y9.142
X17.113 Y9.146
X15.939 Y9.323
X15.917 Y9.326
X15.354 Y9.419
Y0
G2 X13.767 Y-1.587 I-1.588 J0
G1 X0
G2 X-1.587 Y0 I0 J1.587
G1 Y9.419
X-2.151 Y9.326
X-2.172 Y9.323
X-3.346 Y9.146
X-3.369 Y9.142
X-4.522 Y8.985
X-4.546 Y8.982
X-5.678 Y8.846
X-5.704 Y8.843
X-6.814 Y8.727
X-6.842 Y8.725
X-7.931 Y8.631
X-7.961 Y8.628
X-9.027 Y8.556
X-9.059 Y8.555
X-10.102 Y8.506
X-10.137 Y8.504
X-11.156 Y8.479
X-11.194
X-12.188 Y8.478
X-12.23
X-13.199 Y8.503
X-13.244 Y8.504
X-14.187 Y8.555
X-14.236 Y8.559
X-15.151 Y8.636
X-15.205 Y8.642
X-16.093 Y8.748
X-16.135 Y8.753
X-16.568 Y8.817
X-16.598 Y8.822
X-17.024 Y8.892
X-17.055 Y8.898
X-17.474 Y8.976
X-17.506 Y8.982
X-17.917 Y9.068
X-17.95 Y9.075
X-18.354 Y9.168
X-18.389 Y9.176
X-18.785 Y9.277
X-18.819 Y9.286
X-19.208 Y9.394
X-19.244 Y9.405
X-19.626 Y9.52
X-19.662 Y9.532
X-20.036 Y9.655
X-20.073 Y9.668
X-20.44 Y9.799
X-20.476 Y9.812
X-20.836 Y9.95
X-20.873 Y9.966
X-21.225 Y10.112
X-21.263 Y10.128
X-21.607 Y10.281
X-21.645 Y10.299
X-21.982 Y10.459
X-22.019 Y10.478
X-22.349 Y10.646
X-22.386 Y10.666
X-22.709 Y10.842
X-22.746 Y10.863
X-23.061 Y11.045
X-23.098 Y11.068
X-23.406 Y11.258
X-23.46 Y11.293
X-24.055 Y11.694
X-24.125 Y11.744
X-24.692 Y12.174
X-24.759 Y12.227
X-25.299 Y12.684
X-25.362 Y12.741
X-25.875 Y13.225
X-25.935 Y13.284
X-26.421 Y13.795
X-26.476 Y13.856
X-26.936 Y14.392
X-26.988 Y14.456
X-27.422 Y15.018
X-27.469 Y15.082
X-27.877 Y15.67
G2 X-26.79 Y18.148 I1.304 J0.906
G1 X-26.203 Y18.229
X-25.634 Y18.32
X-25.067 Y18.422
X-24.504 Y18.537
X-23.943 Y18.664
X-23.385 Y18.803
X-22.831 Y18.955
X-22.28 Y19.12
X-21.732 Y19.298
X-21.187 Y19.49
X-20.647 Y19.696
X-20.109 Y19.916
X-19.575 Y20.151
X-19.044 Y20.401
X-18.515 Y20.667
X-17.989 Y20.948
X-17.466 Y21.245
X-16.944 Y21.558
X-16.424 Y21.887
X-15.905 Y22.231
X-15.388 Y22.591
X-14.871 Y22.966
X-14.356 Y23.355
X-13.842 Y23.759
X-13.328 Y24.177
X-12.816 Y24.608
X-12.304 Y25.052
X-11.793 Y25.509
X-11.626 Y25.663
X-12.191 Y25.881
X-12.221 Y25.893
X-12.771 Y26.118
X-12.804 Y26.132
X-13.337 Y26.364
X-13.371 Y26.38
X-13.887 Y26.619
X-13.924 Y26.637
X-14.422 Y26.883
X-14.461 Y26.903
X-14.942 Y27.158
X-14.982 Y27.18
X-15.445 Y27.442
X-15.488 Y27.468
X-15.931 Y27.739
X-15.977 Y27.768
X-16.401 Y28.047
X-16.449 Y28.08
X-16.852 Y28.367
X-16.903 Y28.405
X-17.286 Y28.701
X-17.338 Y28.743
X-17.7 Y29.048
X-17.753 Y29.095
X-18.093 Y29.41
X-18.147 Y29.462
X-18.466 Y29.785
X-18.519 Y29.842
X-18.817 Y30.175
X-18.869 Y30.236
X-19.144 Y30.578
X-19.194 Y30.644
X-19.448 Y30.995
X-19.496 Y31.064
X-19.729 Y31.424
X-19.772 Y31.495
X-19.984 Y31.864
X-20.023 Y31.937
X-20.215 Y32.315
X-20.25 Y32.389
X-20.422 Y32.776
X-20.453 Y32.85
X-20.605 Y33.245
X-20.631 Y33.319
X-20.763 Y33.722
X-20.786 Y33.796
X-20.899 Y34.207
X-20.917 Y34.28
X-21.012 Y34.699
X-21.026 Y34.77
X-21.102 Y35.198
X-21.113 Y35.267
X-21.171 Y35.702
X-21.178 Y35.77
X-21.218 Y36.213
G2 X-19.148 Y37.864 I1.581 J0.141
G1 X-18.778 Y37.745
X-18.439 Y37.652
X-18.099 Y37.575
X-17.755 Y37.514
X-17.409 Y37.47
X-17.06 Y37.442
X-16.707 Y37.431
X-16.351 Y37.436
X-15.99 Y37.46
X-15.623 Y37.501
X-15.251 Y37.561
X-14.872 Y37.641
X-14.486 Y37.74
X-14.091 Y37.861
X-13.688 Y38.002
X-13.277 Y38.166
X-12.856 Y38.351
X-12.427 Y38.558
X-11.99 Y38.786
X-11.544 Y39.036
X-11.091 Y39.307
X-10.63 Y39.599
X-10.162 Y39.91
X-9.688 Y40.24
X-9.207 Y40.589
X-8.721 Y40.956
X-8.229 Y41.341
X-8.108 Y41.439
X-8.262 Y41.485
X-8.304 Y41.498
X-8.663 Y41.616
X-8.707 Y41.632
X-9.056 Y41.758
X-9.102 Y41.776
X-9.442 Y41.911
X-9.49 Y41.931
X-9.82 Y42.075
X-9.87 Y42.098
X-10.19 Y42.252
X-10.242 Y42.278
X-10.552 Y42.44
X-10.605 Y42.469
X-10.904 Y42.641
X-10.959 Y42.674
X-11.247 Y42.856
X-11.302 Y42.891
X-11.58 Y43.083
X-11.634 Y43.122
X-11.902 Y43.323
X-11.955 Y43.365
X-12.212 Y43.575
X-12.264 Y43.62
X-12.51 Y43.84
X-12.559 Y43.886
X-12.795 Y44.116
X-12.842 Y44.164
X-13.067 Y44.403
X-13.111 Y44.452
X-13.327 Y44.7
X-13.368 Y44.75
X-13.573 Y45.007
X-13.611 Y45.057
X-13.807 Y45.323
X-13.842 Y45.372
X-14.028 Y45.647
X-14.06 Y45.697
X-14.237 Y45.98
X-14.267 Y46.029
X-14.435 Y46.321
X-14.461 Y46.369
X-14.62 Y46.668
X-14.644 Y46.717
X-14.794 Y47.024
X-14.816 Y47.072
X-14.957 Y47.387
X-14.977 Y47.434
X-15.109 Y47.757
G2 X-13.379 Y49.923 I1.47 J0.6
G1 X-13.023 Y49.864
X-12.701 Y49.825
X-12.381 Y49.799
X-12.064 Y49.787
X-11.749 Y49.79
X-11.436 Y49.806
X-11.125 Y49.837
X-10.816 Y49.883
X-10.507 Y49.944
X-10.199 Y50.02
X-9.891 Y50.112
X-9.583 Y50.221
X-9.272 Y50.347
X-8.96 Y50.491
X-8.645 Y50.653
X-8.326 Y50.835
X-8.005 Y51.037
X-7.68 Y51.258
X-7.351 Y51.5
X-7.02 Y51.761
X-6.686 Y52.041
X-6.348 Y52.341
X-6.009 Y52.66
X-5.668 Y52.996
X-5.324 Y53.35
X-4.98 Y53.721
X-4.887 Y53.825
X-5.017 Y53.86
X-5.104 Y53.886
X-5.342 Y53.965
X-5.428 Y53.996
X-5.661 Y54.088
X-5.748 Y54.126
X-5.975 Y54.232
X-6.059 Y54.274
X-6.28 Y54.394
X-6.361 Y54.441
X-6.576 Y54.574
X-6.654 Y54.626
X-6.862 Y54.773
X-6.934 Y54.826
X-7.136 Y54.987
X-7.202 Y55.043
X-7.399 Y55.217
X-7.459 Y55.273
X-7.65 Y55.46
X-7.703 Y55.515
X-7.888 Y55.716
X-7.936 Y55.77
X-8.116 Y55.983
X-8.158 Y56.035
X-8.332 Y56.261
X-8.37 Y56.312
X-8.538 Y56.549
X-8.571 Y56.597
X-8.735 Y56.846
X-8.764 Y56.893
X-8.923 Y57.153
X-8.949 Y57.197
X-9.102 Y57.469
X-9.125 Y57.511
X-9.273 Y57.794
X-9.294 Y57.834
X-9.438 Y58.127
X-9.456 Y58.165
X-9.595 Y58.469
X-9.611 Y58.506
X-9.745 Y58.821
X-9.76 Y58.856
X-9.889 Y59.181
G2 X-8.885 Y61.285 I1.474 J0.588
G1 X-8.426 Y61.427
X-7.989 Y61.576
X-7.555 Y61.735
X-7.123 Y61.907
X-6.693 Y62.09
X-6.267 Y62.286
X-5.843 Y62.493
X-5.422 Y62.714
X-5.004 Y62.947
X-4.588 Y63.193
X-4.175 Y63.453
X-3.765 Y63.727
X-3.356 Y64.015
X-2.951 Y64.317
X-2.547 Y64.635
X-2.145 Y64.967
X-1.744 Y65.315
X-1.345 Y65.678
X-0.948 Y66.057
X-0.552 Y66.45
X-0.157 Y66.858
X0.236 Y67.281
X0.627 Y67.717
X1.017 Y68.167
X1.406 Y68.631
X1.793 Y69.107
X1.986 Y69.353
X0.232 Y69.158
G2 X-1.342 Y71.487 I-0.175 J1.578
G1 X0.724 Y75.333
X-3.122 Y78.632
G2 X-2.088 Y81.424 I1.034 J1.205
G1 X3.011
X5.475 Y86.158
G2 X6.883 Y87.012 I1.408 J-0.733
G3 X7.201 Y87.33 I0 J0.318 F520
G1 Y87.647
G19 G3 Y87.965 Z-2.433 J0 K0.318
G1 Z6 F650
X6.566
Z-2.115 F260
Z-3.183
G2 Y87.647 Z-3.5 J-0.317 K0 F520
G1 Y87.33
G17 G3 X6.883 Y87.012 I0.317 J0
G2 X8.291 Y86.158 I0 J-1.588 F650
G1 X10.755 Y81.424
X15.855
G2 X16.888 Y78.632 I0 J-1.588
G1 X13.043 Y75.333
X15.108 Y71.487
G2 X13.534 Y69.158 I-1.399 J-0.751
G1 X11.78 Y69.353
X11.974 Y69.107
X12.361 Y68.631
X12.749 Y68.167
X13.139 Y67.717
X13.531 Y67.281
X13.924 Y66.858
X14.319 Y66.45
X14.715 Y66.057
X15.112 Y65.678
X15.511 Y65.315
X15.911 Y64.967
X16.313 Y64.635
X16.717 Y64.317
X17.123 Y64.015
X17.531 Y63.727
X17.942 Y63.453
X18.355 Y63.193
X18.77 Y62.947
X19.189 Y62.714
X19.61 Y62.493
X20.033 Y62.286
X20.46 Y62.09
X20.889 Y61.907
X21.321 Y61.735
X21.756 Y61.575
X22.193 Y61.427
X22.652 Y61.285
G2 X23.656 Y59.18 I-0.471 J-1.516
G1 X23.526 Y58.856
X23.512 Y58.821
X23.378 Y58.506
X23.361 Y58.469
X23.222 Y58.165
X23.204 Y58.127
X23.06 Y57.834
X23.04 Y57.794
X22.892 Y57.511
X22.869 Y57.469
X22.715 Y57.197
X22.689 Y57.153
X22.531 Y56.893
X22.501 Y56.846
X22.338 Y56.597
X22.305 Y56.549
X22.136 Y56.312
X22.099 Y56.261
X21.925 Y56.036
X21.882 Y55.983
X21.703 Y55.77
X21.655 Y55.715
X21.47 Y55.515
X21.416 Y55.46
X21.225 Y55.273
X21.166 Y55.217
X20.969 Y55.043
X20.903 Y54.987
X20.7 Y54.826
X20.629 Y54.773
X20.42 Y54.626
X20.342 Y54.574
X20.128 Y54.441
X20.046 Y54.394
X19.825 Y54.274
X19.742 Y54.232
X19.515 Y54.126
X19.427 Y54.088
X19.195 Y53.996
X19.109 Y53.965
X18.87 Y53.886
X18.784 Y53.86
X18.653 Y53.825
X18.746 Y53.721
X19.091 Y53.35
X19.434 Y52.996
X19.776 Y52.659
X20.115 Y52.341
X20.452 Y52.041
X20.786 Y51.761
X21.118 Y51.5
X21.446 Y51.258
X21.771 Y51.037
X22.093 Y50.835
X22.411 Y50.653
X22.726 Y50.491
X23.039 Y50.347
X23.349 Y50.221
X23.658 Y50.112
X23.966 Y50.02
X24.274 Y49.944
X24.582 Y49.883
X24.892 Y49.837
X25.203 Y49.806
X25.515 Y49.79
X25.831 Y49.787
X26.148 Y49.799
X26.468 Y49.825
X26.79 Y49.864
X27.146 Y49.923
G2 X28.876 Y47.757 I0.26 J-1.566
G1 X28.744 Y47.434
X28.724 Y47.387
X28.583 Y47.072
X28.56 Y47.024
X28.411 Y46.716
X28.386 Y46.668
X28.228 Y46.369
X28.201 Y46.32
X28.033 Y46.029
X28.004 Y45.98
X27.827 Y45.697
X27.795 Y45.647
X27.609 Y45.372
X27.573 Y45.323
X27.378 Y45.057
X27.34 Y45.007
X27.134 Y44.75
X27.093 Y44.7
X26.878 Y44.452
X26.834 Y44.403
X26.608 Y44.164
X26.561 Y44.116
X26.326 Y43.886
X26.276 Y43.84
X26.03 Y43.62
X25.978 Y43.575
X25.722 Y43.365
X25.668 Y43.323
X25.401 Y43.122
X25.347 Y43.083
X25.069 Y42.892
X25.014 Y42.856
X24.725 Y42.674
X24.671 Y42.641
X24.371 Y42.469
X24.318 Y42.44
X24.008 Y42.278
X23.957 Y42.252
X23.637 Y42.098
X23.587 Y42.076
X23.257 Y41.931
X23.208 Y41.911
X22.868 Y41.776
X22.823 Y41.758
X22.473 Y41.632
X22.429 Y41.616
X22.071 Y41.498
X22.029 Y41.485
X21.875 Y41.439
X21.996 Y41.341
X22.488 Y40.956
X22.974 Y40.589
X23.454 Y40.24
X23.928 Y39.91
X24.396 Y39.599
X24.857 Y39.307
X25.311 Y39.036
X25.756 Y38.786
X26.194 Y38.558
X26.623 Y38.351
X27.043 Y38.166
X27.455 Y38.002
X27.858 Y37.861
X28.252 Y37.74
X28.638 Y37.641
X29.017 Y37.561
X29.39 Y37.501
X29.756 Y37.46
X30.117 Y37.436
X30.474 Y37.431
X30.826 Y37.442
X31.176 Y37.47
X31.522 Y37.514
X31.865 Y37.575
X32.206 Y37.652
X32.545 Y37.745
X32.915 Y37.864
G2 X34.985 Y36.213 I0.489 J-1.51
G1 X34.945 Y35.77
X34.938 Y35.702
X34.88 Y35.267
X34.869 Y35.197
X34.793 Y34.77
X34.778 Y34.699
X34.684 Y34.28
X34.666 Y34.207
X34.552 Y33.796
X34.53 Y33.723
X34.398 Y33.319
X34.371 Y33.245
X34.219 Y32.85
X34.188 Y32.776
X34.017 Y32.389
X33.982 Y32.315
X33.79 Y31.937
X33.751 Y31.864
X33.538 Y31.495
X33.495 Y31.424
X33.262 Y31.064
X33.215 Y30.995
X32.961 Y30.644
X32.911 Y30.579
X32.635 Y30.237
X32.583 Y30.175
X32.286 Y29.842
X32.233 Y29.785
X31.914 Y29.462
X31.86 Y29.41
X31.519 Y29.095
X31.466 Y29.048
X31.104 Y28.743
X31.052 Y28.701
X30.669 Y28.405
X30.619 Y28.367
X30.215 Y28.08
X30.167 Y28.047
X29.744 Y27.768
X29.698 Y27.739
X29.255 Y27.468
X29.211 Y27.443
X28.749 Y27.18
X28.708 Y27.158
X28.228 Y26.903
X28.189 Y26.883
X27.69 Y26.637
X27.654 Y26.619
X27.138 Y26.38
X27.103 Y26.364
X26.57 Y26.132
X26.538 Y26.118
X25.988 Y25.893
X25.957 Y25.881
X25.392 Y25.663
X25.56 Y25.509
X26.07 Y25.052
X26.582 Y24.608
X27.095 Y24.177
X27.608 Y23.759
X28.123 Y23.355
X28.638 Y22.966
X29.154 Y22.591
X29.672 Y22.231
X30.19 Y21.887
X30.711 Y21.558
X31.232 Y21.245
X31.756 Y20.948
X32.282 Y20.667
X32.81 Y20.401
X33.341 Y20.151
X33.876 Y19.916
X34.413 Y19.696
X34.954 Y19.49
X35.498 Y19.298
X36.046 Y19.12
X36.597 Y18.955
X37.152 Y18.803
X37.71 Y18.664
X38.27 Y18.537
X38.834 Y18.422
X39.4 Y18.32
X39.969 Y18.229
X40.557 Y18.148
G2 X41.644 Y15.67 I-0.217 J-1.573
G1 X41.236 Y15.082
X41.188 Y15.018
X40.754 Y14.456
X40.703 Y14.392
X40.243 Y13.856
X40.187 Y13.795
X39.701 Y13.284
X39.641 Y13.225
X39.129 Y12.741
X39.065 Y12.684
X38.526 Y12.228
X38.459 Y12.174
X37.892 Y11.744
X37.821 Y11.694
X37.227 Y11.293
X37.172 Y11.258
X36.865 Y11.068
X36.828 Y11.045
X36.513 Y10.863
X36.475 Y10.842
X36.153 Y10.666
X36.115 Y10.646
X35.786 Y10.478
X35.748 Y10.459
X35.411 Y10.299
X35.374 Y10.281
X35.029 Y10.128
X34.992 Y10.112
X34.64 Y9.966
X34.602 Y9.95
X34.243 Y9.812
X34.206 Y9.799
X33.84 Y9.668
X33.802 Y9.655
X33.428 Y9.532
X33.392 Y9.52
X33.011 Y9.405
X32.975 Y9.394
X32.586 Y9.286
X32.552 Y9.277
X32.155 Y9.176
X32.121 Y9.168
X31.717 Y9.075
X31.684 Y9.068
X31.273 Y8.982
X31.241 Y8.976
X30.822 Y8.898
X30.791 Y8.892
X30.365 Y8.822
X30.335 Y8.817
X29.902 Y8.753
X29.859 Y8.748
X28.971 Y8.642
X28.918 Y8.636
X28.002 Y8.559
X27.953 Y8.555
X27.01 Y8.504
X26.965 Y8.503
X25.996 Y8.478
X25.955
X24.961 Y8.479
X24.923
X23.904 Y8.504
X23.869 Y8.506
X22.826 Y8.555
X22.793 Y8.556
X21.727 Y8.628
X21.697 Y8.631
X20.609 Y8.725
X20.581 Y8.727
X19.47 Y8.843
X19.445 Y8.846
X18.313 Y8.982
X18.289 Y8.985
X17.135 Y9.142
X17.113 Y9.146
X15.939 Y9.323
X15.917 Y9.326
X15.354 Y9.419
Y0
G2 X13.767 Y-1.587 I-1.588 J0
G1 X0
G2 X-1.587 Y0 I0 J1.587
G1 Y9.419
X-2.151 Y9.326
X-2.172 Y9.323
X-3.346 Y9.146
X-3.369 Y9.142
X-4.522 Y8.985
X-4.546 Y8.982
X-5.678 Y8.846
X-5.704 Y8.843
X-6.814 Y8.727
X-6.842 Y8.725
X-7.931 Y8.631
X-7.961 Y8.628
X-9.027 Y8.556
X-9.059 Y8.555
X-10.102 Y8.506
X-10.137 Y8.504
X-11.156 Y8.479
X-11.194
X-12.188 Y8.478
X-12.23
X-13.199 Y8.503
X-13.244 Y8.504
X-14.187 Y8.555
X-14.236 Y8.559
X-15.151 Y8.636
X-15.205 Y8.642
X-16.093 Y8.748
X-16.135 Y8.753
X-16.568 Y8.817
X-16.598 Y8.822
X-17.024 Y8.892
X-17.055 Y8.898
X-17.474 Y8.976
X-17.506 Y8.982
X-17.917 Y9.068
X-17.95 Y9.075
X-18.354 Y9.168
X-18.389 Y9.176
X-18.785 Y9.277
X-18.819 Y9.286
X-19.208 Y9.394
X-19.244 Y9.405
X-19.626 Y9.52
X-19.662 Y9.532
X-20.036 Y9.655
X-20.073 Y9.668
X-20.44 Y9.799
X-20.476 Y9.812
X-20.836 Y9.95
X-20.873 Y9.966
X-21.225 Y10.112
X-21.263 Y10.128
X-21.607 Y10.281
X-21.645 Y10.299
X-21.982 Y10.459
X-22.019 Y10.478
X-22.349 Y10.646
X-22.386 Y10.666
X-22.709 Y10.842
X-22.746 Y10.863
X-23.061 Y11.045
X-23.098 Y11.068
X-23.406 Y11.258
X-23.46 Y11.293
X-24.055 Y11.694
X-24.125 Y11.744
X-24.692 Y12.174
X-24.759 Y12.227
X-25.299 Y12.684
X-25.362 Y12.741
X-25.875 Y13.225
X-25.935 Y13.284
X-26.421 Y13.795
X-26.476 Y13.856
X-26.936 Y14.392
X-26.988 Y14.456
X-27.422 Y15.018
X-27.469 Y15.082
X-27.877 Y15.67
G2 X-26.79 Y18.148 I1.304 J0.906
G1 X-26.203 Y18.229
X-25.634 Y18.32
X-25.067 Y18.422
X-24.504 Y18.537
X-23.943 Y18.664
X-23.385 Y18.803
X-22.831 Y18.955
X-22.28 Y19.12
X-21.732 Y19.298
X-21.187 Y19.49
X-20.647 Y19.696
X-20.109 Y19.916
X-19.575 Y20.151
X-19.044 Y20.401
X-18.515 Y20.667
X-17.989 Y20.948
X-17.466 Y21.245
X-16.944 Y21.558
X-16.424 Y21.887
X-15.905 Y22.231
X-15.388 Y22.591
X-14.871 Y22.966
X-14.356 Y23.355
X-13.842 Y23.759
X-13.328 Y24.177
X-12.816 Y24.608
X-12.304 Y25.052
X-11.793 Y25.509
X-11.626 Y25.663
X-12.191 Y25.881
X-12.221 Y25.893
X-12.771 Y26.118
X-12.804 Y26.132
X-13.337 Y26.364
X-13.371 Y26.38
X-13.887 Y26.619
X-13.924 Y26.637
X-14.422 Y26.883
X-14.461 Y26.903
X-14.942 Y27.158
X-14.982 Y27.18
X-15.445 Y27.442
X-15.488 Y27.468
X-15.931 Y27.739
X-15.977 Y27.768
X-16.401 Y28.047
X-16.449 Y28.08
X-16.852 Y28.367
X-16.903 Y28.405
X-17.286 Y28.701
X-17.338 Y28.743
X-17.7 Y29.048
X-17.753 Y29.095
X-18.093 Y29.41
X-18.147 Y29.462
X-18.466 Y29.785
X-18.519 Y29.842
X-18.817 Y30.175
X-18.869 Y30.236
X-19.144 Y30.578
X-19.194 Y30.644
X-19.448 Y30.995
X-19.496 Y31.064
X-19.729 Y31.424
X-19.772 Y31.495
X-19.984 Y31.864
X-20.023 Y31.937
X-20.215 Y32.315
X-20.25 Y32.389
X-20.422 Y32.776
X-20.453 Y32.85
X-20.605 Y33.245
X-20.631 Y33.319
X-20.763 Y33.722
X-20.786 Y33.796
X-20.899 Y34.207
X-20.917 Y34.28
X-21.012 Y34.699
X-21.026 Y34.77
X-21.102 Y35.198
X-21.113 Y35.267
X-21.171 Y35.702
X-21.178 Y35.77
X-21.218 Y36.213
G2 X-19.148 Y37.864 I1.581 J0.141
G1 X-18.778 Y37.745
X-18.439 Y37.652
X-18.099 Y37.575
X-17.755 Y37.514
X-17.409 Y37.47
X-17.06 Y37.442
X-16.707 Y37.431
X-16.351 Y37.436
X-15.99 Y37.46
X-15.623 Y37.501
X-15.251 Y37.561
X-14.872 Y37.641
X-14.486 Y37.74
X-14.091 Y37.861
X-13.688 Y38.002
X-13.277 Y38.166
X-12.856 Y38.351
X-12.427 Y38.558
X-11.99 Y38.786
X-11.544 Y39.036
X-11.091 Y39.307
X-10.63 Y39.599
X-10.162 Y39.91
X-9.688 Y40.24
X-9.207 Y40.589
X-8.721 Y40.956
X-8.229 Y41.341
X-8.108 Y41.439
X-8.262 Y41.485
X-8.304 Y41.498
X-8.663 Y41.616
X-8.707 Y41.632
X-9.056 Y41.758
X-9.102 Y41.776
X-9.442 Y41.911
X-9.49 Y41.931
X-9.82 Y42.075
X-9.87 Y42.098
X-10.19 Y42.252
X-10.242 Y42.278
X-10.552 Y42.44
X-10.605 Y42.469
X-10.904 Y42.641
X-10.959 Y42.674
X-11.247 Y42.856
X-11.302 Y42.891
X-11.58 Y43.083
X-11.634 Y43.122
X-11.902 Y43.323
X-11.955 Y43.365
X-12.212 Y43.575
X-12.264 Y43.62
X-12.51 Y43.84
X-12.559 Y43.886
X-12.795 Y44.116
X-12.842 Y44.164
X-13.067 Y44.403
X-13.111 Y44.452
X-13.327 Y44.7
X-13.368 Y44.75
X-13.573 Y45.007
X-13.611 Y45.057
X-13.807 Y45.323
X-13.842 Y45.372
X-14.028 Y45.647
X-14.06 Y45.697
X-14.237 Y45.98
X-14.267 Y46.029
X-14.435 Y46.321
X-14.461 Y46.369
X-14.62 Y46.668
X-14.644 Y46.717
X-14.794 Y47.024
X-14.816 Y47.072
X-14.957 Y47.387
X-14.977 Y47.434
X-15.109 Y47.757
G2 X-13.379 Y49.923 I1.47 J0.6
G1 X-13.023 Y49.864
X-12.701 Y49.825
X-12.381 Y49.799
X-12.064 Y49.787
X-11.749 Y49.79
X-11.436 Y49.806
X-11.125 Y49.837
X-10.816 Y49.883
X-10.507 Y49.944
X-10.199 Y50.02
X-9.891 Y50.112
X-9.583 Y50.221
X-9.272 Y50.347
X-8.96 Y50.491
X-8.645 Y50.653
X-8.326 Y50.835
X-8.005 Y51.037
X-7.68 Y51.258
X-7.351 Y51.5
X-7.02 Y51.761
X-6.686 Y52.041
X-6.348 Y52.341
X-6.009 Y52.66
X-5.668 Y52.996
X-5.324 Y53.35
X-4.98 Y53.721
X-4.887 Y53.825
X-5.017 Y53.86
X-5.104 Y53.886
X-5.342 Y53.965
X-5.428 Y53.996
X-5.661 Y54.088
X-5.748 Y54.126
X-5.975 Y54.232
X-6.059 Y54.274
X-6.28 Y54.394
X-6.361 Y54.441
X-6.576 Y54.574
X-6.654 Y54.626
X-6.862 Y54.773
X-6.934 Y54.826
X-7.136 Y54.987
X-7.202 Y55.043
X-7.399 Y55.217
X-7.459 Y55.273
X-7.65 Y55.46
X-7.703 Y55.515
X-7.888 Y55.716
X-7.936 Y55.77
X-8.116 Y55.983
X-8.158 Y56.035
X-8.332 Y56.261
X-8.37 Y56.312
X-8.538 Y56.549
X-8.571 Y56.597
X-8.735 Y56.846
X-8.764 Y56.893
X-8.923 Y57.153
X-8.949 Y57.197
X-9.102 Y57.469
X-9.125 Y57.511
X-9.273 Y57.794
X-9.294 Y57.834
X-9.438 Y58.127
X-9.456 Y58.165
X-9.595 Y58.469
X-9.611 Y58.506
X-9.745 Y58.821
X-9.76 Y58.856
X-9.889 Y59.181
G2 X-8.885 Y61.285 I1.474 J0.588
G1 X-8.426 Y61.427
X-7.989 Y61.576
X-7.555 Y61.735
X-7.123 Y61.907
X-6.693 Y62.09
X-6.267 Y62.286
X-5.843 Y62.493
X-5.422 Y62.714
X-5.004 Y62.947
X-4.588 Y63.193
X-4.175 Y63.453
X-3.765 Y63.727
X-3.356 Y64.015
X-2.951 Y64.317
X-2.547 Y64.635
X-2.145 Y64.967
X-1.744 Y65.315
X-1.345 Y65.678
X-0.948 Y66.057
X-0.552 Y66.45
X-0.157 Y66.858
X0.236 Y67.281
X0.627 Y67.717
X1.017 Y68.167
X1.406 Y68.631
X1.793 Y69.107
X1.986 Y69.353
X0.232 Y69.158
G2 X-1.342 Y71.487 I-0.175 J1.578
G1 X0.724 Y75.333
X-3.122 Y78.632
G2 X-2.088 Y81.424 I1.034 J1.205
G1 X3.011
X5.475 Y86.158
G2 X6.883 Y87.012 I1.408 J-0.733
G3 X7.201 Y87.33 I0 J0.318 F520
G1 Y87.647
G19 G3 Y87.965 Z-3.183 J0 K0.318
G1 Z6 F650
X6.566
Z-2.865 F260
Z-3.933
G2 Y87.647 Z-4.25 J-0.317 K0 F520
G1 Y87.33
G17 G3 X6.883 Y87.012 I0.317 J0
G2 X8.291 Y86.158 I0 J-1.588 F650
G1 X10.755 Y81.424
X15.855
G2 X16.888 Y78.632 I0 J-1.588
G1 X13.043 Y75.333
X15.108 Y71.487
G2 X13.534 Y69.158 I-1.399 J-0.751
G1 X11.78 Y69.353
X11.974 Y69.107
X12.361 Y68.631
X12.749 Y68.167
X13.139 Y67.717
X13.531 Y67.281
X13.924 Y66.858
X14.319 Y66.45
X14.715 Y66.057
X15.112 Y65.678
X15.511 Y65.315
X15.911 Y64.967
X16.313 Y64.635
X16.717 Y64.317
X17.123 Y64.015
X17.531 Y63.727
X17.942 Y63.453
X18.355 Y63.193
X18.77 Y62.947
X19.189 Y62.714
X19.61 Y62.493
X20.033 Y62.286
X20.46 Y62.09
X20.889 Y61.907
X21.321 Y61.735
X21.756 Y61.575
X22.193 Y61.427
X22.652 Y61.285
G2 X23.656 Y59.18 I-0.471 J-1.516
G1 X23.526 Y58.856
X23.512 Y58.821
X23.378 Y58.506
X23.361 Y58.469
X23.222 Y58.165
X23.204 Y58.127
X23.06 Y57.834
X23.04 Y57.794
X22.892 Y57.511
X22.869 Y57.469
X22.715 Y57.197
X22.689 Y57.153
X22.531 Y56.893
X22.501 Y56.846
X22.338 Y56.597
X22.305 Y56.549
X22.136 Y56.312
X22.099 Y56.261
X21.925 Y56.036
X21.882 Y55.983
X21.703 Y55.77
X21.655 Y55.715
X21.47 Y55.515
X21.416 Y55.46
X21.225 Y55.273
X21.166 Y55.217
X20.969 Y55.043
X20.903 Y54.987
X20.7 Y54.826
X20.629 Y54.773
X20.42 Y54.626
X20.342 Y54.574
X20.128 Y54.441
X20.046 Y54.394
X19.825 Y54.274
X19.742 Y54.232
X19.515 Y54.126
X19.427 Y54.088
X19.195 Y53.996
X19.109 Y53.965
X18.87 Y53.886
X18.784 Y53.86
X18.653 Y53.825
X18.746 Y53.721
X19.091 Y53.35
X19.434 Y52.996
X19.776 Y52.659
X20.115 Y52.341
X20.452 Y52.041
X20.786 Y51.761
X21.118 Y51.5
X21.446 Y51.258
X21.771 Y51.037
X22.093 Y50.835
X22.411 Y50.653
X22.726 Y50.491
X23.039 Y50.347
X23.349 Y50.221
X23.658 Y50.112
X23.966 Y50.02
X24.274 Y49.944
X24.582 Y49.883
X24.892 Y49.837
X25.203 Y49.806
X25.515 Y49.79
X25.831 Y49.787
X26.148 Y49.799
X26.468 Y49.825
X26.79 Y49.864
X27.146 Y49.923
G2 X28.876 Y47.757 I0.26 J-1.566
G1 X28.744 Y47.434
X28.724 Y47.387
X28.583 Y47.072
X28.56 Y47.024
X28.411 Y46.716
X28.386 Y46.668
X28.228 Y46.369
X28.201 Y46.32
X28.033 Y46.029
X28.004 Y45.98
X27.827 Y45.697
X27.795 Y45.647
X27.609 Y45.372
X27.573 Y45.323
X27.378 Y45.057
X27.34 Y45.007
X27.134 Y44.75
X27.093 Y44.7
X26.878 Y44.452
X26.834 Y44.403
X26.608 Y44.164
X26.561 Y44.116
X26.326 Y43.886
X26.276 Y43.84
X26.03 Y43.62
X25.978 Y43.575
X25.722 Y43.365
X25.668 Y43.323
X25.401 Y43.122
X25.347 Y43.083
X25.069 Y42.892
X25.014 Y42.856
X24.725 Y42.674
X24.671 Y42.641
X24.371 Y42.469
X24.318 Y42.44
X24.008 Y42.278
X23.957 Y42.252
X23.637 Y42.098
X23.587 Y42.076
X23.257 Y41.931
X23.208 Y41.911
X22.868 Y41.776
X22.823 Y41.758
X22.473 Y41.632
X22.429 Y41.616
X22.071 Y41.498
X22.029 Y41.485
X21.875 Y41.439
X21.996 Y41.341
X22.488 Y40.956
X22.974 Y40.589
X23.454 Y40.24
X23.928 Y39.91
X24.396 Y39.599
X24.857 Y39.307
X25.311 Y39.036
X25.756 Y38.786
X26.194 Y38.558
X26.623 Y38.351
X27.043 Y38.166
X27.455 Y38.002
X27.858 Y37.861
X28.252 Y37.74
X28.638 Y37.641
X29.017 Y37.561
X29.39 Y37.501
X29.756 Y37.46
X30.117 Y37.436
X30.474 Y37.431
X30.826 Y37.442
X31.176 Y37.47
X31.522 Y37.514
X31.865 Y37.575
X32.206 Y37.652
X32.545 Y37.745
X32.915 Y37.864
G2 X34.985 Y36.213 I0.489 J-1.51
G1 X34.945 Y35.77
X34.938 Y35.702
X34.88 Y35.267
X34.869 Y35.197
X34.793 Y34.77
X34.778 Y34.699
X34.684 Y34.28
X34.666 Y34.207
X34.552 Y33.796
X34.53 Y33.723
X34.398 Y33.319
X34.371 Y33.245
X34.219 Y32.85
X34.188 Y32.776
X34.017 Y32.389
X33.982 Y32.315
X33.79 Y31.937
X33.751 Y31.864
X33.538 Y31.495
X33.495 Y31.424
X33.262 Y31.064
X33.215 Y30.995
X32.961 Y30.644
X32.911 Y30.579
X32.635 Y30.237
X32.583 Y30.175
X32.286 Y29.842
X32.233 Y29.785
X31.914 Y29.462
X31.86 Y29.41
X31.519 Y29.095
X31.466 Y29.048
X31.104 Y28.743
X31.052 Y28.701
X30.669 Y28.405
X30.619 Y28.367
X30.215 Y28.08
X30.167 Y28.047
X29.744 Y27.768
X29.698 Y27.739
X29.255 Y27.468
X29.211 Y27.443
X28.749 Y27.18
X28.708 Y27.158
X28.228 Y26.903
X28.189 Y26.883
X27.69 Y26.637
X27.654 Y26.619
X27.138 Y26.38
X27.103 Y26.364
X26.57 Y26.132
X26.538 Y26.118
X25.988 Y25.893
X25.957 Y25.881
X25.392 Y25.663
X25.56 Y25.509
X26.07 Y25.052
X26.582 Y24.608
X27.095 Y24.177
X27.608 Y23.759
X28.123 Y23.355
X28.638 Y22.966
X29.154 Y22.591
X29.672 Y22.231
X30.19 Y21.887
X30.711 Y21.558
X31.232 Y21.245
X31.756 Y20.948
X32.282 Y20.667
X32.81 Y20.401
X33.341 Y20.151
X33.876 Y19.916
X34.413 Y19.696
X34.954 Y19.49
X35.498 Y19.298
X36.046 Y19.12
X36.597 Y18.955
X37.152 Y18.803
X37.71 Y18.664
X38.27 Y18.537
X38.834 Y18.422
X39.4 Y18.32
X39.969 Y18.229
X40.557 Y18.148
G2 X41.644 Y15.67 I-0.217 J-1.573
G1 X41.236 Y15.082
X41.188 Y15.018
X40.754 Y14.456
X40.703 Y14.392
X40.243 Y13.856
X40.187 Y13.795
X39.701 Y13.284
X39.641 Y13.225
X39.129 Y12.741
X39.065 Y12.684
X38.526 Y12.228
X38.459 Y12.174
X37.892 Y11.744
X37.821 Y11.694
X37.227 Y11.293
X37.172 Y11.258
X36.865 Y11.068
X36.828 Y11.045
X36.513 Y10.863
X36.475 Y10.842
X36.153 Y10.666
X36.115 Y10.646
X35.786 Y10.478
X35.748 Y10.459
X35.411 Y10.299
X35.374 Y10.281
X35.029 Y10.128
X34.992 Y10.112
X34.64 Y9.966
X34.602 Y9.95
X34.243 Y9.812
X34.206 Y9.799
X33.84 Y9.668
X33.802 Y9.655
X33.428 Y9.532
X33.392 Y9.52
X33.011 Y9.405
X32.975 Y9.394
X32.586 Y9.286
X32.552 Y9.277
X32.155 Y9.176
X32.121 Y9.168
X31.717 Y9.075
X31.684 Y9.068
X31.273 Y8.982
X31.241 Y8.976
X30.822 Y8.898
X30.791 Y8.892
X30.365 Y8.822
X30.335 Y8.817
X29.902 Y8.753
X29.859 Y8.748
X28.971 Y8.642
X28.918 Y8.636
X28.002 Y8.559
X27.953 Y8.555
X27.01 Y8.504
X26.965 Y8.503
X25.996 Y8.478
X25.955
X24.961 Y8.479
X24.923
X23.904 Y8.504
X23.869 Y8.506
X22.826 Y8.555
X22.793 Y8.556
X21.727 Y8.628
X21.697 Y8.631
X20.609 Y8.725
X20.581 Y8.727
X19.47 Y8.843
X19.445 Y8.846
X18.313 Y8.982
X18.289 Y8.985
X17.135 Y9.142
X17.113 Y9.146
X15.939 Y9.323
X15.917 Y9.326
X15.354 Y9.419
Y0
G2 X13.767 Y-1.587 I-1.588 J0
G1 X0
G2 X-1.587 Y0 I0 J1.587
G1 Y9.419
X-2.151 Y9.326
X-2.172 Y9.323
X-3.346 Y9.146
X-3.369 Y9.142
X-4.522 Y8.985
X-4.546 Y8.982
